; generated by PrusaSlicer 2.6.1+linux-x64-GTK3 on 2023-09-16 at 03:08:17 UTC

; 

; external perimeters extrusion width = 0.45mm
; perimeters extrusion width = 0.45mm
; infill extrusion width = 0.45mm
; solid infill extrusion width = 0.45mm
; top infill extrusion width = 0.40mm
; first layer extrusion width = 0.42mm

M190 S65 ; set bed temperature and wait for it to be reached
M104 S225 ; set temperature
;TYPE:Custom
G28 ; home all axes
G1 Z5 F5000 ; lift nozzle
M109 S225 ; set temperature and wait for it to be reached
G21 ; set units to millimeters
G90 ; use absolute coordinates
M82 ; use absolute distances for extrusion
G92 E0
; Filament gcode
M107
;LAYER_CHANGE
;Z:0.25
;HEIGHT:0.25
G1 Z.25 F30000
G1 E-2 F2400
G92 E0
G1 X75.013 Y67.897 F30000
G1 E2 F2400
;TYPE:Skirt/Brim
;WIDTH:0.42
G1 X75.554 Y67.299 E2.03071
G1 X78.314 Y64.633 E2.17683
G1 X80.677 Y62.625 E2.29491
G1 X83.755 Y60.334 E2.44101
G1 X86.9 Y58.379 E2.58202
G1 X88.723 Y57.344 E2.66184
G1 X93.743 Y55.038 E2.87219
G1 X97.367 Y53.777 E3.0183
G1 X100.355 Y52.947 E3.13638
G1 X104.11 Y52.16 E3.28247
G1 X108.192 Y51.663 E3.43905
G1 X111.288 Y51.495 E3.55711
G1 X115.125 Y51.533 E3.70322
G1 X119.218 Y51.925 E3.85978
G1 X122.278 Y52.426 E3.97785
G1 X126.282 Y53.362 E4.13442
G1 X131.257 Y55.038 E4.33432
G1 X135.01 Y56.716 E4.49086
G1 X137.75 Y58.169 E4.60895
G1 X141.245 Y60.334 E4.7655
G1 X145.425 Y63.511 E4.96542
G1 X148.446 Y66.3 E5.12198
G1 X150.579 Y68.551 E5.24006
G1 X153.2 Y71.719 E5.39662
G1 X156.288 Y76.3 E5.60698
G1 X158.747 Y80.938 E5.80687
G1 X160.318 Y84.738 E5.96344
G1 X161.308 Y87.676 E6.08149
G1 X162.356 Y91.652 E6.23806
G1 X163.236 Y97.106 E6.44842
G1 X163.52 Y102.417 E6.65094
G1 X163.52 Y144.433 E8.25081
G1 X163.121 Y148.981 E8.42465
G1 X161.935 Y153.389 E8.59847
G1 X160 Y157.523 E8.77227
G1 X155.876 Y162.888 E9.02994
G1 X152.903 Y165.861 E9.19004
G1 X149.405 Y168.794 E9.36386
G1 X145.449 Y171.073 E9.5377
G1 X141.157 Y172.628 E9.71152
G1 X134.499 Y173.505 E9.96723
G1 X117.346 Y173.505 E10.62038
G1 X113.867 Y173.322 E10.75304
G1 X110.141 Y172.746 E10.8966
G1 X106.496 Y171.783 E11.04016
G1 X102.971 Y170.445 E11.18373
G1 X100.806 Y169.398 E11.2753
G1 X99.375 Y168.613 E11.33745
G1 X97.561 Y167.478 E11.41893
G1 X96.22 Y166.548 E11.48107
G1 X94.536 Y165.229 E11.56252
G1 X73.54 Y147.199 E12.61632
G1 X72.097 Y145.861 E12.69125
G1 X69.124 Y142.888 E12.85135
G1 X66.191 Y139.39 E13.02517
G1 X63.912 Y135.435 E13.19898
G1 X62.357 Y131.143 E13.3728
G1 X61.48 Y124.433 E13.63047
G1 X61.48 Y102.417 E14.46879
G1 X61.794 Y96.833 E14.68175
G1 X62.703 Y91.383 E14.89214
G1 X64.195 Y86.064 E15.10249
G1 X66.253 Y80.938 E15.31282
G1 X68.017 Y77.53 E15.45894
G1 X69.615 Y74.873 E15.577
G1 X71.8 Y71.719 E15.7231
G1 X74.421 Y68.551 E15.87966
G1 X74.973 Y67.941 E15.91099
G1 X75.245 Y68.187 F30000
G1 F2400
G1 X75.82 Y67.551 E15.94364
G1 X78.566 Y64.899 E16.089
G1 X80.899 Y62.917 E16.20556
G1 X83.96 Y60.637 E16.3509
G1 X87.089 Y58.693 E16.49117
G1 X88.895 Y57.668 E16.57024
G1 X93.879 Y55.379 E16.77908
G1 X97.484 Y54.124 E16.92443
G1 X100.434 Y53.305 E17.04101
G1 X104.17 Y52.521 E17.18637
G1 X108.231 Y52.027 E17.34214
G1 X111.288 Y51.861 E17.45871
G1 X115.105 Y51.899 E17.60406
G1 X119.178 Y52.289 E17.75986
G1 X122.199 Y52.784 E17.87643
G1 X126.184 Y53.715 E18.03226
G1 X131.121 Y55.379 E18.23064
G1 X134.856 Y57.049 E18.38643
G1 X137.561 Y58.483 E18.50301
G1 X141.04 Y60.637 E18.65882
G1 X145.188 Y63.79 E18.85722
G1 X148.194 Y66.566 E19.01302
G1 X150.299 Y68.788 E19.12957
G1 X152.908 Y71.941 E19.2854
G1 X155.832 Y76.253 E19.48378
G1 X157.795 Y79.843 E19.63958
G1 X159.08 Y82.622 E19.75616
G1 X160.546 Y86.442 E19.91196
G1 X161.999 Y91.731 E20.12081
G1 X162.871 Y97.145 E20.32962
G1 X163.153 Y102.417 E20.53065
G1 X163.153 Y144.433 E22.13052
G1 X162.754 Y148.948 E22.30311
G1 X161.569 Y153.323 E22.4757
G1 X159.634 Y157.423 E22.64833
G1 X155.616 Y162.629 E22.89874
G1 X152.644 Y165.602 E23.05881
G1 X149.169 Y168.512 E23.2314
G1 X145.237 Y170.768 E23.40401
G1 X140.97 Y172.298 E23.57662
G1 X134.499 Y173.139 E23.82509
G1 X117.348 Y173.139 E24.47816
G1 X113.905 Y172.957 E24.60944
G1 X110.217 Y172.387 E24.75154
G1 X106.609 Y171.435 E24.89363
G1 X103.12 Y170.11 E25.03574
G1 X100.972 Y169.071 E25.1266
G1 X99.558 Y168.296 E25.188
G1 X97.761 Y167.171 E25.26873
G1 X96.436 Y166.251 E25.33015
G1 X94.766 Y164.945 E25.41088
G1 X73.779 Y146.921 E26.46427
G1 X72.356 Y145.602 E26.53815
G1 X69.384 Y142.629 E26.69822
G1 X66.473 Y139.154 E26.87083
G1 X64.218 Y135.222 E27.04343
G1 X62.687 Y130.956 E27.21601
G1 X61.847 Y124.433 E27.46644
G1 X61.847 Y102.417 E28.30476
G1 X62.158 Y96.872 E28.51623
G1 X63.06 Y91.462 E28.72507
G1 X64.542 Y86.181 E28.93393
G1 X66.586 Y81.092 E29.14275
G1 X68.34 Y77.702 E29.28809
G1 X69.919 Y75.079 E29.40467
G1 X72.092 Y71.941 E29.55001
G1 X74.701 Y68.788 E29.70584
G1 X75.204 Y68.232 E29.73439
G1 X75.476 Y68.478 F30000
G1 F2400
G1 X76.086 Y67.803 E29.76903
G1 X78.818 Y65.165 E29.91364
G1 X81.12 Y63.209 E30.02866
G1 X84.166 Y60.94 E30.17329
G1 X87.278 Y59.007 E30.31279
G1 X89.067 Y57.992 E30.39111
G1 X94.015 Y55.719 E30.59845
G1 X97.601 Y54.471 E30.74303
G1 X100.512 Y53.663 E30.85806
G1 X104.229 Y52.883 E31.00268
G1 X108.271 Y52.391 E31.15773
G1 X111.288 Y52.227 E31.27278
G1 X115.085 Y52.265 E31.41737
G1 X119.139 Y52.653 E31.57244
G1 X122.12 Y53.142 E31.68747
G1 X126.086 Y54.068 E31.84255
G1 X130.985 Y55.719 E32.0394
G1 X134.703 Y57.381 E32.19447
G1 X137.372 Y58.797 E32.30952
G1 X140.834 Y60.94 E32.46456
G1 X144.95 Y64.069 E32.66143
G1 X147.942 Y66.832 E32.81651
G1 X150.02 Y69.025 E32.93155
G1 X152.616 Y72.162 E33.0866
G1 X155.66 Y76.677 E33.29394
G1 X158.082 Y81.246 E33.49085
G1 X159.637 Y85.009 E33.64589
G1 X160.602 Y87.872 E33.76093
G1 X161.641 Y91.809 E33.91597
G1 X162.507 Y97.185 E34.12331
G1 X162.787 Y102.417 E34.32282
G1 X162.787 Y144.433 E35.92269
G1 X162.388 Y148.916 E36.09407
G1 X161.203 Y153.257 E36.26541
G1 X159.269 Y157.321 E36.43679
G1 X155.357 Y162.37 E36.68
G1 X152.385 Y165.343 E36.84007
G1 X148.933 Y168.23 E37.01142
G1 X145.025 Y170.462 E37.18279
G1 X140.784 Y171.968 E37.35416
G1 X134.498 Y172.772 E37.59547
G1 X117.349 Y172.772 E38.24846
G1 X113.944 Y172.593 E38.37829
G1 X110.293 Y172.029 E38.51896
G1 X106.722 Y171.086 E38.6596
G1 X103.269 Y169.776 E38.80023
G1 X101.139 Y168.745 E38.89034
G1 X99.741 Y167.978 E38.95106
G1 X97.96 Y166.863 E39.03107
G1 X96.651 Y165.955 E39.09173
G1 X94.997 Y164.66 E39.17172
G1 X74.018 Y146.643 E40.22471
G1 X72.615 Y145.343 E40.29754
G1 X69.643 Y142.37 E40.45761
G1 X66.755 Y138.918 E40.62899
G1 X64.523 Y135.01 E40.80036
G1 X63.017 Y130.769 E40.97173
G1 X62.213 Y124.433 E41.21492
G1 X62.213 Y102.417 E42.05324
G1 X62.523 Y96.912 E42.26319
G1 X63.418 Y91.541 E42.47052
G1 X64.889 Y86.298 E42.67787
G1 X66.918 Y81.246 E42.88517
G1 X68.664 Y77.873 E43.02979
G1 X70.222 Y75.284 E43.14485
G1 X72.384 Y72.162 E43.28945
G1 X74.98 Y69.025 E43.4445
G1 X75.436 Y68.522 E43.47035
G1 E41.47035
G92 E0
G1 X94.804 Y85.541 F30000
G1 E2 F2400
G1 X96.633 Y83.818 E2.09568
G1 X98.637 Y82.284 E2.19178
G1 X101.027 Y80.838 E2.29815
G1 X103.36 Y79.754 E2.39611
G1 X105.814 Y78.915 E2.49486
G1 X108.401 Y78.331 E2.59585
G1 X111.117 Y78.025 E2.69992
G1 X113.875 Y78.024 E2.80494
G1 X116.328 Y78.286 E2.89888
G1 X118.549 Y78.76 E2.98535
G1 X119.195 Y78.918 E3.01067
G1 X121.447 Y79.677 E3.10116
G1 X124.096 Y80.903 E3.21231
G1 X126.242 Y82.203 E3.30785
G1 X128.257 Y83.725 E3.404
G1 X130.377 Y85.732 E3.51516
G1 X131.923 Y87.552 E3.60609
G1 X133.208 Y89.421 E3.69245
G1 X133.567 Y89.98 E3.71775
G1 X134.68 Y92.079 E3.80822
G1 X135.761 Y94.793 E3.91946
G1 X136.446 Y97.307 E4.01868
G1 X136.861 Y99.879 E4.11788
G1 X136.997 Y102.319 E4.21093
G1 X137 Y104.052 E4.27692
G1 X136.671 Y105.431 E4.3309
G1 X135.708 Y106.897 E4.39769
G1 X134.35 Y107.87 E4.4613
G1 X133.278 Y108.232 E4.50438
G1 X132.174 Y108.333 E4.54659
G1 X131.623 Y108.412 E4.56779
G1 X131.182 Y108.523 E4.58511
G1 X130.71 Y108.697 E4.60426
G1 X130.304 Y108.898 E4.62151
G1 X129.9 Y109.154 E4.63972
G1 X129.526 Y109.45 E4.65788
G1 X129.187 Y109.783 E4.67597
G1 X128.884 Y110.151 E4.69412
G1 X128.622 Y110.548 E4.71223
G1 X128.404 Y110.971 E4.73035
G1 X128.232 Y111.415 E4.74848
G1 X128.107 Y111.874 E4.76659
G1 X128.033 Y112.334 E4.78433
G1 X128.008 Y112.862 E4.80446
G1 X128.031 Y113.29 E4.82078
G1 X128.107 Y113.764 E4.83906
G1 X128.233 Y114.227 E4.85733
G1 X128.385 Y114.621 E4.87341
G1 X128.656 Y115.142 E4.89577
G1 X128.884 Y115.487 E4.91152
G1 X129.168 Y115.832 E4.92854
G1 X129.532 Y116.192 E4.94803
G1 X129.9 Y116.483 E4.96589
G1 X130.304 Y116.739 E4.9841
G1 X130.709 Y116.94 E5.00132
G1 X131.182 Y117.114 E5.02051
G1 X131.622 Y117.226 E5.0378
G1 X132.176 Y117.305 E5.05911
G1 X133.323 Y117.413 E5.10298
G1 X134.235 Y117.706 E5.13945
G1 X135.06 Y118.175 E5.17559
G1 X136.147 Y119.271 E5.23437
G1 X136.907 Y120.943 E5.3043
G1 X137 Y121.716 E5.33395
G1 X136.96 Y123.768 E5.4121
G1 X136.685 Y124.775 E5.45185
G1 X136.202 Y125.704 E5.49172
G1 X129.847 Y132.153 E5.83648
G1 X136.129 Y138.493 E6.17633
G1 X136.776 Y139.777 E6.23108
G1 X136.986 Y140.839 E6.2723
G1 X137.002 Y142.58 E6.3386
G1 X136.798 Y143.723 E6.38281
G1 X136.2 Y144.942 E6.43451
G1 X135.77 Y145.497 E6.46124
G1 X134.743 Y146.334 E6.51169
G1 X133.511 Y146.853 E6.56259
G1 X132.632 Y146.986 E6.59644
G1 X130.162 Y146.978 E6.69049
G1 X129.182 Y146.787 E6.72851
G1 X129.031 Y146.73 E6.73466
G1 X127.996 Y146.985 E6.77525
G1 X125.43 Y146.985 E6.87296
G1 X124.995 Y146.897 E6.88986
G1 X124.55 Y146.988 E6.90716
G1 X121.897 Y146.968 E7.00818
G1 X120.923 Y146.769 E7.04603
G1 X119.926 Y146.976 E7.0848
G1 X117.336 Y146.982 E7.18342
G1 X116.376 Y146.919 E7.22005
G1 X115.433 Y146.758 E7.25648
G1 X114.51 Y146.502 E7.29295
G1 X113.492 Y146.099 E7.33464
G1 X112.646 Y145.652 E7.37107
G1 X111.854 Y145.126 E7.40727
G1 X111.11 Y144.515 E7.44393
G1 X110.431 Y143.832 E7.4806
G1 X109.881 Y143.155 E7.51381
G1 X109.295 Y142.274 E7.5541
G1 X108.83 Y141.368 E7.59288
G1 X108.471 Y140.44 E7.63077
G1 X108.225 Y139.538 E7.66637
G1 X108.068 Y138.616 E7.70198
G1 X108.002 Y137.63 E7.73961
G1 X107.988 Y127.446 E8.12739
G1 X107.932 Y127.258 E8.13486
G1 X107.826 Y127.12 E8.14149
G1 X107.653 Y127.021 E8.14908
G1 X107.383 Y126.985 E8.15945
G1 X91.793 Y126.919 E8.75309
G1 X90.747 Y126.582 E8.79494
G1 X89.51 Y125.781 E8.85105
G1 X88.651 Y124.728 E8.90279
G1 X88.132 Y123.497 E8.95366
G1 X88 Y122.624 E8.98728
G1 X88 Y102.425 E9.75641
G1 X88.129 Y99.972 E9.84994
G1 X88.543 Y97.354 E9.95087
G1 X89.237 Y94.798 E10.05172
G1 X90.207 Y92.324 E10.15291
G1 X91.437 Y89.972 E10.25398
G1 X92.988 Y87.669 E10.35971
G1 X94.765 Y85.587 E10.46394
G1 X95.043 Y85.824 F30000
G1 F2400
G1 X96.877 Y84.091 E10.56002
G1 X98.852 Y82.582 E10.65466
G1 X101.19 Y81.166 E10.75874
G1 X103.506 Y80.09 E10.85598
G1 X105.923 Y79.265 E10.95323
G1 X108.471 Y78.69 E11.05269
G1 X111.148 Y78.39 E11.15526
G1 X113.846 Y78.389 E11.25799
G1 X116.279 Y78.65 E11.35116
G1 X118.47 Y79.118 E11.43647
G1 X119.085 Y79.268 E11.46057
G1 X121.32 Y80.021 E11.55037
G1 X123.915 Y81.222 E11.65925
G1 X126.045 Y82.511 E11.75405
G1 X128.028 Y84.011 E11.84873
G1 X130.104 Y85.977 E11.9576
G1 X131.637 Y87.782 E12.04777
G1 X132.904 Y89.626 E12.13296
G1 X133.247 Y90.158 E12.15706
G1 X134.352 Y92.242 E12.24688
G1 X135.41 Y94.899 E12.35578
G1 X136.086 Y97.375 E12.45351
G1 X136.496 Y99.909 E12.55125
G1 X136.631 Y102.334 E12.64373
G1 X136.634 Y104.03 E12.70831
G1 X136.323 Y105.313 E12.75858
G1 X135.423 Y106.665 E12.82042
G1 X134.162 Y107.555 E12.87919
G1 X133.185 Y107.878 E12.91837
G1 X132.133 Y107.968 E12.95857
G1 X131.552 Y108.052 E12.98092
G1 X131.073 Y108.173 E12.99973
G1 X130.565 Y108.36 E13.02034
G1 X130.124 Y108.578 E13.03907
G1 X129.687 Y108.855 E13.05877
G1 X129.284 Y109.175 E13.07836
G1 X128.916 Y109.535 E13.09796
G1 X128.589 Y109.933 E13.11757
G1 X128.306 Y110.363 E13.13717
G1 X128.07 Y110.82 E13.15675
G1 X127.883 Y111.3 E13.17637
G1 X127.748 Y111.797 E13.19598
G1 X127.668 Y112.296 E13.21522
G1 X127.641 Y112.863 E13.23683
G1 X127.666 Y113.329 E13.2546
G1 X127.748 Y113.841 E13.27434
G1 X127.884 Y114.341 E13.29407
G1 X128.051 Y114.773 E13.31171
G1 X128.34 Y115.328 E13.33554
G1 X128.589 Y115.705 E13.35274
G1 X128.897 Y116.08 E13.37122
G1 X129.289 Y116.467 E13.39219
G1 X129.687 Y116.783 E13.41154
G1 X130.125 Y117.059 E13.43125
G1 X130.564 Y117.277 E13.44991
G1 X131.073 Y117.465 E13.47057
G1 X131.551 Y117.585 E13.48934
G1 X132.134 Y117.669 E13.51177
G1 X133.232 Y117.768 E13.55375
G1 X134.071 Y118.035 E13.58728
G1 X134.857 Y118.482 E13.62171
G1 X135.828 Y119.454 E13.67403
G1 X136.547 Y121.017 E13.73954
G1 X136.634 Y121.723 E13.76663
G1 X136.601 Y123.694 E13.84169
G1 X136.337 Y124.659 E13.87979
G1 X135.89 Y125.509 E13.91636
G1 X129.331 Y132.153 E14.27186
G1 X135.848 Y138.731 E14.62445
G1 X136.422 Y139.873 E14.67312
G1 X136.619 Y140.86 E14.71144
G1 X136.636 Y142.567 E14.77644
G1 X136.458 Y143.585 E14.81579
G1 X135.879 Y144.764 E14.8658
G1 X135.52 Y145.228 E14.88814
G1 X134.575 Y146.008 E14.9348
G1 X133.432 Y146.495 E14.98211
G1 X132.619 Y146.619 E15.01343
G1 X130.181 Y146.612 E15.10626
G1 X129.273 Y146.431 E15.14151
G1 X129.06 Y146.344 E15.15027
G1 X127.973 Y146.619 E15.19296
G1 X125.45 Y146.619 E15.28903
G1 X124.995 Y146.523 E15.30674
G1 X124.532 Y146.621 E15.32476
G1 X121.918 Y146.602 E15.4243
G1 X120.922 Y146.395 E15.46304
G1 X119.906 Y146.61 E15.50258
G1 X117.354 Y146.616 E15.59975
G1 X116.427 Y146.556 E15.63512
G1 X115.521 Y146.402 E15.67011
G1 X114.635 Y146.158 E15.7051
G1 X113.654 Y145.77 E15.74527
G1 X112.841 Y145.341 E15.78027
G1 X112.079 Y144.836 E15.81508
G1 X111.363 Y144.25 E15.85031
G1 X110.709 Y143.593 E15.88561
G1 X110.181 Y142.944 E15.91747
G1 X109.616 Y142.097 E15.95624
G1 X109.168 Y141.227 E15.9935
G1 X108.822 Y140.334 E16.02997
G1 X108.584 Y139.468 E16.06417
G1 X108.43 Y138.564 E16.09909
G1 X108.368 Y137.612 E16.13542
G1 X108.354 Y127.415 E16.5237
G1 X108.313 Y127.221 E16.53125
G1 X108.242 Y127.06 E16.53795
G1 X108.09 Y126.863 E16.54742
G1 X107.928 Y126.745 E16.55505
G1 X107.764 Y126.672 E16.56189
G1 X107.556 Y126.628 E16.56999
G1 X107.386 Y126.619 E16.57647
G1 X91.876 Y126.561 E17.16706
G1 X90.923 Y126.26 E17.20511
G1 X89.773 Y125.525 E17.25708
G1 X88.977 Y124.56 E17.30471
G1 X88.491 Y123.418 E17.35197
G1 X88.366 Y122.61 E17.3831
G1 X88.366 Y102.43 E18.15151
G1 X88.495 Y100.001 E18.24413
G1 X88.904 Y97.422 E18.34356
G1 X89.588 Y94.904 E18.44291
G1 X90.544 Y92.467 E18.54259
G1 X91.756 Y90.151 E18.64212
G1 X93.286 Y87.882 E18.74633
G1 X95.004 Y85.869 E18.8471
G1 X95.282 Y86.106 F30000
G1 F2400
G1 X97.107 Y84.376 E18.94285
G1 X99.066 Y82.879 E19.03673
G1 X101.371 Y81.485 E19.1393
G1 X103.651 Y80.427 E19.23501
G1 X106.032 Y79.615 E19.3308
G1 X108.542 Y79.05 E19.42877
G1 X111.178 Y78.755 E19.52977
G1 X113.836 Y78.756 E19.63098
G1 X116.231 Y79.013 E19.7227
G1 X118.391 Y79.475 E19.80681
G1 X118.976 Y79.618 E19.82974
G1 X121.194 Y80.365 E19.91886
G1 X123.734 Y81.54 E20.02542
G1 X125.831 Y82.809 E20.11875
G1 X127.799 Y84.297 E20.2127
G1 X129.831 Y86.221 E20.31925
G1 X131.352 Y88.012 E20.40872
G1 X132.601 Y89.832 E20.49277
G1 X132.927 Y90.337 E20.51566
G1 X134.024 Y92.405 E20.6048
G1 X135.06 Y95.006 E20.71141
G1 X135.726 Y97.443 E20.80761
G1 X136.13 Y99.94 E20.90393
G1 X136.265 Y102.349 E20.9958
G1 X136.267 Y104.008 E21.05897
G1 X135.976 Y105.193 E21.10543
G1 X135.139 Y106.43 E21.1623
G1 X133.976 Y107.238 E21.21622
G1 X133.093 Y107.522 E21.25154
G1 X132.092 Y107.604 E21.28978
G1 X131.481 Y107.692 E21.31329
G1 X130.964 Y107.822 E21.33359
G1 X130.42 Y108.024 E21.35569
G1 X129.945 Y108.259 E21.37587
G1 X129.475 Y108.556 E21.39704
G1 X129.041 Y108.9 E21.41813
G1 X128.646 Y109.288 E21.43921
G1 X128.294 Y109.715 E21.46028
G1 X127.989 Y110.177 E21.48136
G1 X127.735 Y110.669 E21.50244
G1 X127.535 Y111.185 E21.52351
G1 X127.39 Y111.72 E21.54462
G1 X127.303 Y112.258 E21.56537
G1 X127.274 Y112.865 E21.58851
G1 X127.302 Y113.368 E21.60769
G1 X127.39 Y113.918 E21.6289
G1 X127.536 Y114.455 E21.65009
G1 X127.717 Y114.924 E21.66923
G1 X128.024 Y115.514 E21.69456
G1 X128.294 Y115.923 E21.71322
G1 X128.626 Y116.327 E21.73313
G1 X129.045 Y116.741 E21.75556
