; generated by PrusaSlicer 2.6.1+linux-x64-GTK3 on 2023-09-15 at 13:40:55 UTC

; 

; external perimeters extrusion width = 0.40mm
; perimeters extrusion width = 0.40mm
; infill extrusion width = 0.45mm
; solid infill extrusion width = 0.45mm
; top infill extrusion width = 0.40mm
; first layer extrusion width = 0.42mm

M190 S65 ; set bed temperature and wait for it to be reached
M104 S220 ; set temperature
;TYPE:Custom
G28 ; home all axes
G1 Z5 F5000 ; lift nozzle
M109 S220 ; set temperature and wait for it to be reached
G21 ; set units to millimeters
G90 ; use absolute coordinates
M82 ; use absolute distances for extrusion
G92 E0
; Filament gcode
M107
;LAYER_CHANGE
;Z:0.2
;HEIGHT:0.2
G1 Z.2 F30000
G1 E-2 F2400
G92 E0
G1 X75.435 Y75.435 F30000
G1 E2 F2400
;TYPE:Skirt/Brim
;WIDTH:0.42
G1 F1800
G1 X76.922 Y73.949 E2.06591
G1 X80.422 Y71.014 E2.20913
G1 X84.379 Y68.733 E2.35234
G1 X88.673 Y67.176 E2.49555
G1 X95.399 Y66.295 E2.70824
G1 X129.601 Y66.295 E3.78062
G1 X134.151 Y66.694 E3.92383
G1 X138.562 Y67.88 E4.06705
G1 X142.7 Y69.815 E4.21028
G1 X148.078 Y73.949 E4.42296
G1 X151.051 Y76.922 E4.55479
G1 X153.986 Y80.422 E4.69801
G1 X156.267 Y84.379 E4.84122
G1 X157.824 Y88.673 E4.98443
G1 X158.705 Y95.399 E5.19712
G1 X158.705 Y129.601 E6.2695
G1 X158.306 Y134.151 E6.41271
G1 X157.12 Y138.562 E6.55593
G1 X155.185 Y142.7 E6.69916
G1 X151.051 Y148.078 E6.91184
G1 X148.078 Y151.051 E7.04367
G1 X144.578 Y153.986 E7.18689
G1 X140.621 Y156.267 E7.3301
G1 X136.327 Y157.824 E7.47331
G1 X129.601 Y158.705 E7.686
G1 X95.399 Y158.705 E8.75838
G1 X90.849 Y158.306 E8.90159
G1 X86.438 Y157.12 E9.04481
G1 X82.3 Y155.185 E9.18804
G1 X76.922 Y151.051 E9.40072
G1 X73.949 Y148.078 E9.53255
G1 X71.014 Y144.578 E9.67577
G1 X68.733 Y140.621 E9.81898
G1 X67.176 Y136.327 E9.96219
G1 X66.295 Y129.601 E10.17488
G1 X66.295 Y95.399 E11.24726
G1 X66.694 Y90.849 E11.39047
G1 X67.88 Y86.438 E11.53369
G1 X69.815 Y82.3 E11.67692
G1 X73.949 Y76.922 E11.8896
G1 X75.393 Y75.478 E11.95363
G1 X75.659 Y75.744 F30000
G1 F1800
G1 X77.188 Y74.215 E12.02143
G1 X80.665 Y71.304 E12.16361
G1 X84.598 Y69.047 E12.30579
G1 X88.866 Y67.515 E12.44797
G1 X95.399 Y66.672 E12.65451
G1 X129.601 Y66.672 E13.72689
G1 X134.118 Y67.071 E13.86907
G1 X138.495 Y68.257 E14.01126
G1 X142.596 Y70.191 E14.15343
G1 X147.812 Y74.215 E14.35999
G1 X150.785 Y77.188 E14.49182
G1 X153.696 Y80.665 E14.634
G1 X155.953 Y84.598 E14.77618
G1 X157.485 Y88.866 E14.91836
G1 X158.328 Y95.399 E15.1249
G1 X158.328 Y129.601 E16.19728
G1 X157.929 Y134.118 E16.33946
G1 X156.743 Y138.495 E16.48165
G1 X154.809 Y142.596 E16.62382
G1 X150.785 Y147.812 E16.83038
G1 X147.812 Y150.785 E16.96221
G1 X144.335 Y153.696 E17.10439
G1 X140.402 Y155.953 E17.24657
G1 X136.134 Y157.485 E17.38875
G1 X129.601 Y158.328 E17.59529
G1 X95.399 Y158.328 E18.66767
G1 X90.882 Y157.929 E18.80985
G1 X86.505 Y156.743 E18.95204
G1 X82.404 Y154.809 E19.09421
G1 X77.188 Y150.785 E19.30077
G1 X74.215 Y147.812 E19.4326
G1 X71.304 Y144.335 E19.57478
G1 X69.047 Y140.402 E19.71696
G1 X67.515 Y136.134 E19.85914
G1 X66.672 Y129.601 E20.06568
G1 X66.672 Y95.399 E21.13806
G1 X67.071 Y90.882 E21.28024
G1 X68.257 Y86.505 E21.42243
G1 X70.191 Y82.404 E21.5646
G1 X74.215 Y77.188 E21.77116
G1 X75.617 Y75.787 E21.8333
G1 X75.884 Y76.053 F30000
G1 F1800
G1 X77.455 Y74.482 E21.90296
G1 X80.908 Y71.594 E22.0441
G1 X84.816 Y69.361 E22.18522
G1 X89.058 Y67.854 E22.32637
G1 X95.399 Y67.049 E22.52678
G1 X129.601 Y67.049 E23.59916
G1 X134.084 Y67.449 E23.74028
G1 X138.427 Y68.634 E23.88143
G1 X142.492 Y70.567 E24.02256
G1 X147.545 Y74.482 E24.22298
G1 X150.518 Y77.455 E24.35481
G1 X153.406 Y80.908 E24.49595
G1 X155.639 Y84.816 E24.63707
G1 X157.146 Y89.058 E24.77822
G1 X157.951 Y95.399 E24.97863
G1 X157.951 Y129.601 E26.05101
G1 X157.551 Y134.084 E26.19213
G1 X156.366 Y138.427 E26.33328
G1 X154.433 Y142.492 E26.47441
G1 X150.518 Y147.545 E26.67483
G1 X147.545 Y150.518 E26.80666
G1 X144.092 Y153.406 E26.9478
G1 X140.184 Y155.639 E27.08892
G1 X135.942 Y157.146 E27.23007
G1 X129.601 Y157.951 E27.43048
G1 X95.399 Y157.951 E28.50286
G1 X90.916 Y157.551 E28.64398
G1 X86.573 Y156.366 E28.78513
G1 X82.508 Y154.433 E28.92626
G1 X77.455 Y150.518 E29.12668
G1 X74.482 Y147.545 E29.25851
G1 X71.594 Y144.092 E29.39965
G1 X69.361 Y140.184 E29.54077
G1 X67.854 Y135.942 E29.68192
G1 X67.049 Y129.601 E29.88233
G1 X67.049 Y95.399 E30.95471
G1 X67.449 Y90.916 E31.09583
G1 X68.634 Y86.573 E31.23698
G1 X70.567 Y82.508 E31.37811
G1 X74.482 Y77.455 E31.57853
G1 X75.841 Y76.096 E31.63879
G1 E29.63879 F2400
G92 E0
G1 X93.957 Y94.265 F30000
G1 E2 F2400
G1 F1800
G1 X94.519 Y93.747 E2.02396
G1 X95.12 Y93.322 E2.04704
G1 X97.066 Y92.713 E2.11097
G1 X127.878 Y92.717 E3.07706
G1 X128.898 Y92.91 E3.10961
G1 X129.874 Y93.325 E3.14286
G1 X130.981 Y94.203 E3.18716
G1 X131.878 Y95.545 E3.23777
G1 X132.287 Y97.09 E3.28788
G1 X132.287 Y127.909 E4.25419
G1 X131.905 Y129.396 E4.30233
G1 X131.043 Y130.735 E4.35226
G1 X130.481 Y131.253 E4.37622
G1 X129.88 Y131.678 E4.3993
G1 X127.934 Y132.287 E4.46323
G1 X97.091 Y132.287 E5.43029
G1 X95.604 Y131.905 E5.47843
G1 X94.265 Y131.043 E5.52836
G1 X93.747 Y130.481 E5.55232
G1 X93.322 Y129.88 E5.5754
G1 X92.713 Y127.934 E5.63933
G1 X92.713 Y97.091 E6.60639
G1 X93.095 Y95.604 E6.65453
G1 X93.925 Y94.315 E6.7026
G1 X94.23 Y94.526 F30000
G1 F1800
G1 X94.765 Y94.033 E6.72541
G1 X95.313 Y93.647 E6.74643
G1 X97.095 Y93.09 E6.80497
G1 X127.859 Y93.094 E7.76955
G1 X128.806 Y93.277 E7.79979
G1 X129.701 Y93.661 E7.83033
G1 X130.723 Y94.479 E7.87137
G1 X131.523 Y95.673 E7.91643
G1 X131.91 Y97.116 E7.96327
G1 X131.91 Y127.884 E8.92798
G1 X131.548 Y129.272 E8.97296
G1 X130.77 Y130.474 E9.01785
G1 X130.235 Y130.967 E9.04066
G1 X129.687 Y131.353 E9.06168
G1 X127.906 Y131.91 E9.12019
G1 X97.116 Y131.91 E10.08559
G1 X95.728 Y131.548 E10.13057
G1 X94.526 Y130.77 E10.17546
G1 X94.033 Y130.235 E10.19827
G1 X93.647 Y129.687 E10.21929
G1 X93.09 Y127.906 E10.2778
G1 X93.09 Y97.116 E11.2432
G1 X93.452 Y95.728 E11.28818
G1 X94.198 Y94.576 E11.33121
G1 X94.504 Y94.787 F30000
G1 F1800
G1 X95.011 Y94.319 E11.35284
G1 X95.505 Y93.973 E11.37175
G1 X97.123 Y93.467 E11.4249
G1 X127.841 Y93.471 E12.38804
G1 X128.712 Y93.642 E12.41587
G1 X129.527 Y93.997 E12.44374
G1 X130.463 Y94.753 E12.48146
G1 X131.191 Y95.854 E12.52285
G1 X131.533 Y97.14 E12.56457
G1 X131.533 Y127.861 E13.52781
G1 X131.214 Y129.094 E13.56774
G1 X130.496 Y130.213 E13.60943
G1 X129.989 Y130.681 E13.63106
G1 X129.495 Y131.027 E13.64997
G1 X127.877 Y131.533 E13.70312
G1 X97.139 Y131.533 E14.66689
G1 X95.906 Y131.214 E14.70682
G1 X94.787 Y130.496 E14.74851
G1 X94.319 Y129.989 E14.77014
G1 X93.973 Y129.495 E14.78905
G1 X93.467 Y127.877 E14.8422
G1 X93.467 Y97.139 E15.80597
G1 X93.786 Y95.906 E15.8459
G1 X94.471 Y94.837 E15.88571
G1 X94.777 Y95.048 F30000
G1 F1800
G1 X95.257 Y94.605 E15.90619
G1 X95.697 Y94.299 E15.92299
G1 X97.152 Y93.844 E15.97079
G1 X127.821 Y93.848 E16.93239
G1 X128.617 Y94.008 E16.95785
G1 X129.351 Y94.331 E16.98299
G1 X130.201 Y95.026 E17.01742
G1 X130.858 Y96.034 E17.05515
G1 X131.156 Y97.164 E17.09179
G1 X131.156 Y127.836 E18.05349
G1 X130.857 Y128.968 E18.0902
G1 X130.223 Y129.952 E18.1269
G1 X129.743 Y130.395 E18.14738
G1 X129.303 Y130.701 E18.16418
G1 X127.849 Y131.156 E18.21195
G1 X97.164 Y131.156 E19.17406
G1 X96.032 Y130.857 E19.21077
G1 X95.048 Y130.223 E19.24747
G1 X94.605 Y129.743 E19.26795
G1 X94.299 Y129.303 E19.28475
G1 X93.844 Y127.849 E19.33252
G1 X93.844 Y97.164 E20.29463
G1 X94.143 Y96.032 E20.33134
G1 X94.744 Y95.098 E20.36616
G1 X95.05 Y95.309 F30000
G1 F1800
G1 X95.503 Y94.891 E20.38549
G1 X95.887 Y94.625 E20.40014
G1 X97.18 Y94.221 E20.44261
G1 X127.803 Y94.225 E21.40277
G1 X128.484 Y94.361 E21.42454
G1 X129.174 Y94.665 E21.44818
G1 X129.938 Y95.297 E21.47927
G1 X130.502 Y96.161 E21.51162
G1 X130.779 Y97.189 E21.545
G1 X130.779 Y127.811 E22.50513
G1 X130.501 Y128.841 E22.53858
G1 X129.95 Y129.691 E22.57034
G1 X129.497 Y130.109 E22.58967
G1 X129.113 Y130.375 E22.60432
G1 X127.82 Y130.779 E22.64679
G1 X97.189 Y130.779 E23.6072
G1 X96.159 Y130.501 E23.64065
G1 X95.309 Y129.95 E23.67241
G1 X94.891 Y129.497 E23.69174
G1 X94.625 Y129.113 E23.70639
G1 X94.221 Y127.82 E23.74886
G1 X94.221 Y97.189 E24.70927
G1 X94.499 Y96.159 E24.74272
G1 X95.017 Y95.359 E24.7726
G1 X95.324 Y95.569 F30000
G1 F1800
G1 X95.748 Y95.178 E24.79068
G1 X96.077 Y94.952 E24.80319
G1 X97.209 Y94.598 E24.84038
G1 X127.783 Y94.602 E25.79901
G1 X128.387 Y94.726 E25.81834
G1 X128.996 Y94.998 E25.83925
G1 X129.673 Y95.567 E25.86698
G1 X130.169 Y96.34 E25.89578
G1 X130.402 Y97.214 E25.92414
G1 X130.402 Y127.786 E26.8827
G1 X130.168 Y128.663 E26.91116
G1 X129.676 Y129.431 E26.93976
G1 X129.252 Y129.822 E26.95784
G1 X128.923 Y130.048 E26.97035
G1 X127.791 Y130.402 E27.00754
G1 X97.214 Y130.402 E27.96626
G1 X96.337 Y130.168 E27.99472
G1 X95.569 Y129.676 E28.02332
G1 X95.178 Y129.252 E28.0414
G1 X94.952 Y128.923 E28.05391
G1 X94.598 Y127.791 E28.0911
G1 X94.598 Y97.214 E29.04982
G1 X94.832 Y96.337 E29.07828
G1 X95.291 Y95.62 E29.10497
G1 X95.597 Y95.831 F30000
G1 F1800
G1 X95.993 Y95.465 E29.12188
G1 X96.265 Y95.28 E29.13219
G1 X97.238 Y94.975 E29.16416
G1 X127.763 Y94.979 E30.12125
G1 X128.287 Y95.09 E30.13804
G1 X128.815 Y95.33 E30.15623
G1 X129.407 Y95.835 E30.18063
G1 X129.813 Y96.467 E30.20418
G1 X130.025 Y97.24 E30.22931
G1 X130.025 Y127.76 E31.18624
G1 X129.812 Y128.535 E31.21144
G1 X129.403 Y129.169 E31.2351
G1 X129.007 Y129.535 E31.25201
G1 X128.735 Y129.72 E31.26232
G1 X127.763 Y130.025 E31.29426
G1 X97.24 Y130.025 E32.25129
G1 X96.465 Y129.812 E32.27649
G1 X95.831 Y129.403 E32.30015
G1 X95.465 Y129.007 E32.31706
G1 X95.28 Y128.735 E32.32737
G1 X94.975 Y127.763 E32.35931
G1 X94.975 Y97.24 E33.31634
G1 X95.188 Y96.465 E33.34154
G1 X95.564 Y95.881 E33.36332
G1 X95.869 Y96.092 F30000
G1 F1800
G1 X96.238 Y95.752 E33.37905
G1 X96.452 Y95.608 E33.38714
G1 X97.266 Y95.352 E33.41389
G1 X127.742 Y95.356 E34.36944
G1 X128.185 Y95.454 E34.38367
G1 X128.631 Y95.66 E34.39907
G1 X129.139 Y96.101 E34.42016
G1 X129.458 Y96.598 E34.43868
G1 X129.648 Y97.267 E34.46049
G1 X129.648 Y127.733 E35.41573
G1 X129.458 Y128.404 E35.4376
G1 X129.131 Y128.908 E35.45644
G1 X128.762 Y129.248 E35.47217
G1 X128.548 Y129.392 E35.48026
G1 X127.734 Y129.648 E35.50701
G1 X97.267 Y129.648 E36.46228
G1 X96.596 Y129.458 E36.48415
G1 X96.092 Y129.131 E36.50299
G1 X95.752 Y128.762 E36.51872
G1 X95.608 Y128.548 E36.52681
G1 X95.352 Y127.734 E36.55356
G1 X95.352 Y97.267 E37.50883
G1 X95.542 Y96.596 E37.5307
G1 X95.837 Y96.142 E37.54768
G1 X96.142 Y96.354 F30000
G1 F1800
G1 X96.482 Y96.04 E37.56219
G1 X96.637 Y95.938 E37.56801
G1 X97.296 Y95.73 E37.58968
G1 X127.719 Y95.733 E38.54357
G1 X128.079 Y95.816 E38.55515
G1 X128.444 Y95.989 E38.56781
G1 X128.869 Y96.366 E38.58562
G1 X129.105 Y96.731 E38.59925
G1 X129.27 Y97.295 E38.61768
G1 X129.27 Y127.705 E39.57116
G1 X129.104 Y128.27 E39.58962
G1 X128.858 Y128.646 E39.60371
G1 X128.518 Y128.96 E39.61822
G1 X128.363 Y129.062 E39.62404
G1 X127.705 Y129.27 E39.64568
G1 X97.295 Y129.27 E40.59916
G1 X96.73 Y129.104 E40.61762
G1 X96.354 Y128.858 E40.63171
G1 X96.04 Y128.518 E40.64622
G1 X95.938 Y128.363 E40.65204
G1 X95.73 Y127.705 E40.67368
G1 X95.73 Y97.295 E41.62716
G1 X95.896 Y96.73 E41.64562
G1 X96.109 Y96.404 E41.65783
G1 X96.414 Y96.615 F30000
G1 F1800
G1 X96.724 Y96.33 E41.67103
G1 X96.819 Y96.269 E41.67457
G1 X97.325 Y96.107 E41.69123
G1 X127.697 Y96.11 E42.64352
G1 X127.936 Y96.166 E42.65122
G1 X128.256 Y96.317 E42.66231
G1 X128.596 Y96.627 E42.67674
G1 X128.753 Y96.869 E42.68578
G1 X128.893 Y97.324 E42.70071
G1 X128.893 Y127.676 E43.65238
G1 X128.753 Y128.131 E43.66731
G1 X128.586 Y128.385 E43.67684
G1 X128.276 Y128.67 E43.69004
G1 X128.181 Y128.731 E43.69358
G1 X127.675 Y128.893 E43.71024
G1 X97.324 Y128.893 E44.66187
G1 X96.869 Y128.753 E44.6768
G1 X96.615 Y128.586 E44.68633
G1 X96.33 Y128.276 E44.69953
G1 X96.269 Y128.181 E44.70307
G1 X96.107 Y127.675 E44.71973
G1 X96.107 Y97.324 E45.67136
G1 X96.247 Y96.869 E45.68629
G1 X96.381 Y96.666 E45.69392
G1 X96.686 Y96.878 F30000
G1 F1800
G1 X96.995 Y96.603 E45.70689
G1 X97.356 Y96.484 E45.71881
G1 X127.675 Y96.487 E46.66944
G1 X127.792 Y96.515 E46.67321
G1 X128.066 Y96.644 E46.68271
G1 X128.32 Y96.885 E46.69369
G1 X128.403 Y97.012 E46.69845
G1 X128.516 Y97.356 E46.7098
G1 X128.516 Y127.644 E47.65946
G1 X128.403 Y127.988 E47.67081
G1 X128.314 Y128.122 E47.67585
G1 X128.005 Y128.397 E47.68882
G1 X127.644 Y128.516 E47.70074
G1 X97.356 Y128.516 E48.6504
G1 X97.012 Y128.403 E48.66175
G1 X96.878 Y128.314 E48.66679
G1 X96.603 Y128.005 E48.67976
G1 X96.484 Y127.644 E48.69168
G1 X96.484 Y97.356 E49.64134
G1 X96.597 Y97.012 E49.65269
G1 X96.653 Y96.928 E49.65586
G1 X96.958 Y97.14 F30000
G1 F1800
G1 X97.178 Y96.937 E49.66525
G1 X97.391 Y96.861 E49.67234
G1 X127.623 Y96.861 E50.62024
G1 X127.873 Y96.97 E50.62879
G1 X128.058 Y97.164 E50.6372
G1 X128.139 Y97.391 E50.64476
G1 X128.139 Y127.609 E51.59222
G1 X128.042 Y127.86 E51.60066
G1 X127.822 Y128.063 E51.61005
G1 X127.609 Y128.139 E51.61714
G1 X97.391 Y128.139 E52.5646
G1 X97.14 Y128.042 E52.57304
G1 X96.937 Y127.822 E52.58243
G1 X96.861 Y127.609 E52.58952
G1 X96.861 Y97.391 E53.53698
G1 X96.932 Y97.193 E53.54358
G1 X97.267 Y97.364 F30000
G1 F1800
G1 X97.364 Y97.267 E53.54788
G1 X97.433 Y97.238 E53.55023
G1 X127.567 Y97.238 E54.49506
G1 X127.636 Y97.267 E54.49741
G1 X127.733 Y97.364 E54.50171
G1 X127.762 Y97.433 E54.50406
G1 X127.762 Y127.567 E55.44889
G1 X127.733 Y127.636 E55.45124
G1 X127.636 Y127.733 E55.45554
G1 X127.567 Y127.762 E55.45789
G1 X97.433 Y127.762 E56.40272
G1 X97.364 Y127.733 E56.40507
G1 X97.267 Y127.636 E56.40937
G1 X97.238 Y127.567 E56.41172
G1 X97.244 Y97.419 E57.35699
G1 X97.711 Y97.711 F30000
;TYPE:External perimeter
;WIDTH:0.419999
G1 F1800
G1 X127.289 Y97.711 E58.28439
G1 X127.289 Y127.289 E59.21179
G1 X97.711 Y127.289 E60.13919
G1 X97.711 Y97.771 E61.0647
G1 E59.0647 F2400
G92 E0
G1 X126.412 Y97.825 F30000
G1 E2 F2400
;TYPE:Solid infill
;WIDTH:0.420754
G1 F1800
G1 X127.006 Y98.419 E2.02639
G1 X127.006 Y98.953 E2.04317
G1 X126.047 Y97.994 E2.08578
G1 X125.513 Y97.994 E2.10256
G1 X127.006 Y99.487 E2.16889
G1 X127.006 Y100.022 E2.1857
G1 X124.978 Y97.994 E2.2758
G1 X124.444 Y97.994 E2.29258
G1 X127.006 Y100.556 E2.40641
G1 X127.006 Y101.09 E2.42319
G1 X123.91 Y97.994 E2.56075
G1 X123.375 Y97.994 E2.57756
G1 X127.006 Y101.625 E2.73889
G1 X127.006 Y102.159 E2.75567
G1 X122.841 Y97.994 E2.94072
G1 X122.307 Y97.994 E2.9575
G1 X127.006 Y102.693 E3.16628
G1 X127.006 Y103.228 E3.18309
G1 X121.772 Y97.994 E3.41564
G1 X121.238 Y97.994 E3.43242
G1 X127.006 Y103.762 E3.68869
G1 X127.006 Y104.296 E3.70547
G1 X120.704 Y97.994 E3.98547
G1 X120.169 Y97.994 E4.00228
G1 X127.006 Y104.831 E4.30605
G1 X127.006 Y105.365 E4.32283
G1 X119.635 Y97.994 E4.65033
G1 X119.101 Y97.994 E4.66711
G1 X127.006 Y105.899 E5.01833
G1 X127.006 Y106.434 E5.03514
G1 X118.566 Y97.994 E5.41013
G1 X118.032 Y97.994 E5.42691
G1 X127.006 Y106.968 E5.82563
G1 X127.006 Y107.502 E5.84241
G1 X117.498 Y97.994 E6.26485
G1 X116.963 Y97.994 E6.28166
G1 X127.006 Y108.037 E6.72787
G1 X127.006 Y108.571 E6.74465
G1 X116.429 Y97.994 E7.21459
G1 X115.895 Y97.994 E7.23137
G1 X127.006 Y109.105 E7.72504
G1 X127.006 Y109.64 E7.74185
G1 X115.36 Y97.994 E8.25929
G1 X114.826 Y97.994 E8.27607
G1 X127.006 Y110.174 E8.81723
G1 X127.006 Y110.708 E8.83401
G1 X114.292 Y97.994 E9.3989
G1 X113.757 Y97.994 E9.41571
G1 X127.006 Y111.243 E10.00437
G1 X127.006 Y111.777 E10.02115
G1 X113.223 Y97.994 E10.63353
G1 X112.689 Y97.994 E10.65031
G1 X127.006 Y112.311 E11.28642
G1 X127.006 Y112.846 E11.30323
G1 X112.154 Y97.994 E11.96311
G1 X111.62 Y97.994 E11.97989
G1 X127.006 Y113.38 E12.6635
G1 X127.006 Y113.915 E12.68031
G1 X111.085 Y97.994 E13.38769
G1 X110.551 Y97.994 E13.40447
G1 X127.006 Y114.449 E14.13557
G1 X127.006 Y114.983 E14.15235
G1 X110.017 Y97.994 E14.90718
G1 X109.482 Y97.994 E14.92399
G1 X127.006 Y115.518 E15.70259
G1 X127.006 Y116.052 E15.71937
G1 X108.948 Y97.994 E16.52169
G1 X108.414 Y97.994 E16.53847
G1 X127.006 Y116.586 E17.36452
