; generated by PrusaSlicer 2.6.1+linux-x64-GTK3 on 2023-10-27 at 14:49:05 UTC

; 

; external perimeters extrusion width = 0.45mm
; perimeters extrusion width = 0.45mm
; infill extrusion width = 0.45mm
; solid infill extrusion width = 0.45mm
; top infill extrusion width = 0.40mm
; first layer extrusion width = 0.40mm

;TYPE:Custom
; M190 R30 ; Because of probe temperature drift,
; M109 R30 ; Let the beds and hotend cool down before homing the axis

G28 ; home all axes
G1 Z100.0 F3000 ; Raise head above brush
M190 S65 ; set bed temperature and wait for it to be reached
M109 S230 ; set hot end temp and wait for it

; Brush any crap off the nozzle
G1 X232.0 Y0.0 F3000 ; Goto Start of movement
G1 Z19.0 F3000 ; Lower into brush
G1 X221.0 Y2.0 F3000 ; Goto Start of movement
G1 X229.0 Y4.0 F3000 ; 
G1 X221.0 Y6.0 F3000 ; 
G1 X229.0 Y8.0 F3000 ; 
G1 X221.0 Y10.0 F3000 ;
G1 X229.0 Y12.0 F3000 ;
G1 X221.0 Y14.0 F3000 ;
G1 X229.0 Y16.0 F3000 ;
G1 X221.0 Y18.0 F3000 ;
G1 X229.0 Y20.0 F3000 ;
G1 X221.0 Y22.0 F3000 ;
G1 X229.0 Y24.0 F3000 ;
G1 X221.0 Y26.0 F3000 ;
G1 X229.0 Y28.0 F3000 ;
G1 X221.0 Y30.0 F3000 ;
G1 X229.0 Y28.0 F3000 ;
G1 X221.0 Y26.0 F3000 ;
G1 X229.0 Y24.0 F3000 ;
G1 X221.0 Y22.0 F3000 ;
G1 X229.0 Y20.0 F3000 ;
G1 X221.0 Y18.0 F3000 ;
G1 X229.0 Y16.0 F3000 ;
G1 X221.0 Y14.0 F3000 ;
G1 X229.0 Y12.0 F3000 ;
G1 X221.0 Y10.0 F3000 ;
G1 X229.0 Y8.0 F3000 ; 
G1 X221.0 Y6.0 F3000 ; 
G1 X229.0 Y4.0 F3000 ; 
G1 X221.0 Y2.0 F3000 ; 
G1 X229.0 Y0.0 F3000 ; 
G1 X225.0 Y0.0 F3000 ; 
G1 X225.0 Y30.0 F5000 ; 
G1 X225.0 Y0.0 F5000 ; 
G1 X225.0 Y30.0 F5000 ; 
G1 X225.0 Y0.0 F5000 ; 
G1 X225.0 Y30.0 F5000 ; 

; Do a purge line to prime the extruder
G92 E0 ;Reset Extruder
G1 X227.0 Y80.0 F5000 ; Goto Start of purge
G1 Z0.28 F5000 ;Move Head to start height
G1 X227.0 Y230.0 Z0.28 F1500.0 E15; Draw first line
G1 X226.7 Y230.0 Z0.28 F5000.0 ;Move to side a little
G1 X226.7 Y80.0 Z0.28 F1500.0 E30; Draw the second line
G1 Z0.4 F5000; Move Z Axis Up
G1 Y120 F1500; Wipe to the back
G1 X117.5 Y117.5 Z27.0 F5000 ; Raise head above brush
G92 E0 ;Reset Extruder
G21 ; set units to millimeters
G90 ; use absolute coordinates
M82 ; use absolute distances for extrusion
G92 E0
; Filament gcode
SET_PRESSURE_ADVANCE ADVANCE=0.063
M107
;LAYER_CHANGE
;Z:0.2
;HEIGHT:0.2
G1 Z.2 F30000
G1 E-.1 F2400
G92 E0
G1 X13.13 Y12.579 F30000
G1 E.1 F2400
;TYPE:Perimeter
;WIDTH:0.399999
G1 F1800
G1 X14.226 Y11.233 E.15154
G1 X15.456 Y10.009 E.20306
G1 X16.808 Y8.92 E.25461
G1 X18.267 Y7.979 E.30616
G1 X19.816 Y7.195 E.35771
G1 X21.438 Y6.577 E.40925
G1 X23.116 Y6.132 E.46079
G1 X24.83 Y5.865 E.51229
G1 X26.688 Y5.778 E.56752
G1 X130.541 Y6.052 E3.65106
G1 X132.298 Y6.149 E3.70331
G1 X134.012 Y6.425 E3.75486
G1 X135.687 Y6.878 E3.80638
G1 X137.294 Y7.5 E3.85754
G1 X138.851 Y8.297 E3.90947
G1 X140.304 Y9.246 E3.961
G1 X141.65 Y10.342 E4.01254
G1 X142.875 Y11.573 E4.0641
G1 X143.964 Y12.925 E4.11565
G1 X144.905 Y14.383 E4.16717
G1 X145.689 Y15.932 E4.21872
G1 X146.307 Y17.554 E4.27026
G1 X146.752 Y19.232 E4.3218
G1 X146.952 Y20.517 E4.36041
G1 X147.041 Y21.383 E4.38626
G1 X147.106 Y22.705 E4.42556
G1 X146.605 Y212.657 E10.06549
G1 X146.508 Y214.414 E10.11774
G1 X146.232 Y216.128 E10.16929
G1 X145.778 Y217.804 E10.22085
G1 X145.152 Y219.423 E10.27239
G1 X144.36 Y220.967 E10.32391
G1 X143.41 Y222.421 E10.37548
G1 X142.314 Y223.767 E10.42702
G1 X141.084 Y224.991 E10.47854
G1 X139.732 Y226.08 E10.53009
G1 X138.284 Y227.014 E10.58125
G1 X136.724 Y227.806 E10.6332
G1 X135.102 Y228.423 E10.68473
G1 X133.424 Y228.868 E10.73627
G1 X131.709 Y229.135 E10.7878
G1 X129.951 Y229.223 E10.84006
G1 X26 Y228.948 E13.92651
G1 X24.242 Y228.851 E13.97879
G1 X22.528 Y228.575 E14.03034
G1 X20.853 Y228.122 E14.08186
G1 X19.246 Y227.5 E14.13302
G1 X17.689 Y226.703 E14.18495
G1 X16.236 Y225.754 E14.23648
G1 X14.89 Y224.658 E14.28802
G1 X13.665 Y223.427 E14.33958
G1 X12.576 Y222.075 E14.39113
G1 X11.642 Y220.628 E14.44227
G1 X10.851 Y219.068 E14.4942
G1 X10.233 Y217.446 E14.54574
G1 X9.788 Y215.768 E14.59728
G1 X9.521 Y214.052 E14.64884
G1 X9.434 Y212.295 E14.70107
G1 X9.935 Y22.343 E20.341
G1 X10.032 Y20.586 E20.39325
G1 X10.308 Y18.872 E20.4448
G1 X10.762 Y17.196 E20.49636
G1 X11.388 Y15.577 E20.5479
G1 X12.18 Y14.033 E20.59942
G1 X13.097 Y12.63 E20.64919
G1 X12.841 Y12.369 F30000
G1 F1800
G1 X13.961 Y10.993 E20.70187
G1 X15.218 Y9.743 E20.7545
G1 X16.599 Y8.63 E20.80716
G1 X18.089 Y7.668 E20.85982
G1 X19.671 Y6.867 E20.91247
G1 X21.328 Y6.236 E20.96511
G1 X23.042 Y5.782 E21.01776
G1 X24.794 Y5.509 E21.07041
G1 X26.68 Y5.42 E21.12647
G1 X130.551 Y5.695 E24.21054
G1 X132.336 Y5.793 E24.26362
G1 X134.087 Y6.075 E24.31628
G1 X135.799 Y6.539 E24.36895
G1 X137.44 Y7.174 E24.42119
G1 X139.031 Y7.988 E24.47425
G1 X140.515 Y8.957 E24.52687
G1 X141.89 Y10.077 E24.57953
G1 X143.141 Y11.334 E24.63219
G1 X144.253 Y12.716 E24.68486
G1 X145.215 Y14.205 E24.73749
G1 X146.016 Y15.788 E24.79017
G1 X146.647 Y17.445 E24.84281
G1 X147.102 Y19.159 E24.89546
G1 X147.305 Y20.462 E24.93461
G1 X147.397 Y21.366 E24.96159
G1 X147.464 Y22.697 E25.00116
G1 X146.962 Y212.667 E30.64162
G1 X146.864 Y214.452 E30.6947
G1 X146.582 Y216.203 E30.74736
G1 X146.118 Y217.915 E30.80003
G1 X145.478 Y219.569 E30.85269
G1 X144.669 Y221.147 E30.90534
G1 X143.699 Y222.631 E30.95798
G1 X142.579 Y224.007 E31.01066
G1 X141.322 Y225.257 E31.06329
G1 X139.941 Y226.37 E31.11595
G1 X138.463 Y227.324 E31.16818
G1 X136.869 Y228.133 E31.22125
G1 X135.212 Y228.764 E31.27389
G1 X133.498 Y229.218 E31.32654
G1 X131.745 Y229.491 E31.37922
G1 X129.96 Y229.58 E31.43228
G1 X25.989 Y229.305 E34.51932
G1 X24.204 Y229.207 E34.5724
G1 X22.453 Y228.925 E34.62506
G1 X20.741 Y228.461 E34.67773
G1 X19.1 Y227.826 E34.72997
G1 X17.509 Y227.012 E34.78303
G1 X16.025 Y226.043 E34.83565
G1 X14.65 Y224.923 E34.88831
G1 X13.399 Y223.666 E34.94097
G1 X12.287 Y222.284 E34.99364
G1 X11.332 Y220.806 E35.04589
G1 X10.524 Y219.212 E35.09895
G1 X9.893 Y217.555 E35.15159
G1 X9.438 Y215.841 E35.20424
G1 X9.165 Y214.089 E35.25689
G1 X9.077 Y212.303 E35.30998
G1 X9.578 Y22.333 E40.95044
G1 X9.676 Y20.548 E41.00352
G1 X9.958 Y18.797 E41.05618
G1 X10.422 Y17.085 E41.10885
G1 X11.062 Y15.431 E41.16151
G1 X11.871 Y13.853 E41.21416
G1 X12.808 Y12.419 E41.26502
G1 X12.553 Y12.157 F30000
;TYPE:External perimeter
G1 F1800
G1 X13.695 Y10.753 E41.31876
G1 X14.979 Y9.476 E41.37253
G1 X16.39 Y8.34 E41.42631
G1 X17.911 Y7.358 E41.48006
G1 X19.526 Y6.54 E41.53381
G1 X21.219 Y5.896 E41.58759
G1 X22.969 Y5.432 E41.64135
G1 X24.758 Y5.153 E41.69511
G1 X26.672 Y5.063 E41.752
G1 X130.561 Y5.338 E44.8366
G1 X132.374 Y5.438 E44.89051
G1 X134.162 Y5.726 E44.94428
G1 X135.91 Y6.199 E44.99805
G1 X137.586 Y6.847 E45.0514
G1 X139.21 Y7.679 E45.10558
G1 X140.726 Y8.669 E45.15934
G1 X142.13 Y9.812 E45.21309
G1 X143.407 Y11.096 E45.26686
G1 X144.543 Y12.506 E45.32062
G1 X145.525 Y14.027 E45.37437
G1 X146.343 Y15.643 E45.42815
G1 X146.988 Y17.335 E45.48191
G1 X147.452 Y19.086 E45.53569
G1 X147.657 Y20.407 E45.57538
G1 X147.754 Y21.348 E45.60347
G1 X147.821 Y22.689 E45.64334
G1 X147.319 Y212.677 E51.28434
G1 X147.219 Y214.491 E51.33828
G1 X146.931 Y216.278 E51.39202
G1 X146.458 Y218.026 E51.44579
G1 X145.804 Y219.715 E51.49957
G1 X144.978 Y221.326 E51.55332
G1 X143.988 Y222.842 E51.60708
G1 X142.845 Y224.247 E51.66086
G1 X141.561 Y225.524 E51.71463
G1 X140.151 Y226.66 E51.76839
G1 X138.641 Y227.634 E51.82174
G1 X137.014 Y228.46 E51.87592
G1 X135.321 Y229.104 E51.9297
G1 X133.571 Y229.568 E51.98346
G1 X131.782 Y229.847 E52.03722
G1 X129.968 Y229.937 E52.09115
G1 X25.979 Y229.662 E55.17872
G1 X24.166 Y229.562 E55.23263
G1 X22.378 Y229.274 E55.2864
G1 X20.63 Y228.801 E55.34017
G1 X18.954 Y228.153 E55.39352
G1 X17.33 Y227.321 E55.4477
G1 X15.814 Y226.331 E55.50146
G1 X14.41 Y225.188 E55.55521
G1 X13.133 Y223.904 E55.60898
G1 X11.997 Y222.494 E55.66274
G1 X11.022 Y220.984 E55.71611
G1 X10.197 Y219.357 E55.77027
G1 X9.552 Y217.665 E55.82403
G1 X9.088 Y215.914 E55.87781
G1 X8.81 Y214.125 E55.93157
G1 X8.719 Y212.311 E55.9855
G1 X9.221 Y22.323 E61.6265
G1 X9.321 Y20.509 E61.68044
G1 X9.609 Y18.722 E61.73418
G1 X10.082 Y16.974 E61.78795
G1 X10.736 Y15.285 E61.84173
G1 X11.562 Y13.674 E61.89548
G1 X12.52 Y12.207 E61.9475
G1 X12.951 Y12.199 F30000
G1 E61.8475 F2400
G92 E0
G1 X33.028 Y19.078 F30000
G1 E.1 F2400
;TYPE:Perimeter
G1 F1800
G1 X33.304 Y18.705 E.11378
G1 X33.81 Y18.143 E.13623
G1 X34.297 Y17.721 E.15536
G1 X34.827 Y17.354 E.1745
G1 X35.393 Y17.048 E.1936
G1 X35.99 Y16.804 E.21275
G1 X36.61 Y16.627 E.23189
G1 X37.245 Y16.519 E.25101
G1 X37.877 Y16.481 E.26981
G1 X119.137 Y16.693 E2.68253
G1 X119.731 Y16.726 E2.70019
G1 X120.368 Y16.827 E2.71934
G1 X120.989 Y16.997 E2.73846
G1 X121.589 Y17.234 E2.75761
G1 X122.159 Y17.535 E2.77675
G1 X122.693 Y17.895 E2.79587
G1 X123.184 Y18.312 E2.815
G1 X123.627 Y18.78 E2.83413
G1 X124.017 Y19.293 E2.85326
G1 X124.34 Y19.831 E2.87189
G1 X124.618 Y20.431 E2.89152
G1 X124.823 Y21.042 E2.91066
G1 X124.959 Y21.672 E2.9298
G1 X125.026 Y22.312 E2.94891
G1 X125.023 Y22.957 E2.96806
G1 X124.957 Y23.547 E2.98569
G1 X124.808 Y24.226 E3.00633
G1 X124.598 Y24.835 E3.02546
G1 X124.358 Y25.347 E3.04225
G1 X83.505 Y99.527 E5.55667
G1 X83.197 Y100.023 E5.57401
G1 X82.812 Y100.525 E5.59279
G1 X82.375 Y100.982 E5.61156
G1 X81.891 Y101.39 E5.63036
G1 X81.367 Y101.743 E5.64912
G1 X80.808 Y102.039 E5.6679
G1 X80.221 Y102.274 E5.68667
G1 X79.612 Y102.444 E5.70544
G1 X78.988 Y102.549 E5.72423
G1 X78.357 Y102.586 E5.743
G1 X77.725 Y102.556 E5.76179
G1 X77.101 Y102.458 E5.78054
G1 X76.49 Y102.294 E5.79932
G1 X75.9 Y102.066 E5.8181
G1 X75.338 Y101.776 E5.83688
G1 X74.81 Y101.428 E5.85566
G1 X74.322 Y101.026 E5.87443
G1 X73.88 Y100.573 E5.89322
G1 X73.489 Y100.076 E5.912
G1 X73.154 Y99.541 E5.93074
G1 X32.725 Y25.219 E8.44281
G1 X32.469 Y24.681 E8.4605
G1 X32.252 Y24.075 E8.47961
G1 X32.103 Y23.448 E8.49874
G1 X32.027 Y22.847 E8.51673
G1 X32.012 Y22.166 E8.53695
G1 X32.042 Y21.823 E8.54717
G1 X32.202 Y20.891 E8.57525
G1 X32.38 Y20.335 E8.59258
G1 X32.662 Y19.689 E8.61351
G1 X32.993 Y19.127 E8.63288
G1 X33.316 Y19.288 F30000
G1 F1800
G1 X33.657 Y18.831 E8.64981
G1 X34.07 Y18.388 E8.66779
G1 X34.528 Y17.993 E8.68575
G1 X35.027 Y17.65 E8.70373
G1 X35.561 Y17.363 E8.72173
G1 X36.122 Y17.136 E8.7397
G1 X36.705 Y16.971 E8.75769
G1 X37.302 Y16.871 E8.77566
G1 X37.895 Y16.837 E8.7933
G1 X119.136 Y17.05 E11.20545
G1 X119.711 Y17.083 E11.22255
G1 X120.309 Y17.18 E11.24054
G1 X120.892 Y17.341 E11.2585
G1 X121.455 Y17.565 E11.27649
G1 X121.99 Y17.849 E11.29447
G1 X122.49 Y18.19 E11.31244
G1 X122.951 Y18.582 E11.33041
G1 X123.366 Y19.023 E11.34839
G1 X123.731 Y19.506 E11.36637
G1 X124.033 Y20.012 E11.38387
G1 X124.293 Y20.577 E11.40234
G1 X124.483 Y21.152 E11.42032
G1 X124.61 Y21.744 E11.4383
G1 X124.671 Y22.347 E11.4563
G1 X124.666 Y22.952 E11.47426
G1 X124.602 Y23.503 E11.49073
G1 X124.46 Y24.144 E11.51022
G1 X124.262 Y24.716 E11.52819
G1 X124.036 Y25.192 E11.54384
G1 X83.192 Y99.355 E14.05769
G1 X82.894 Y99.835 E14.07446
G1 X82.53 Y100.305 E14.09211
G1 X82.119 Y100.733 E14.10973
G1 X81.663 Y101.115 E14.12739
G1 X81.17 Y101.446 E14.14502
G1 X80.644 Y101.722 E14.16266
G1 X80.091 Y101.941 E14.18032
G1 X79.519 Y102.1 E14.19795
G1 X78.932 Y102.196 E14.21561
G1 X78.339 Y102.229 E14.23324
G1 X77.746 Y102.199 E14.25087
G1 X77.159 Y102.106 E14.26852
G1 X76.585 Y101.95 E14.28618
G1 X76.032 Y101.734 E14.30381
G1 X75.504 Y101.46 E14.32147
G1 X75.009 Y101.132 E14.3391
G1 X74.552 Y100.752 E14.35675
G1 X74.138 Y100.326 E14.37439
G1 X73.772 Y99.858 E14.39203
G1 X73.458 Y99.354 E14.40966
G1 X33.039 Y25.048 E16.92117
G1 X32.791 Y24.528 E16.93828
G1 X32.589 Y23.957 E16.95626
G1 X32.451 Y23.368 E16.97422
G1 X32.382 Y22.805 E16.99106
G1 X32.37 Y22.162 E17.01015
G1 X32.397 Y21.859 E17.01918
G1 X32.551 Y20.966 E17.04609
G1 X32.719 Y20.447 E17.06229
G1 X32.987 Y19.838 E17.08205
G1 X33.282 Y19.337 E17.09931
G1 X33.601 Y19.499 F30000
;TYPE:External perimeter
G1 F1800
G1 X33.942 Y19.046 E17.11614
G1 X34.33 Y18.633 E17.13297
G1 X34.76 Y18.264 E17.14979
G1 X35.228 Y17.945 E17.16661
G1 X35.728 Y17.678 E17.18344
G1 X36.254 Y17.468 E17.20026
G1 X36.8 Y17.316 E17.21709
G1 X37.359 Y17.224 E17.23391
G1 X37.923 Y17.194 E17.25068
G1 X119.135 Y17.408 E19.66197
G1 X119.69 Y17.439 E19.67847
G1 X120.25 Y17.532 E19.69532
G1 X120.795 Y17.685 E19.71213
G1 X121.321 Y17.896 E19.72896
G1 X121.82 Y18.164 E19.74578
G1 X122.288 Y18.484 E19.76261
G1 X122.718 Y18.853 E19.77943
G1 X123.105 Y19.267 E19.79626
G1 X123.445 Y19.72 E19.81308
G1 X123.725 Y20.193 E19.8294
G1 X123.967 Y20.724 E19.84673
G1 X124.143 Y21.263 E19.86357
G1 X124.26 Y21.817 E19.88038
G1 X124.316 Y22.381 E19.89721
G1 X124.309 Y22.948 E19.91405
G1 X124.248 Y23.46 E19.92936
G1 X124.113 Y24.062 E19.94768
G1 X123.925 Y24.597 E19.96452
G1 X123.68 Y25.107 E19.98132
G1 X82.88 Y99.182 E22.49225
G1 X82.591 Y99.646 E22.50848
G1 X82.249 Y100.085 E22.525
G1 X81.862 Y100.484 E22.5415
G1 X81.435 Y100.84 E22.55801
G1 X80.972 Y101.148 E22.57452
G1 X80.479 Y101.406 E22.59104
G1 X79.962 Y101.609 E22.60753
G1 X79.425 Y101.755 E22.62405
G1 X78.876 Y101.844 E22.64056
G1 X78.321 Y101.873 E22.65706
G1 X77.766 Y101.843 E22.67356
G1 X77.217 Y101.753 E22.69008
G1 X76.68 Y101.606 E22.70661
G1 X76.163 Y101.402 E22.72311
G1 X75.67 Y101.144 E22.73963
G1 X75.208 Y100.835 E22.75613
G1 X74.781 Y100.478 E22.77266
G1 X74.395 Y100.078 E22.78916
G1 X74.054 Y99.639 E22.80566
G1 X73.762 Y99.167 E22.82214
G1 X33.353 Y24.877 E25.33309
G1 X33.114 Y24.375 E25.3496
G1 X32.927 Y23.84 E25.36643
G1 X32.799 Y23.288 E25.38325
G1 X32.736 Y22.764 E25.39892
G1 X32.727 Y22.159 E25.41689
G1 X32.752 Y21.895 E25.42476
G1 X32.9 Y21.04 E25.45052
G1 X33.058 Y20.56 E25.46552
G1 X33.312 Y19.986 E25.48416
G1 X33.571 Y19.551 E25.49919
G1 X33.424 Y19.141 F30000
G1 E25.39919 F2400
G92 E0
G1 X23.103 Y206.158 F30000
G1 E.1 F2400
;TYPE:Perimeter
G1 F1800
G1 X22.981 Y206.166 E.10363
G1 X22.439 Y206.107 E.11982
G1 X21.946 Y205.954 E.13515
G1 X21.423 Y205.674 E.15276
G1 X20.952 Y205.281 E.17097
G1 X20.574 Y204.797 E.1892
G1 X20.308 Y204.25 E.20726
G1 X20.14 Y203.392 E.23322
G1 X20.129 Y203.25 E.23745
G1 X20.583 Y31.444 E5.3386
G1 X20.634 Y30.928 E5.354
G1 X20.922 Y30.105 E5.37989
G1 X21.289 Y29.556 E5.3995
G1 X21.736 Y29.136 E5.41771
G1 X22.261 Y28.818 E5.43593
G1 X22.841 Y28.617 E5.45416
G1 X23.446 Y28.543 E5.47226
G1 X24.06 Y28.598 E5.49056
G1 X24.621 Y28.77 E5.50798
G1 X24.958 Y28.953 E5.51937
G1 X25.381 Y29.24 E5.53455
G1 X25.647 Y29.511 E5.54582
G1 X26.056 Y30.06 E5.56615
G1 X70.758 Y112.24 E8.3438
G1 X71.247 Y113.266 E8.37755
G1 X71.616 Y114.295 E8.41001
G1 X71.879 Y115.355 E8.44244
G1 X72.027 Y116.348 E8.47225
G1 X72.083 Y117.439 E8.50469
G1 X72.03 Y118.53 E8.53712
G1 X71.868 Y119.611 E8.56957
G1 X71.599 Y120.67 E8.60201
G1 X71.225 Y121.697 E8.63446
G1 X70.939 Y122.295 E8.65414
G1 X70.463 Y123.204 E8.68461
G1 X25.596 Y204.663 E11.44583
G1 X25.297 Y205.065 E11.46071
G1 X24.963 Y205.444 E11.47571
G1 X24.495 Y205.782 E11.49285
G1 X23.831 Y206.053 E11.51414
G1 X23.397 Y206.138 E11.52727
G1 X23.163 Y206.154 E11.53423
G1 X23.04 Y205.803 F30000
G1 F1800
G1 X22.599 Y205.772 E11.54736
G1 X22.074 Y205.62 E11.56359
G1 X21.599 Y205.364 E11.57961
G1 X21.19 Y205.014 E11.59559
G1 X20.862 Y204.587 E11.61158
G1 X20.634 Y204.104 E11.62744
G1 X20.486 Y203.251 E11.65315
G1 X20.94 Y31.445 E16.7543
G1 X21.001 Y30.897 E16.77067
G1 X21.255 Y30.235 E16.79172
G1 X21.576 Y29.769 E16.80852
G1 X21.972 Y29.403 E16.82453
G1 X22.436 Y29.129 E16.84053
G1 X22.947 Y28.958 E16.85653
G1 X23.478 Y28.899 E16.87239
G1 X24.017 Y28.952 E16.88847
G1 X24.504 Y29.108 E16.90365
G1 X25.181 Y29.536 E16.92743
G1 X25.533 Y29.947 E16.9435
G1 X25.743 Y30.23 E16.95396
G1 X70.444 Y112.411 E19.73162
G1 X70.912 Y113.388 E19.76378
G1 X71.27 Y114.383 E19.79518
G1 X71.526 Y115.408 E19.82655
G1 X71.674 Y116.4 E19.85633
G1 X71.726 Y117.456 E19.88772
G1 X71.673 Y118.512 E19.91911
G1 X71.515 Y119.557 E19.95049
G1 X71.253 Y120.58 E19.98184
G1 X70.89 Y121.573 E20.01323
G1 X70.618 Y122.138 E20.03185
G1 X70.151 Y123.032 E20.0618
G1 X25.283 Y204.491 E22.82304
G1 X24.896 Y204.999 E22.842
