; generated by PrusaSlicer 2.6.1+linux-x64-GTK3 on 2023-10-28 at 18:27:57 UTC

; 

; external perimeters extrusion width = 0.45mm
; perimeters extrusion width = 0.45mm
; infill extrusion width = 0.45mm
; solid infill extrusion width = 0.45mm
; top infill extrusion width = 0.40mm
; support material extrusion width = 0.40mm
; first layer extrusion width = 0.70mm

; external perimeters extrusion width = 0.45mm
; perimeters extrusion width = 0.45mm
; infill extrusion width = 0.45mm
; solid infill extrusion width = 0.45mm
; top infill extrusion width = 0.40mm
; support material extrusion width = 0.40mm
; first layer extrusion width = 0.70mm

;TYPE:Custom
; M190 R30 ; Because of probe temperature drift,
; M109 R30 ; Let the beds and hotend cool down before homing the axis

G28 ; home all axes
G1 Z100.0 F3000 ; Raise head above brush
M190 S65 ; set bed temperature and wait for it to be reached
M109 S230 ; set hot end temp and wait for it

; Brush any crap off the nozzle
G1 X232.0 Y0.0 F3000 ; Goto Start of movement
G1 Z19.0 F3000 ; Lower into brush
G1 X221.0 Y2.0 F3000 ; Goto Start of movement
G1 X229.0 Y4.0 F3000 ; 
G1 X221.0 Y6.0 F3000 ; 
G1 X229.0 Y8.0 F3000 ; 
G1 X221.0 Y10.0 F3000 ;
G1 X229.0 Y12.0 F3000 ;
G1 X221.0 Y14.0 F3000 ;
G1 X229.0 Y16.0 F3000 ;
G1 X221.0 Y18.0 F3000 ;
G1 X229.0 Y20.0 F3000 ;
G1 X221.0 Y22.0 F3000 ;
G1 X229.0 Y24.0 F3000 ;
G1 X221.0 Y26.0 F3000 ;
G1 X229.0 Y28.0 F3000 ;
G1 X221.0 Y30.0 F3000 ;
G1 X229.0 Y28.0 F3000 ;
G1 X221.0 Y26.0 F3000 ;
G1 X229.0 Y24.0 F3000 ;
G1 X221.0 Y22.0 F3000 ;
G1 X229.0 Y20.0 F3000 ;
G1 X221.0 Y18.0 F3000 ;
G1 X229.0 Y16.0 F3000 ;
G1 X221.0 Y14.0 F3000 ;
G1 X229.0 Y12.0 F3000 ;
G1 X221.0 Y10.0 F3000 ;
G1 X229.0 Y8.0 F3000 ; 
G1 X221.0 Y6.0 F3000 ; 
G1 X229.0 Y4.0 F3000 ; 
G1 X221.0 Y2.0 F3000 ; 
G1 X229.0 Y0.0 F3000 ; 
G1 X225.0 Y0.0 F3000 ; 
G1 X225.0 Y30.0 F5000 ; 
G1 X225.0 Y0.0 F5000 ; 
G1 X225.0 Y30.0 F5000 ; 
G1 X225.0 Y0.0 F5000 ; 
G1 X225.0 Y30.0 F5000 ; 

; Do a purge line to prime the extruder
G92 E0 ;Reset Extruder
G1 X227.0 Y80.0 F5000 ; Goto Start of purge
G1 Z0.28 F5000 ;Move Head to start height
G1 X227.0 Y230.0 Z0.28 F1500.0 E15; Draw first line
G1 X226.7 Y230.0 Z0.28 F5000.0 ;Move to side a little
G1 X226.7 Y80.0 Z0.28 F1500.0 E30; Draw the second line
G1 Z0.4 F5000; Move Z Axis Up
G1 Y120 F1500; Wipe to the back
G1 X117.5 Y117.5 Z27.0 F5000 ; Raise head above brush
G92 E0 ;Reset Extruder
G21 ; set units to millimeters
G90 ; use absolute coordinates
M82 ; use absolute distances for extrusion
G92 E0
; Filament gcode
SET_PRESSURE_ADVANCE ADVANCE=0.063
M107
;LAYER_CHANGE
;Z:0.35
;HEIGHT:0.35
G1 Z.35 F30000
G1 E-.1 F2400
G92 E0
G1 X147.425 Y91.154 F30000
G1 E.1 F2400
;TYPE:Perimeter
;WIDTH:0.7
G1 F1800
G1 X147.898 Y90.771 E.15534
G1 X148.501 Y90.382 E.22059
G1 X149.141 Y90.063 E.28561
G1 X149.812 Y89.814 E.35069
G1 X150.506 Y89.639 E.41577
G1 X151.214 Y89.541 E.48076
G1 X151.89 Y89.521 E.54226
G1 X152.64 Y89.576 E.61064
G1 X153.346 Y89.71 E.67598
G1 X154.03 Y89.918 E.74099
G1 X154.688 Y90.2 E.80608
G1 X155.311 Y90.551 E.8711
G1 X155.893 Y90.967 E.93615
G1 X156.426 Y91.444 E1.00119
G1 X156.904 Y91.976 E1.06622
G1 X157.322 Y92.557 E1.1313
G1 X157.675 Y93.179 E1.19633
G1 X157.988 Y93.914 E1.26897
G1 X166.103 Y116.861 E3.48216
G1 X166.282 Y117.462 E3.53918
G1 X166.417 Y118.161 E3.60391
G1 X166.476 Y118.87 E3.6686
G1 X166.458 Y119.582 E3.73336
G1 X166.364 Y120.288 E3.79812
G1 X166.194 Y120.979 E3.86283
G1 X165.951 Y121.648 E3.92755
G1 X165.637 Y122.286 E3.99221
G1 X164.726 Y123.869 E4.15829
G1 X164.396 Y124.38 E4.2136
G1 X163.968 Y124.922 E4.2764
G1 X163.486 Y125.417 E4.33922
G1 X162.955 Y125.858 E4.40198
G1 X162.38 Y126.241 E4.4648
G1 X161.769 Y126.562 E4.52756
G1 X161.127 Y126.818 E4.59041
G1 X160.462 Y127.005 E4.65322
G1 X159.782 Y127.121 E4.71595
G1 X159.092 Y127.166 E4.77882
G1 X158.402 Y127.138 E4.84161
G1 X157.719 Y127.039 E4.90436
G1 X157.05 Y126.868 E4.96715
G1 X156.402 Y126.629 E5.02995
G1 X155.712 Y126.284 E5.1001
G1 X139.688 Y117.033 E6.78254
G1 X139.177 Y116.704 E6.8378
G1 X138.635 Y116.276 E6.9006
G1 X138.141 Y115.794 E6.96336
G1 X137.7 Y115.262 E7.02619
G1 X137.316 Y114.688 E7.08899
G1 X136.995 Y114.076 E7.15183
G1 X136.74 Y113.435 E7.21456
G1 X136.553 Y112.77 E7.27737
G1 X136.436 Y112.089 E7.3402
G1 X136.391 Y111.4 E7.40298
G1 X136.419 Y110.71 E7.46577
G1 X136.519 Y110.026 E7.52863
G1 X136.687 Y109.364 E7.59073
G1 X136.928 Y108.712 E7.65394
G1 X137.273 Y108.019 E7.72433
G1 X146.051 Y92.815 E9.32069
G1 X146.367 Y92.327 E9.37355
G1 X146.788 Y91.791 E9.43552
G1 X147.379 Y91.192 E9.51204
G1 X147.821 Y91.634 F30000
G1 F1800
G1 X148.285 Y91.261 E9.56617
G1 X148.833 Y90.912 E9.62525
G1 X149.413 Y90.625 E9.68409
G1 X150.022 Y90.403 E9.74303
G1 X150.651 Y90.247 E9.80196
G1 X151.292 Y90.161 E9.86077
G1 X151.9 Y90.145 E9.91607
G1 X152.584 Y90.198 E9.97845
G1 X153.221 Y90.322 E10.03746
G1 X153.84 Y90.514 E10.09639
G1 X154.434 Y90.771 E10.15524
G1 X154.997 Y91.091 E10.21412
G1 X155.522 Y91.471 E10.27305
G1 X156.003 Y91.905 E10.33196
G1 X156.434 Y92.388 E10.39082
G1 X156.81 Y92.916 E10.44976
G1 X157.127 Y93.48 E10.50859
G1 X157.399 Y94.123 E10.57207
G1 X165.514 Y117.07 E12.78526
G1 X165.683 Y117.638 E12.83915
G1 X165.802 Y118.272 E12.89781
G1 X165.853 Y118.914 E12.95637
G1 X165.834 Y119.558 E13.01495
G1 X165.746 Y120.197 E13.0736
G1 X165.589 Y120.822 E13.1322
G1 X165.366 Y121.427 E13.19083
G1 X165.08 Y122.003 E13.24931
G1 X164.185 Y123.557 E13.41237
G1 X163.872 Y124.04 E13.4647
G1 X163.483 Y124.529 E13.52152
G1 X163.044 Y124.975 E13.57842
G1 X162.562 Y125.372 E13.6352
G1 X162.04 Y125.717 E13.6921
G1 X161.485 Y126.005 E13.74896
G1 X160.903 Y126.234 E13.80583
G1 X160.301 Y126.401 E13.86264
G1 X159.684 Y126.504 E13.91952
G1 X159.06 Y126.542 E13.97637
G1 X158.435 Y126.514 E14.03326
G1 X157.817 Y126.422 E14.09007
G1 X157.211 Y126.265 E14.14699
G1 X156.626 Y126.045 E14.20382
G1 X156.024 Y125.743 E14.26506
G1 X140.001 Y116.492 E15.94742
G1 X139.518 Y116.18 E15.99971
G1 X139.028 Y115.79 E16.05666
G1 X138.583 Y115.352 E16.11344
G1 X138.185 Y114.869 E16.17035
G1 X137.84 Y114.348 E16.22717
G1 X137.552 Y113.793 E16.28403
G1 X137.323 Y113.211 E16.3409
G1 X137.156 Y112.608 E16.39779
G1 X137.053 Y111.991 E16.45467
G1 X137.016 Y111.367 E16.51151
G1 X137.043 Y110.743 E16.5683
G1 X137.136 Y110.124 E16.62522
G1 X137.291 Y109.526 E16.68139
G1 X137.512 Y108.935 E16.73876
G1 X137.814 Y108.332 E16.80008
G1 X146.592 Y93.128 E18.39644
G1 X146.89 Y92.669 E18.4462
G1 X147.271 Y92.187 E18.50207
G1 X147.775 Y91.672 E18.56759
G1 X148.3 Y92.048 F30000
;TYPE:External perimeter
G1 F1800
G1 X148.673 Y91.751 E18.61095
G1 X149.164 Y91.442 E18.6637
G1 X149.685 Y91.188 E18.7164
G1 X150.231 Y90.991 E18.76918
G1 X150.795 Y90.855 E18.82193
G1 X151.37 Y90.781 E18.87465
G1 X151.911 Y90.77 E18.92385
G1 X152.528 Y90.821 E18.98014
G1 X153.097 Y90.934 E19.03289
G1 X153.65 Y91.109 E19.08563
G1 X154.181 Y91.342 E19.13836
G1 X154.684 Y91.632 E19.19115
G1 X155.152 Y91.974 E19.24386
G1 X155.581 Y92.365 E19.29664
G1 X155.964 Y92.8 E19.34934
G1 X156.299 Y93.274 E19.40212
G1 X156.58 Y93.781 E19.45483
G1 X156.81 Y94.331 E19.50904
G1 X164.925 Y117.278 E21.72223
G1 X165.083 Y117.815 E21.77313
G1 X165.187 Y118.382 E21.82555
G1 X165.23 Y118.958 E21.87807
G1 X165.21 Y119.535 E21.93057
G1 X165.127 Y120.106 E21.98304
G1 X164.984 Y120.665 E22.03551
G1 X164.782 Y121.206 E22.08802
G1 X164.523 Y121.72 E22.14036
G1 X163.643 Y123.244 E22.30038
G1 X163.348 Y123.699 E22.34969
G1 X162.997 Y124.136 E22.40066
G1 X162.602 Y124.533 E22.45158
G1 X162.168 Y124.887 E22.50251
G1 X161.7 Y125.193 E22.55335
G1 X161.201 Y125.449 E22.60435
G1 X160.679 Y125.651 E22.65525
G1 X160.139 Y125.798 E22.70614
G1 X159.586 Y125.887 E22.75707
G1 X159.027 Y125.918 E22.80798
G1 X158.468 Y125.89 E22.85887
G1 X157.914 Y125.804 E22.90985
G1 X157.373 Y125.661 E22.96073
G1 X156.85 Y125.462 E23.01161
G1 X156.337 Y125.202 E23.06391
G1 X140.313 Y115.951 E24.74635
G1 X139.858 Y115.656 E24.79566
G1 X139.422 Y115.305 E24.84656
G1 X139.025 Y114.91 E24.89748
G1 X138.671 Y114.476 E24.94841
G1 X138.364 Y114.007 E24.99938
G1 X138.109 Y113.509 E25.05025
G1 X137.906 Y112.987 E25.10118
G1 X137.76 Y112.446 E25.15213
G1 X137.671 Y111.894 E25.20297
G1 X137.64 Y111.335 E25.25388
G1 X137.667 Y110.775 E25.30486
G1 X137.753 Y110.222 E25.35575
G1 X137.894 Y109.688 E25.40597
G1 X138.095 Y109.158 E25.45751
G1 X138.355 Y108.644 E25.50989
G1 X147.133 Y93.44 E27.10625
G1 X147.413 Y93.01 E27.15291
G1 X147.754 Y92.583 E27.2026
G1 X148.253 Y92.085 E27.2667
G1 X148.221 Y91.656 F30000
G1 E27.1667 F2400
G92 E0
G1 X143.819 Y73.562 F30000
G1 E.1 F2400
;TYPE:Perimeter
G1 F1800
G1 X144.338 Y73.818 E.15262
G1 X144.922 Y74.187 E.21543
G1 X145.464 Y74.615 E.27823
G1 X145.958 Y75.098 E.34105
G1 X146.4 Y75.629 E.40387
G1 X146.783 Y76.203 E.46662
G1 X147.104 Y76.815 E.52946
G1 X147.36 Y77.456 E.59222
G1 X147.547 Y78.121 E.65503
G1 X147.663 Y78.802 E.71784
G1 X147.708 Y79.491 E.78062
G1 X147.68 Y80.181 E.84341
G1 X147.581 Y80.865 E.90625
G1 X147.41 Y81.534 E.96904
G1 X147.171 Y82.182 E1.03184
G1 X146.865 Y82.8 E1.09455
G1 X143.499 Y88.635 E1.70707
G1 X143.214 Y89.077 E1.75489
G1 X142.772 Y89.65 E1.82069
G1 X142.416 Y90.026 E1.86777
G1 X141.728 Y90.624 E1.95066
G1 X141.153 Y91.007 E2.01348
G1 X140.542 Y91.328 E2.07624
G1 X139.907 Y91.581 E2.13839
G1 X139.255 Y91.766 E2.20002
G1 X138.555 Y91.887 E2.26461
G1 X138.014 Y91.924 E2.31392
G1 X137.183 Y91.905 E2.3895
G1 X136.494 Y91.805 E2.45281
G1 X135.823 Y91.634 E2.51577
G1 X135.175 Y91.395 E2.57857
G1 X134.485 Y91.05 E2.64872
G1 X125.823 Y86.049 E3.5582
G1 X125.312 Y85.72 E3.61346
G1 X124.77 Y85.292 E3.67626
G1 X124.275 Y84.81 E3.73908
G1 X123.834 Y84.279 E3.80184
G1 X123.451 Y83.704 E3.86466
G1 X123.133 Y83.099 E3.92681
G1 X122.875 Y82.453 E3.99006
G1 X122.687 Y81.786 E4.05307
G1 X122.57 Y81.105 E4.1159
G1 X122.526 Y80.423 E4.17804
G1 X122.553 Y79.728 E4.24128
G1 X122.653 Y79.043 E4.30423
G1 X122.823 Y78.373 E4.36708
G1 X123.063 Y77.725 E4.42991
G1 X123.368 Y77.107 E4.49258
G1 X123.876 Y76.226 E4.58505
G1 X124.177 Y75.761 E4.63542
G1 X124.524 Y75.319 E4.68652
G1 X125.088 Y74.725 E4.761
G1 X125.619 Y74.283 E4.82382
G1 X126.193 Y73.9 E4.88657
G1 X126.805 Y73.579 E4.94941
G1 X127.446 Y73.324 E5.01214
G1 X128.111 Y73.137 E5.07495
G1 X128.792 Y73.02 E5.13778
G1 X129.562 Y72.973 E5.20793
G1 X141.111 Y72.973 E6.25808
G1 X141.718 Y73.003 E6.31334
G1 X142.402 Y73.103 E6.3762
G1 X143.071 Y73.273 E6.43897
G1 X143.765 Y73.535 E6.50642
G1 X143.547 Y74.122 F30000
G1 F1800
G1 X144.054 Y74.375 E6.55794
G1 X144.582 Y74.711 E6.61485
G1 X145.071 Y75.101 E6.67172
G1 X145.516 Y75.539 E6.7285
G1 X145.914 Y76.022 E6.78541
G1 X146.259 Y76.544 E6.84231
G1 X146.547 Y77.099 E6.89917
G1 X146.776 Y77.68 E6.95596
G1 X146.943 Y78.283 E7.01285
G1 X147.046 Y78.9 E7.06973
G1 X147.084 Y79.524 E7.12658
G1 X147.056 Y80.149 E7.18347
G1 X146.963 Y80.767 E7.2403
G1 X146.806 Y81.372 E7.29713
G1 X146.587 Y81.958 E7.35401
G1 X146.308 Y82.517 E7.41082
G1 X142.958 Y88.323 E8.02033
G1 X142.645 Y88.806 E8.07266
G1 X142.287 Y89.257 E8.12502
G1 X141.817 Y89.741 E8.18637
G1 X141.335 Y90.138 E8.24315
G1 X140.813 Y90.483 E8.30005
G1 X140.258 Y90.772 E8.35695
G1 X139.683 Y90.998 E8.41313
G1 X139.092 Y91.162 E8.4689
G1 X138.457 Y91.27 E8.52747
G1 X137.833 Y91.308 E8.58432
G1 X137.215 Y91.281 E8.64057
G1 X136.591 Y91.188 E8.69794
G1 X135.984 Y91.031 E8.75495
G1 X135.399 Y90.811 E8.81178
G1 X134.797 Y90.509 E8.87302
G1 X126.135 Y85.508 E9.7825
G1 X125.652 Y85.196 E9.83479
G1 X125.163 Y84.806 E9.89166
G1 X124.717 Y84.368 E9.9485
G1 X124.32 Y83.885 E10.00535
G1 X123.975 Y83.364 E10.06217
G1 X123.69 Y82.815 E10.11842
G1 X123.458 Y82.228 E10.17581
G1 X123.291 Y81.624 E10.23279
G1 X123.188 Y81.008 E10.28958
G1 X123.15 Y80.391 E10.34579
G1 X123.177 Y79.76 E10.40322
G1 X123.27 Y79.14 E10.46023
G1 X123.427 Y78.535 E10.51706
G1 X123.646 Y77.949 E10.57394
G1 X123.925 Y77.391 E10.63067
G1 X124.389 Y76.585 E10.71524
G1 X124.701 Y76.102 E10.76753
G1 X125.091 Y75.612 E10.82448
G1 X125.529 Y75.167 E10.88126
G1 X126.012 Y74.769 E10.93817
G1 X126.534 Y74.424 E10.99507
G1 X127.088 Y74.136 E11.05185
G1 X127.67 Y73.907 E11.10872
G1 X128.273 Y73.74 E11.16561
G1 X128.89 Y73.637 E11.22249
G1 X129.562 Y73.598 E11.2837
G1 X141.111 Y73.598 E12.33385
G1 X141.686 Y73.627 E12.3862
G1 X142.304 Y73.72 E12.44303
G1 X142.909 Y73.877 E12.49986
G1 X143.493 Y74.095 E12.55654
G1 X143.28 Y74.684 F30000
;TYPE:External perimeter
G1 F1800
G1 X143.771 Y74.932 E12.60656
G1 X144.241 Y75.236 E12.65746
G1 X144.677 Y75.587 E12.70836
G1 X145.075 Y75.981 E12.75928
G1 X145.428 Y76.415 E12.81015
G1 X145.735 Y76.884 E12.86112
G1 X145.99 Y77.382 E12.91199
G1 X146.193 Y77.904 E12.96292
G1 X146.339 Y78.445 E13.01387
G1 X146.429 Y78.998 E13.06482
G1 X146.46 Y79.557 E13.11573
G1 X146.432 Y80.116 E13.16662
G1 X146.346 Y80.669 E13.21751
G1 X146.203 Y81.211 E13.26848
G1 X146.004 Y81.734 E13.31936
G1 X145.752 Y82.233 E13.37019
G1 X142.416 Y88.01 E13.97678
G1 X142.121 Y88.466 E14.02616
G1 X141.801 Y88.864 E14.0726
G1 X141.375 Y89.299 E14.12796
G1 X140.941 Y89.653 E14.17889
G1 X140.473 Y89.959 E14.22973
G1 X139.975 Y90.215 E14.28065
G1 X139.459 Y90.414 E14.33094
G1 X138.93 Y90.559 E14.38082
G1 X138.359 Y90.653 E14.43344
G1 X137.8 Y90.684 E14.48435
G1 X137.248 Y90.657 E14.5346
G1 X136.688 Y90.571 E14.58612
G1 X136.146 Y90.427 E14.63711
G1 X135.623 Y90.228 E14.68799
G1 X135.11 Y89.968 E14.74029
G1 X126.448 Y84.967 E15.64977
G1 X125.992 Y84.672 E15.69915
G1 X125.556 Y84.321 E15.75005
G1 X125.159 Y83.926 E15.80097
G1 X124.805 Y83.492 E15.8519
G1 X124.499 Y83.023 E15.90282
G1 X124.246 Y82.532 E15.95304
G1 X124.041 Y82.003 E16.00463
G1 X123.894 Y81.463 E16.05552
G1 X123.805 Y80.91 E16.10645
G1 X123.774 Y80.358 E16.15672
G1 X123.801 Y79.792 E16.20824
G1 X123.887 Y79.238 E16.25922
G1 X124.031 Y78.697 E16.31013
G1 X124.23 Y78.173 E16.3611
G1 X124.482 Y77.675 E16.41185
G1 X124.93 Y76.897 E16.49348
G1 X125.225 Y76.442 E16.54279
G1 X125.577 Y76.006 E16.59374
G1 X125.971 Y75.608 E16.64466
G1 X126.405 Y75.255 E16.69553
G1 X126.874 Y74.948 E16.7465
G1 X127.372 Y74.693 E16.79737
G1 X127.894 Y74.49 E16.8483
G1 X128.435 Y74.344 E16.89925
G1 X128.988 Y74.254 E16.9502
G1 X129.562 Y74.223 E17.00247
G1 X141.111 Y74.223 E18.05262
G1 X141.653 Y74.251 E18.10197
G1 X142.206 Y74.337 E18.15286
G1 X142.748 Y74.48 E18.20383
G1 X143.225 Y74.662 E18.25025
G1 X143.603 Y74.448 F30000
G1 E18.15025 F2400
G92 E0
G1 X70.739 Y76.292 F30000
G1 E.1 F2400
;TYPE:Perimeter
G1 F1800
G1 X70.686 Y76.107 E.1175
G1 X70.687 Y75.336 E.18761
G1 X70.778 Y74.873 E.23052
G1 X71.069 Y74.285 E.29018
G1 X71.343 Y73.909 E.33248
G1 X71.86 Y73.493 E.39282
G1 X72.206 Y73.292 E.42921
G1 X72.909 Y73.11 E.49524
G1 X73.248 Y73.073 E.52625
G1 X109.299 Y73.073 E3.80435
G1 X109.906 Y73.103 E3.85961
G1 X110.59 Y73.203 E3.92247
G1 X111.259 Y73.373 E3.98524
G1 X111.907 Y73.613 E4.04807
G1 X112.526 Y73.918 E4.11082
G1 X113.11 Y74.287 E4.17363
G1 X113.652 Y74.715 E4.23643
G1 X114.033 Y75.084 E4.28466
G1 X114.507 Y75.629 E4.35034
G1 X114.905 Y76.203 E4.41385
G1 X115.245 Y76.822 E4.47807
G1 X115.548 Y77.556 E4.55028
G1 X115.735 Y78.221 E4.61309
G1 X115.851 Y78.902 E4.6759
G1 X115.896 Y79.591 E4.73868
G1 X115.868 Y80.281 E4.80147
G1 X115.769 Y80.965 E4.86431
G1 X115.598 Y81.634 E4.9271
G1 X115.359 Y82.282 E4.9899
G1 X115.053 Y82.9 E5.05261
G1 X109.733 Y92.119 E6.02045
G1 X109.404 Y92.63 E6.07571
G1 X108.976 Y93.172 E6.13851
G1 X108.494 Y93.667 E6.20133
G1 X107.962 Y94.108 E6.26416
G1 X107.388 Y94.491 E6.32691
G1 X106.776 Y94.812 E6.38975
G1 X106.135 Y95.068 E6.45251
G1 X105.47 Y95.255 E6.51532
G1 X104.796 Y95.37 E6.57749
G1 X104.102 Y95.416 E6.64073
G1 X103.41 Y95.388 E6.7037
G1 X102.726 Y95.289 E6.76654
G1 X102.057 Y95.118 E6.82933
G1 X101.409 Y94.879 E6.89213
G1 X100.719 Y94.534 E6.96228
G1 X71.948 Y77.924 E9.98309
G1 X71.344 Y77.42 E10.05462
G1 X71.115 Y77.157 E10.08633
G1 X70.785 Y76.451 E10.15719
G1 X70.756 Y76.35 E10.16674
G1 X71.359 Y76.157 F30000
G1 F1800
G1 X71.303 Y76.006 E10.18138
G1 X71.311 Y75.364 E10.23976
G1 X71.366 Y75.086 E10.26553
G1 X71.623 Y74.573 E10.3177
G1 X71.788 Y74.348 E10.34307
