; generated by PrusaSlicer 2.6.1+linux-x64-GTK3 on 2023-10-18 at 22:47:03 UTC

; 

; external perimeters extrusion width = 0.45mm
; perimeters extrusion width = 0.45mm
; infill extrusion width = 0.45mm
; solid infill extrusion width = 0.45mm
; top infill extrusion width = 0.40mm
; first layer extrusion width = 0.70mm

;TYPE:Custom
; M190 R30 ; Because of probe temperature drift,
; M109 R30 ; Let the beds and hotend cool down before homing the axis

G28 ; home all axes
G1 Z100.0 F3000 ; Raise head above brush
M190 S100 ; set bed temperature and wait for it to be reached
M109 S255 ; set hot end temp and wait for it

; Brush any crap off the nozzle
G1 X232.0 Y0.0 F3000 ; Goto Start of movement
G1 Z19.0 F3000 ; Lower into brush
G1 X221.0 Y2.0 F3000 ; Goto Start of movement
G1 X229.0 Y4.0 F3000 ; 
G1 X221.0 Y6.0 F3000 ; 
G1 X229.0 Y8.0 F3000 ; 
G1 X221.0 Y10.0 F3000 ;
G1 X229.0 Y12.0 F3000 ;
G1 X221.0 Y14.0 F3000 ;
G1 X229.0 Y16.0 F3000 ;
G1 X221.0 Y18.0 F3000 ;
G1 X229.0 Y20.0 F3000 ;
G1 X221.0 Y22.0 F3000 ;
G1 X229.0 Y24.0 F3000 ;
G1 X221.0 Y26.0 F3000 ;
G1 X229.0 Y28.0 F3000 ;
G1 X221.0 Y30.0 F3000 ;
G1 X229.0 Y28.0 F3000 ;
G1 X221.0 Y26.0 F3000 ;
G1 X229.0 Y24.0 F3000 ;
G1 X221.0 Y22.0 F3000 ;
G1 X229.0 Y20.0 F3000 ;
G1 X221.0 Y18.0 F3000 ;
G1 X229.0 Y16.0 F3000 ;
G1 X221.0 Y14.0 F3000 ;
G1 X229.0 Y12.0 F3000 ;
G1 X221.0 Y10.0 F3000 ;
G1 X229.0 Y8.0 F3000 ; 
G1 X221.0 Y6.0 F3000 ; 
G1 X229.0 Y4.0 F3000 ; 
G1 X221.0 Y2.0 F3000 ; 
G1 X229.0 Y0.0 F3000 ; 
G1 X225.0 Y0.0 F3000 ; 
G1 X225.0 Y30.0 F5000 ; 
G1 X225.0 Y0.0 F5000 ; 
G1 X225.0 Y30.0 F5000 ; 
G1 X225.0 Y0.0 F5000 ; 
G1 X225.0 Y30.0 F5000 ; 

; Do a purge line to prime the extruder
G92 E0 ;Reset Extruder
G1 X227.0 Y80.0 F5000 ; Goto Start of purge
G1 Z0.28 F5000 ;Move Head to start height
G1 X227.0 Y230.0 Z0.28 F1500.0 E15; Draw first line
G1 X226.7 Y230.0 Z0.28 F5000.0 ;Move to side a little
G1 X226.7 Y80.0 Z0.28 F1500.0 E30; Draw the second line
G1 Z0.4 F5000; Move Z Axis Up
G1 Y120 F1500; Wipe to the back
G1 X117.5 Y117.5 Z27.0 F5000 ; Raise head above brush
G92 E0 ;Reset Extruder
G21 ; set units to millimeters
G90 ; use absolute coordinates
M82 ; use absolute distances for extrusion
G92 E0
; Filament gcode
; SET_PRESSURE_ADVANCE ADVANCE=0.063
M107
;LAYER_CHANGE
;Z:0.35
;HEIGHT:0.35
G1 Z.35 F30000
G1 E-2 F2400
G92 E0
G1 X84.531 Y84.206 F30000
G1 E2 F2400
;TYPE:Skirt/Brim
;WIDTH:0.7
G1 F1800
G1 X85.741 Y83.288 E2.13811
G1 X87.182 Y82.619 E2.28257
G1 X88.67 Y82.287 E2.4212
G1 X90.199 Y82.273 E2.56024
G1 X91.756 Y82.599 E2.70489
G1 X93.203 Y83.255 E2.84935
G1 X94.417 Y84.157 E2.98687
G1 X95.399 Y85.238 E3.11967
G1 X139.601 Y85.238 E7.13894
G1 X140.586 Y84.154 E7.27212
G1 X141.925 Y83.181 E7.42263
G1 X143.393 Y82.551 E7.56789
G1 X144.815 Y82.271 E7.69967
G1 X146.204 Y82.273 E7.82597
G1 X147.886 Y82.642 E7.98255
G1 X149.259 Y83.288 E8.12052
G1 X150.466 Y84.203 E8.25824
G1 X151.418 Y85.294 E8.3899
G1 X152.163 Y86.614 E8.52772
G1 X152.604 Y87.997 E8.65971
G1 X152.761 Y89.442 E8.79188
G1 X152.603 Y91.003 E8.93455
G1 X152.109 Y92.506 E9.07841
G1 X151.339 Y93.816 E9.21658
G1 X150.404 Y94.855 E9.34368
G1 X149.762 Y95.343 E9.41701
G1 X149.762 Y139.657 E13.44646
G1 X150.406 Y140.148 E13.5201
G1 X151.38 Y141.24 E13.65315
G1 X152.105 Y142.484 E13.78407
G1 X152.587 Y143.921 E13.92189
G1 X152.76 Y145.439 E14.06081
G1 X152.614 Y146.954 E14.19921
G1 X152.156 Y148.402 E14.33731
G1 X151.285 Y149.888 E14.49393
G1 X150.246 Y150.995 E14.63198
G1 X149 Y151.862 E14.77001
G1 X147.601 Y152.45 E14.908
G1 X146.11 Y152.735 E15.04603
G1 X144.723 Y152.719 E15.17216
G1 X143.306 Y152.422 E15.30381
G1 X141.918 Y151.816 E15.44152
G1 X140.586 Y150.846 E15.59135
G1 X139.601 Y149.762 E15.72453
G1 X95.399 Y149.762 E19.7438
G1 X94.415 Y150.844 E19.87679
G1 X93.143 Y151.781 E20.02045
G1 X91.683 Y152.425 E20.16555
G1 X90.116 Y152.735 E20.3108
G1 X88.666 Y152.713 E20.44266
G1 X87.187 Y152.383 E20.58045
G1 X85.863 Y151.785 E20.71255
G1 X84.684 Y150.934 E20.84477
G1 X83.659 Y149.813 E20.98289
G1 X82.89 Y148.505 E21.12086
G1 X82.41 Y147.065 E21.25888
G1 X82.24 Y145.558 E21.39678
G1 X82.408 Y143.94 E21.5447
G1 X82.709 Y142.987 E21.63558
G1 X82.929 Y142.412 E21.69156
G1 X83.662 Y141.182 E21.82176
G1 X84.596 Y140.145 E21.94866
G1 X85.238 Y139.657 E22.02199
G1 X85.238 Y95.343 E26.05144
G1 X84.596 Y94.855 E26.12477
G1 X83.661 Y93.816 E26.25187
G1 X82.892 Y92.507 E26.38992
G1 X82.415 Y91.088 E26.52604
G1 X82.24 Y89.587 E26.66345
G1 X82.38 Y88.075 E26.80152
G1 X82.807 Y86.685 E26.93374
G1 X83.539 Y85.354 E27.07186
G1 X84.492 Y84.251 E27.20441
G1 X84.963 Y84.661 F30000
G1 F1800
G1 X86.089 Y83.808 E27.33286
G1 X87.41 Y83.202 E27.46501
G1 X88.77 Y82.904 E27.59161
G1 X90.167 Y82.898 E27.71864
G1 X91.59 Y83.202 E27.85095
G1 X92.911 Y83.808 E27.9831
G1 X94.016 Y84.637 E28.10871
G1 X94.809 Y85.518 E28.21649
G1 X95.028 Y85.863 E28.25365
G1 X139.972 Y85.863 E32.34039
G1 X140.19 Y85.518 E32.3775
G1 X140.983 Y84.638 E32.48521
G1 X142.207 Y83.739 E32.6233
G1 X143.55 Y83.157 E32.75639
G1 X144.847 Y82.896 E32.87669
G1 X146.169 Y82.898 E32.9969
G1 X147.654 Y83.224 E33.13515
G1 X148.911 Y83.808 E33.26118
G1 X150.019 Y84.641 E33.38723
G1 X150.892 Y85.632 E33.50732
G1 X151.579 Y86.838 E33.63353
G1 X151.986 Y88.097 E33.75384
G1 X152.136 Y89.475 E33.87988
G1 X151.986 Y90.904 E34.01053
G1 X151.553 Y92.22 E34.1365
G1 X150.853 Y93.422 E34.26298
G1 X149.961 Y94.413 E34.38422
G1 X149.137 Y95.028 E34.47771
G1 X149.137 Y139.972 E38.56445
G1 X149.962 Y140.588 E38.65807
G1 X150.891 Y141.631 E38.78508
G1 X151.547 Y142.768 E38.90444
G1 X151.983 Y144.085 E39.03059
G1 X152.136 Y145.474 E39.15766
G1 X151.996 Y146.857 E39.28406
G1 X151.572 Y148.177 E39.41013
G1 X150.804 Y149.488 E39.54829
G1 X149.859 Y150.503 E39.67439
G1 X148.724 Y151.3 E39.8005
G1 X147.447 Y151.844 E39.92671
G1 X146.085 Y152.11 E40.0529
G1 X144.762 Y152.095 E40.17321
G1 X143.47 Y151.818 E40.29336
G1 X142.203 Y151.259 E40.41928
G1 X140.983 Y150.362 E40.55697
G1 X140.19 Y149.482 E40.66468
G1 X139.972 Y149.137 E40.70179
G1 X95.028 Y149.137 E44.78853
G1 X94.809 Y149.482 E44.82569
G1 X94.017 Y150.362 E44.93334
G1 X92.855 Y151.225 E45.06495
G1 X91.524 Y151.819 E45.19748
G1 X90.088 Y152.11 E45.33071
G1 X88.767 Y152.095 E45.45084
G1 X87.411 Y151.799 E45.57704
G1 X86.203 Y151.259 E45.69736
G1 X85.077 Y150.447 E45.82359
G1 X84.145 Y149.419 E45.94976
G1 X83.447 Y148.22 E46.07591
G1 X83.014 Y146.902 E46.20206
G1 X82.864 Y145.525 E46.32801
G1 X83.014 Y144.098 E46.45848
G1 X83.303 Y143.182 E46.54582
G1 X83.481 Y142.705 E46.59211
G1 X84.148 Y141.577 E46.71127
G1 X85.039 Y140.587 E46.83238
G1 X85.863 Y139.972 E46.92587
G1 X85.863 Y95.028 E51.01261
G1 X85.039 Y94.413 E51.1061
G1 X84.147 Y93.422 E51.22734
G1 X83.448 Y92.221 E51.3537
G1 X83.031 Y90.981 E51.47266
G1 X82.865 Y89.608 E51.59842
G1 X82.987 Y88.226 E51.72457
G1 X83.395 Y86.9 E51.85072
G1 X84.069 Y85.688 E51.97682
G1 X84.923 Y84.706 E52.09516
G1 X85.392 Y85.119 F30000
G1 F1800
G1 X86.434 Y84.33 E52.21401
G1 X87.636 Y83.785 E52.33402
G1 X88.867 Y83.523 E52.44846
G1 X90.133 Y83.523 E52.56358
G1 X91.364 Y83.785 E52.67802
G1 X92.566 Y84.33 E52.79803
G1 X93.573 Y85.079 E52.91215
G1 X94.323 Y85.912 E53.01407
G1 X94.672 Y86.488 E53.07531
G1 X140.328 Y86.488 E57.22679
G1 X140.677 Y85.912 E57.28803
G1 X141.426 Y85.08 E57.38982
G1 X142.49 Y84.297 E57.50994
G1 X143.71 Y83.762 E57.63107
G1 X144.878 Y83.521 E57.73951
G1 X146.135 Y83.523 E57.85381
G1 X147.425 Y83.806 E57.9739
G1 X148.566 Y84.33 E58.08807
G1 X149.574 Y85.081 E58.20237
G1 X150.367 Y85.972 E58.31083
G1 X150.994 Y87.062 E58.42517
G1 X151.381 Y88.258 E58.53947
G1 X151.511 Y89.507 E58.65365
G1 X151.381 Y90.743 E58.76666
G1 X150.994 Y91.938 E58.88088
G1 X150.366 Y93.029 E58.99535
G1 X149.518 Y93.97 E59.11053
G1 X148.512 Y94.71 E59.22409
G1 X148.512 Y140.29 E63.36866
G1 X149.518 Y141.029 E63.48216
G1 X150.403 Y142.022 E63.60311
G1 X150.988 Y143.048 E63.7105
G1 X151.378 Y144.246 E63.82506
G1 X151.511 Y145.505 E63.94018
G1 X151.378 Y146.757 E64.05466
G1 X150.988 Y147.951 E64.16887
G1 X150.321 Y149.09 E64.28889
G1 X149.47 Y150.013 E64.40305
G1 X148.445 Y150.74 E64.51732
G1 X147.291 Y151.238 E64.63161
G1 X146.059 Y151.485 E64.74586
G1 X144.802 Y151.47 E64.86017
G1 X143.636 Y151.215 E64.9687
G1 X142.489 Y150.702 E65.08295
G1 X141.426 Y149.92 E65.20295
G1 X140.677 Y149.088 E65.30474
G1 X140.328 Y148.512 E65.36598
G1 X94.672 Y148.512 E69.51746
G1 X94.323 Y149.088 E69.5787
G1 X93.573 Y149.921 E69.68062
G1 X92.566 Y150.67 E69.79474
G1 X91.362 Y151.215 E69.91491
G1 X90.058 Y151.485 E70.036
G1 X88.865 Y151.477 E70.14448
G1 X87.635 Y151.214 E70.25885
G1 X86.488 Y150.702 E70.37307
G1 X85.472 Y149.962 E70.48736
G1 X84.633 Y149.027 E70.60159
G1 X84.006 Y147.938 E70.71585
G1 X83.619 Y146.742 E70.83015
G1 X83.489 Y145.493 E70.94433
G1 X83.619 Y144.257 E71.05734
G1 X84.036 Y142.994 E71.17828
G1 X84.634 Y141.971 E71.28603
G1 X85.482 Y141.03 E71.40121
G1 X86.488 Y140.29 E71.51477
G1 X86.488 Y94.71 E75.65934
G1 X85.482 Y93.97 E75.7729
G1 X84.634 Y93.029 E75.88808
G1 X84.006 Y91.938 E76.00255
G1 X83.635 Y90.816 E76.11001
G1 X83.489 Y89.57 E76.22408
G1 X83.606 Y88.319 E76.33833
G1 X83.981 Y87.119 E76.45265
G1 X84.596 Y86.024 E76.56685
G1 X85.353 Y85.164 E76.67103
G1 E74.67103 F2400
G92 E0
G1 X147.335 Y141.257 F30000
G1 E2 F2400
;TYPE:External perimeter
;WIDTH:0.7
G1 F1800
G1 X147.824 Y141.475 E2.04868
G1 X148.61 Y142.046 E2.13702
G1 X149.26 Y142.768 E2.22536
G1 X149.746 Y143.609 E2.31368
G1 X150.046 Y144.534 E2.4021
G1 X150.148 Y145.5 E2.49043
G1 X150.046 Y146.466 E2.57876
G1 X149.746 Y147.391 E2.66718
G1 X149.26 Y148.232 E2.7555
G1 X148.61 Y148.954 E2.84384
G1 X147.824 Y149.525 E2.93218
G1 X146.936 Y149.921 E3.02059
G1 X145.986 Y150.123 E3.1089
G1 X145.014 Y150.123 E3.19728
G1 X144.064 Y149.921 E3.28559
G1 X143.176 Y149.525 E3.374
G1 X142.39 Y148.954 E3.46234
G1 X141.74 Y148.233 E3.55061
G1 X141.126 Y147.209 E3.65918
G1 X140.943 Y147.15 E3.67666
G1 X94.057 Y147.15 E7.93998
G1 X93.958 Y147.166 E7.9491
G1 X93.785 Y147.308 E7.96945
G1 X93.26 Y148.233 E8.06616
G1 X92.61 Y148.954 E8.15443
G1 X91.824 Y149.525 E8.24277
G1 X90.936 Y149.921 E8.33118
G1 X89.986 Y150.123 E8.41949
G1 X89.014 Y150.123 E8.50787
G1 X88.064 Y149.921 E8.59618
G1 X87.176 Y149.525 E8.68459
G1 X86.39 Y148.954 E8.77293
G1 X85.74 Y148.232 E8.86127
G1 X85.254 Y147.391 E8.94959
G1 X84.953 Y146.466 E9.03804
G1 X84.852 Y145.5 E9.12636
G1 X84.953 Y144.534 E9.21468
G1 X85.254 Y143.609 E9.30313
G1 X85.74 Y142.768 E9.39145
G1 X86.39 Y142.046 E9.47979
G1 X87.176 Y141.475 E9.56813
G1 X87.665 Y141.257 E9.61681
G1 X87.793 Y141.152 E9.63186
G1 X87.85 Y140.972 E9.64903
G1 X87.85 Y94.028 E13.91763
G1 X87.793 Y93.848 E13.9348
G1 X87.665 Y93.743 E13.94985
G1 X87.176 Y93.525 E13.99853
G1 X86.39 Y92.954 E14.08687
G1 X85.74 Y92.232 E14.17521
G1 X85.254 Y91.391 E14.26353
G1 X84.953 Y90.466 E14.35198
G1 X84.852 Y89.5 E14.4403
G1 X84.953 Y88.534 E14.52862
G1 X85.254 Y87.609 E14.61707
G1 X85.74 Y86.768 E14.70539
G1 X86.39 Y86.046 E14.79373
G1 X87.176 Y85.475 E14.88207
G1 X88.064 Y85.079 E14.97048
G1 X89.014 Y84.877 E15.05879
G1 X89.986 Y84.877 E15.14717
G1 X90.936 Y85.079 E15.23548
G1 X91.824 Y85.475 E15.32389
G1 X92.61 Y86.046 E15.41223
G1 X93.26 Y86.767 E15.5005
G1 X93.874 Y87.791 E15.60907
G1 X94.057 Y87.85 E15.62655
G1 X140.943 Y87.85 E19.88987
G1 X141.042 Y87.834 E19.89899
G1 X141.215 Y87.692 E19.91934
G1 X141.74 Y86.767 E20.01605
G1 X142.39 Y86.046 E20.10432
G1 X143.176 Y85.475 E20.19266
G1 X144.064 Y85.079 E20.28107
G1 X145.014 Y84.877 E20.36938
G1 X145.986 Y84.877 E20.45776
G1 X146.936 Y85.079 E20.54607
G1 X147.824 Y85.475 E20.63448
G1 X148.61 Y86.046 E20.72282
G1 X149.26 Y86.768 E20.81116
G1 X149.746 Y87.609 E20.89948
G1 X150.046 Y88.534 E20.9879
G1 X150.148 Y89.5 E21.07623
G1 X150.046 Y90.466 E21.16456
G1 X149.746 Y91.391 E21.25298
G1 X149.26 Y92.232 E21.3413
G1 X148.61 Y92.954 E21.42964
G1 X147.824 Y93.525 E21.51798
G1 X147.335 Y93.743 E21.56666
G1 X147.207 Y93.848 E21.58171
G1 X147.15 Y94.028 E21.59888
G1 X147.15 Y140.972 E25.86748
G1 X147.207 Y141.152 E25.88465
G1 X147.289 Y141.219 E25.89428
G1 E23.89428 F2400
G92 E0
G1 X92.223 Y92.262 F30000
G1 E2 F2400
G1 F1800
G1 X92.388 Y92.159 E2.01769
G1 X93.26 Y92.15 E2.09698
G1 X116.15 Y92.15 E4.17836
G1 X116.15 Y91.962 E4.19545
G1 X116.274 Y91.713 E4.22074
G1 X116.462 Y91.65 E4.23877
G1 X118.538 Y91.65 E4.42754
G1 X118.726 Y91.713 E4.44557
G1 X118.85 Y91.962 E4.47086
G1 X118.85 Y92.15 E4.48795
G1 X142.538 Y92.15 E6.64189
G1 X142.741 Y92.225 E6.66157
G1 X142.845 Y92.409 E6.68079
G1 X142.85 Y93.245 E6.75681
G1 X142.85 Y116.15 E8.83955
G1 X143.038 Y116.15 E8.85664
G1 X143.287 Y116.274 E8.88193
G1 X143.35 Y116.462 E8.89996
G1 X143.35 Y118.538 E9.08873
G1 X143.287 Y118.726 E9.10676
G1 X143.038 Y118.85 E9.13205
G1 X142.85 Y118.85 E9.14914
G1 X142.85 Y142.538 E11.30308
G1 X142.777 Y142.738 E11.32244
G1 X142.612 Y142.841 E11.34013
G1 X141.74 Y142.85 E11.41942
G1 X118.85 Y142.85 E13.5008
G1 X118.85 Y143.038 E13.51789
G1 X118.726 Y143.287 E13.54318
G1 X118.538 Y143.35 E13.56121
G1 X116.462 Y143.35 E13.74998
G1 X116.274 Y143.287 E13.76801
G1 X116.15 Y143.038 E13.7933
G1 X116.15 Y142.85 E13.81039
G1 X92.462 Y142.85 E15.96433
G1 X92.259 Y142.775 E15.98401
G1 X92.223 Y142.738 E15.9887
G1 X92.15 Y142.538 E16.00806
G1 X92.15 Y114.85 E18.52572
G1 X91.962 Y114.85 E18.54281
G1 X91.713 Y114.726 E18.5681
G1 X91.65 Y114.538 E18.58613
G1 X91.65 Y112.462 E18.7749
G1 X91.713 Y112.274 E18.79293
G1 X91.962 Y112.15 E18.81822
G1 X92.15 Y112.15 E18.83531
G1 X92.15 Y92.462 E20.62553
G1 X92.202 Y92.318 E20.63945
G1 E18.63945 F2400
G92 E0
G1 X143.919 Y85.349 F30000
G1 E2 F2400
;TYPE:Solid infill
;WIDTH:0.705526
G1 F1800
G1 X145.95 Y85.349 E2.18631
G1 X146.791 Y85.528 E2.26519
G1 X147.588 Y85.883 E2.34523
G1 X147.721 Y85.979 E2.36028
G1 X143.279 Y85.979 E2.76776
G1 X142.705 Y86.396 E2.83284
G1 X142.513 Y86.61 E2.85921
G1 X148.487 Y86.61 E3.40723
G1 X148.879 Y87.045 E3.46095
G1 X148.992 Y87.24 E3.48162
G1 X141.683 Y87.24 E4.1521
G1 E2.1521 F2400
G92 E0
G1 X91.081 Y85.349 F30000
G1 E2 F2400
G1 F1800
G1 X89.05 Y85.349 E2.18631
G1 X88.209 Y85.528 E2.26519
G1 X87.412 Y85.883 E2.34523
G1 X87.279 Y85.979 E2.36028
G1 X91.721 Y85.979 E2.76776
G1 X92.295 Y86.396 E2.83284
G1 X92.487 Y86.61 E2.85921
G1 X86.513 Y86.61 E3.40723
G1 X86.121 Y87.045 E3.46095
G1 X86.008 Y87.24 E3.48162
G1 X93.317 Y87.24 E4.1521
G1 E2.1521 F2400
G92 E0
G1 X85.366 Y87.871 F30000
G1 E2 F2400
G1 F1800
G1 X93.358 Y87.871 E2.73314
G1 X93.457 Y88.04 E2.75111
G1 X93.6 Y88.173 E2.76902
G1 X93.81 Y88.281 E2.79068
G1 X94.044 Y88.319 E2.81243
G1 X140.956 Y88.319 E7.11584
G1 X141.19 Y88.281 E7.13759
G1 X141.4 Y88.173 E7.15925
G1 X141.543 Y88.04 E7.17716
G1 X141.642 Y87.871 E7.19513
G1 X149.338 Y87.871 E7.90111
G1 X149.543 Y88.501 E7.96188
G1 X85.457 Y88.501 E13.84072
G1 X85.414 Y88.632 E13.85337
G1 X85.362 Y89.131 E13.89939
G1 X149.638 Y89.131 E19.79566
G1 X149.677 Y89.5 E19.8297
G1 X149.649 Y89.762 E19.85387
G1 X85.351 Y89.762 E25.75216
G1 X85.422 Y90.392 E25.81032
G1 X149.578 Y90.392 E31.69558
G1 X149.373 Y91.023 E31.75644
G1 X85.627 Y91.023 E37.60409
G1 X85.684 Y91.199 E37.62106
G1 X85.946 Y91.653 E37.66914
G1 X115.817 Y91.653 E40.40932
G1 X115.967 Y91.35 E40.44033
G1 X116.207 Y91.222 E40.46528
G1 X116.449 Y91.181 E40.4878
G1 X118.551 Y91.181 E40.68062
G1 X118.793 Y91.222 E40.70314
G1 X119.033 Y91.35 E40.72809
G1 X119.183 Y91.653 E40.7591
G1 X149.054 Y91.653 E43.49928
G1 X148.879 Y91.955 E43.5313
G1 X148.583 Y92.283 E43.57183
G1 X143.294 Y92.283 E44.05701
G1 X143.319 Y92.456 E44.07304
G1 X143.319 Y92.914 E44.11505
G1 X147.868 Y92.914 E44.53235
G1 X147.588 Y93.117 E44.56408
G1 X147.073 Y93.35 E44.61593
G1 X146.913 Y93.472 E44.63439
G1 X146.852 Y93.544 E44.64305
G1 X143.319 Y93.544 E44.96714
G1 X143.319 Y94.175 E45.02502
G1 X146.681 Y94.175 E45.33343
G1 X146.681 Y94.805 E45.39122
G1 X143.319 Y94.805 E45.69963
G1 X143.319 Y95.436 E45.75751
G1 X146.681 Y95.436 E46.06592
G1 X146.681 Y96.066 E46.12371
G1 X143.319 Y96.066 E46.43212
G1 X143.319 Y96.696 E46.48991
G1 X146.681 Y96.696 E46.79832
G1 X146.681 Y97.327 E46.8562
G1 X143.319 Y97.327 E47.16461
G1 X143.319 Y97.957 E47.2224
