; generated by PrusaSlicer 2.6.1+linux-x64-GTK3 on 2023-09-13 at 01:13:52 UTC

; 

; external perimeters extrusion width = 0.45mm
; perimeters extrusion width = 0.45mm
; infill extrusion width = 0.45mm
; solid infill extrusion width = 0.45mm
; top infill extrusion width = 0.40mm
; first layer extrusion width = 0.42mm

M190 S60 ; set bed temperature and wait for it to be reached
M104 S215 ; set temperature
;TYPE:Custom
G28 ; home all axes
G1 Z5 F5000 ; lift nozzle
M109 S215 ; set temperature and wait for it to be reached
G21 ; set units to millimeters
G90 ; use absolute coordinates
M82 ; use absolute distances for extrusion
G92 E0
; Filament gcode
M107
;LAYER_CHANGE
;Z:0.2
;HEIGHT:0.2
G1 Z.2 F30000
G1 E-2 F2400
G92 E0
G1 X58.424 Y59.428 F30000
G1 E2 F2400
;TYPE:Skirt/Brim
;WIDTH:0.42
G1 F1800
G1 X60.471 Y57.416 E2.08999
G1 X62.596 Y55.695 E2.17573
G1 X63.872 Y54.767 E2.2252
G1 X66.627 Y53.012 E2.32762
G1 X69.064 Y51.77 E2.41338
G1 X70.505 Y51.128 E2.46284
G1 X73.565 Y49.984 E2.56527
G1 X76.207 Y49.276 E2.65103
G1 X77.749 Y48.948 E2.70046
G1 X80.451 Y48.52 E2.78624
G1 X83.711 Y48.321 E2.88865
G1 X141.289 Y48.321 E4.69397
G1 X144.02 Y48.464 E4.77972
G1 X147.25 Y48.948 E4.88213
G1 X148.793 Y49.276 E4.93159
G1 X151.435 Y49.984 E5.01735
G1 X154.495 Y51.128 E5.11978
G1 X155.936 Y51.77 E5.16924
G1 X158.833 Y53.277 E5.27163
G1 X161.127 Y54.767 E5.3574
G1 X162.403 Y55.694 E5.40685
G1 X164.529 Y57.415 E5.49261
G1 X166.859 Y59.706 E5.59507
G1 X167.914 Y60.878 E5.64451
G1 X169.636 Y63.004 E5.73029
G1 X171.438 Y65.729 E5.83272
G1 X172.227 Y67.094 E5.88215
G1 X173.684 Y70.017 E5.98455
G1 X174.665 Y72.57 E6.0703
G1 X175.152 Y74.07 E6.11975
G1 X175.86 Y76.712 E6.20551
G1 X176.398 Y79.933 E6.3079
G1 X176.563 Y81.501 E6.35733
G1 X176.706 Y84.234 E6.44314
G1 X176.706 Y140.766 E8.21566
G1 X176.563 Y143.498 E8.30144
G1 X176.398 Y145.067 E8.35091
G1 X175.97 Y147.768 E8.43665
G1 X175.152 Y150.93 E8.53906
G1 X174.664 Y152.43 E8.58852
G1 X173.468 Y155.469 E8.69092
G1 X172.226 Y157.906 E8.77668
G1 X171.438 Y159.272 E8.82613
G1 X169.636 Y161.996 E8.92854
G1 X167.914 Y164.122 E9.01432
G1 X166.859 Y165.294 E9.06376
G1 X164.924 Y167.228 E9.14954
G1 X162.403 Y169.306 E9.25198
G1 X161.127 Y170.233 E9.30143
G1 X158.833 Y171.722 E9.38718
G1 X155.937 Y173.23 E9.48955
G1 X154.496 Y173.871 E9.539
G1 X151.941 Y174.852 E9.62481
G1 X148.792 Y175.725 E9.72727
G1 X147.249 Y176.052 E9.77672
G1 X144.548 Y176.48 E9.86246
G1 X141.289 Y176.679 E9.96483
G1 X83.711 Y176.679 E11.77015
G1 X80.98 Y176.536 E11.8559
G1 X77.75 Y176.052 E11.95831
G1 X76.207 Y175.724 E12.00777
G1 X73.564 Y175.016 E12.09356
G1 X70.504 Y173.871 E12.196
G1 X69.063 Y173.23 E12.24545
G1 X66.166 Y171.722 E12.34785
G1 X63.873 Y170.233 E12.43357
G1 X62.597 Y169.306 E12.48302
G1 X60.076 Y167.228 E12.58546
G1 X58.142 Y165.294 E12.67122
G1 X57.086 Y164.122 E12.72068
G1 X55.053 Y161.567 E12.82306
G1 X53.563 Y159.273 E12.90883
G1 X52.774 Y157.907 E12.95829
G1 X51.316 Y154.984 E13.06071
G1 X50.336 Y152.43 E13.14648
G1 X49.848 Y150.93 E13.19594
G1 X49.14 Y148.288 E13.2817
G1 X48.602 Y145.066 E13.38412
G1 X48.437 Y143.497 E13.43359
G1 X48.294 Y140.766 E13.51934
G1 X48.294 Y84.234 E15.29186
G1 X48.437 Y81.503 E15.37761
G1 X48.602 Y79.934 E15.42708
G1 X49.03 Y77.232 E15.51286
G1 X49.848 Y74.07 E15.61527
G1 X50.213 Y72.947 E15.65229
G1 X51.532 Y69.53 E15.76713
G1 X52.774 Y67.093 E15.85289
G1 X53.563 Y65.727 E15.90235
G1 X55.365 Y63.003 E16.00476
G1 X57.086 Y60.878 E16.0905
G1 X58.142 Y59.705 E16.13999
G1 X58.381 Y59.47 E16.1505
G1 X58.645 Y59.739 F30000
G1 F1800
G1 X60.723 Y57.696 E16.24187
G1 X62.818 Y56 E16.32638
G1 X64.094 Y55.072 E16.37585
G1 X66.816 Y53.338 E16.47704
G1 X69.217 Y52.114 E16.56154
G1 X70.659 Y51.473 E16.61102
G1 X73.681 Y50.342 E16.71219
G1 X76.285 Y49.645 E16.79671
G1 X77.828 Y49.317 E16.84617
G1 X81.019 Y48.839 E16.94734
G1 X83.711 Y48.698 E17.03186
G1 X141.289 Y48.698 E18.83718
G1 X143.98 Y48.839 E18.92167
G1 X147.172 Y49.317 E19.02287
G1 X148.715 Y49.644 E19.07232
G1 X151.319 Y50.342 E19.15685
G1 X154.342 Y51.473 E19.25805
G1 X155.782 Y52.114 E19.30747
G1 X158.645 Y53.604 E19.40867
G1 X160.905 Y55.072 E19.49317
G1 X162.181 Y55.999 E19.54262
G1 X164.277 Y57.696 E19.62718
G1 X166.579 Y59.958 E19.72837
G1 X167.634 Y61.131 E19.77784
G1 X169.331 Y63.226 E19.86237
G1 X171.112 Y65.917 E19.96355
G1 X171.9 Y67.283 E20.013
G1 X173.34 Y70.171 E20.11418
G1 X174.306 Y72.687 E20.19868
G1 X174.793 Y74.187 E20.24813
G1 X175.491 Y76.79 E20.33263
G1 X176.023 Y79.972 E20.43378
G1 X176.188 Y81.541 E20.48325
G1 X176.329 Y84.234 E20.5678
G1 X176.329 Y140.766 E22.34032
G1 X176.188 Y143.459 E22.42487
G1 X176.023 Y145.027 E22.4743
G1 X175.601 Y147.69 E22.55884
G1 X174.793 Y150.813 E22.65998
G1 X174.306 Y152.313 E22.70943
G1 X173.123 Y155.316 E22.81063
G1 X171.9 Y157.717 E22.89512
G1 X171.111 Y159.083 E22.94458
G1 X169.33 Y161.774 E23.04576
G1 X167.634 Y163.869 E23.13027
G1 X166.579 Y165.042 E23.17974
G1 X164.672 Y166.948 E23.26428
G1 X162.181 Y169.001 E23.36549
G1 X160.905 Y169.928 E23.41494
G1 X158.645 Y171.396 E23.49944
G1 X155.783 Y172.885 E23.60059
G1 X154.343 Y173.527 E23.65002
G1 X151.825 Y174.493 E23.73458
G1 X148.714 Y175.356 E23.83581
G1 X147.171 Y175.684 E23.88527
G1 X144.509 Y176.105 E23.96977
G1 X141.289 Y176.302 E24.07092
G1 X83.711 Y176.302 E25.87624
G1 X81.02 Y176.161 E25.96073
G1 X77.829 Y175.684 E26.06189
G1 X76.286 Y175.356 E26.11135
G1 X73.681 Y174.658 E26.19591
G1 X70.658 Y173.527 E26.29711
G1 X69.217 Y172.885 E26.34657
G1 X66.355 Y171.396 E26.44772
G1 X64.094 Y169.928 E26.53224
G1 X62.818 Y169.001 E26.58169
G1 X60.328 Y166.948 E26.68288
G1 X58.422 Y165.042 E26.7674
G1 X57.366 Y163.87 E26.81686
G1 X55.358 Y161.345 E26.91801
G1 X53.89 Y159.085 E27.00251
G1 X53.101 Y157.719 E27.05197
G1 X51.66 Y154.83 E27.1532
G1 X50.694 Y152.314 E27.2377
G1 X50.207 Y150.813 E27.28718
G1 X49.509 Y148.209 E27.37171
G1 X48.977 Y145.027 E27.47286
G1 X48.812 Y143.458 E27.52233
G1 X48.671 Y140.766 E27.60685
G1 X48.671 Y84.234 E29.37937
G1 X48.812 Y81.542 E29.46389
G1 X48.977 Y79.973 E29.51336
G1 X49.399 Y77.311 E29.59787
G1 X50.207 Y74.187 E29.69904
G1 X50.572 Y73.064 E29.73606
G1 X51.877 Y69.684 E29.84966
G1 X53.101 Y67.282 E29.93419
G1 X53.889 Y65.916 E29.98364
G1 X55.67 Y63.225 E30.08482
G1 X57.366 Y61.13 E30.16933
G1 X58.422 Y59.958 E30.21879
G1 X58.602 Y59.781 E30.22671
G1 X58.866 Y60.049 F30000
G1 F1800
G1 X60.975 Y57.976 E30.31943
G1 X63.04 Y56.305 E30.40272
G1 X64.316 Y55.377 E30.45219
G1 X67.004 Y53.665 E30.55211
G1 X69.371 Y52.459 E30.6354
G1 X70.812 Y51.817 E30.68486
G1 X73.798 Y50.701 E30.78481
G1 X76.363 Y50.013 E30.86808
G1 X77.906 Y49.685 E30.91754
G1 X81.059 Y49.214 E31.0175
G1 X83.711 Y49.075 E31.10077
G1 X141.289 Y49.075 E32.90609
G1 X143.941 Y49.214 E32.98936
G1 X147.093 Y49.685 E33.08929
G1 X148.636 Y50.013 E33.13875
G1 X151.202 Y50.701 E33.22205
G1 X154.188 Y51.817 E33.322
G1 X155.629 Y52.459 E33.37146
G1 X158.456 Y53.93 E33.47138
G1 X160.684 Y55.377 E33.55468
G1 X161.96 Y56.304 E33.60413
G1 X164.024 Y57.976 E33.68741
G1 X166.298 Y60.211 E33.78738
G1 X167.354 Y61.383 E33.83684
G1 X169.026 Y63.447 E33.92012
G1 X170.785 Y66.106 E34.02008
G1 X171.573 Y67.472 E34.06953
G1 X172.995 Y70.324 E34.16945
G1 X173.947 Y72.803 E34.25271
G1 X174.435 Y74.303 E34.30217
G1 X175.122 Y76.869 E34.38546
G1 X175.648 Y80.012 E34.48538
G1 X175.813 Y81.58 E34.53481
G1 X175.952 Y84.234 E34.61814
G1 X175.952 Y140.766 E36.39066
G1 X175.813 Y143.419 E36.47396
G1 X175.648 Y144.988 E36.52343
G1 X175.233 Y147.611 E36.6067
G1 X174.435 Y150.697 E36.70664
G1 X173.947 Y152.197 E36.7561
G1 X172.779 Y155.162 E36.85602
G1 X171.573 Y157.529 E36.93931
G1 X170.785 Y158.895 E36.98876
G1 X169.025 Y161.553 E37.08871
G1 X167.354 Y163.617 E37.17198
G1 X166.298 Y164.789 E37.22144
G1 X164.42 Y166.668 E37.30474
G1 X161.96 Y168.696 E37.4047
G1 X160.684 Y169.623 E37.45415
G1 X158.456 Y171.069 E37.53743
G1 X155.63 Y172.541 E37.63734
G1 X154.189 Y173.182 E37.68679
G1 X151.708 Y174.135 E37.77012
G1 X148.635 Y174.987 E37.87011
G1 X147.093 Y175.315 E37.91954
G1 X144.47 Y175.73 E38.00281
G1 X141.289 Y175.925 E38.10274
G1 X83.711 Y175.925 E39.90806
G1 X81.059 Y175.786 E39.99133
G1 X77.907 Y175.315 E40.09126
G1 X76.364 Y174.987 E40.14072
G1 X73.798 Y174.299 E40.22402
G1 X70.811 Y173.182 E40.32401
G1 X69.37 Y172.541 E40.37346
G1 X66.543 Y171.069 E40.47339
G1 X64.316 Y169.623 E40.55664
G1 X63.04 Y168.696 E40.60609
G1 X60.58 Y166.668 E40.70605
G1 X58.702 Y164.79 E40.78932
G1 X57.647 Y163.618 E40.83876
G1 X55.663 Y161.123 E40.93871
G1 X54.216 Y158.896 E41.02198
G1 X53.427 Y157.53 E41.07144
G1 X52.005 Y154.677 E41.17139
G1 X51.053 Y152.197 E41.25468
G1 X50.565 Y150.697 E41.30414
G1 X49.878 Y148.131 E41.38743
G1 X49.352 Y144.987 E41.48738
G1 X49.187 Y143.419 E41.53681
G1 X49.048 Y140.766 E41.62011
G1 X49.048 Y84.234 E43.39263
G1 X49.187 Y81.581 E43.47593
G1 X49.352 Y80.012 E43.5254
G1 X49.767 Y77.389 E43.60867
G1 X50.565 Y74.303 E43.70861
G1 X50.93 Y73.18 E43.74563
G1 X52.221 Y69.837 E43.85799
G1 X53.427 Y67.47 E43.94128
G1 X54.216 Y66.104 E43.99074
G1 X55.975 Y63.446 E44.09068
G1 X57.647 Y61.382 E44.17396
G1 X58.823 Y60.091 E44.22871
G1 E42.22871 F2400
G92 E0
G1 X77.93 Y77.245 F30000
G1 E2 F2400
G1 F1800
G1 X79.585 Y76.036 E2.06426
G1 X81.494 Y75.185 E2.12979
G1 X83.535 Y74.76 E2.19516
G1 X85.545 Y74.768 E2.25818
G1 X87.56 Y75.203 E2.32281
G1 X89.44 Y76.05 E2.38746
G1 X91.018 Y77.199 E2.44866
G1 X91.507 Y77.712 E2.47088
G1 X133.493 Y77.712 E3.78732
G1 X133.979 Y77.201 E3.80943
G1 X135.422 Y76.132 E3.86574
G1 X137.317 Y75.245 E3.93134
G1 X139.365 Y74.778 E3.9972
G1 X141.502 Y74.764 E4.06421
G1 X143.477 Y75.176 E4.12747
G1 X145.323 Y75.983 E4.19064
G1 X147.123 Y77.293 E4.26044
G1 X148.459 Y78.803 E4.32366
G1 X149.513 Y80.682 E4.39121
G1 X150.114 Y82.665 E4.45618
G1 X150.286 Y84.662 E4.51903
G1 X150.035 Y86.71 E4.58372
G1 X149.372 Y88.634 E4.64753
G1 X148.377 Y90.309 E4.70862
G1 X147.288 Y91.521 E4.75971
G1 X147.288 Y133.479 E6.07527
G1 X148.377 Y134.691 E6.12636
G1 X149.404 Y136.436 E6.18985
G1 X150.074 Y138.468 E6.25694
G1 X150.288 Y140.569 E6.32316
G1 X150.029 Y142.736 E6.39159
G1 X149.355 Y144.671 E6.45584
G1 X148.292 Y146.423 E6.52009
G1 X146.923 Y147.886 E6.58291
G1 X145.329 Y149.014 E6.64414
G1 X143.51 Y149.814 E6.70645
G1 X141.568 Y150.229 E6.76871
G1 X139.602 Y150.247 E6.83036
G1 X137.54 Y149.829 E6.89633
G1 X135.568 Y148.954 E6.96397
G1 X133.983 Y147.802 E7.02541
G1 X133.493 Y147.288 E7.04768
G1 X91.506 Y147.288 E8.36415
G1 X91.011 Y147.807 E8.38664
G1 X89.496 Y148.917 E8.44553
G1 X87.684 Y149.755 E8.50813
G1 X85.748 Y150.208 E8.57047
G1 X83.698 Y150.255 E8.63476
G1 X81.503 Y149.817 E8.70494
G1 X79.647 Y149 E8.76852
G1 X78.006 Y147.823 E8.83184
G1 X76.571 Y146.239 E8.89886
G1 X75.479 Y144.297 E8.96872
G1 X74.884 Y142.326 E9.03327
G1 X74.715 Y140.263 E9.09817
G1 X74.959 Y138.311 E9.15985
G1 X75.346 Y137.083 E9.20022
G1 X75.643 Y136.336 E9.22542
G1 X76.627 Y134.685 E9.28568
G1 X77.712 Y133.479 E9.33654
G1 X77.712 Y91.521 E10.6521
G1 X76.623 Y90.31 E10.70316
G1 X75.61 Y88.596 E10.76559
G1 X74.944 Y86.618 E10.83103
G1 X74.713 Y84.558 E10.89602
G1 X74.932 Y82.437 E10.96288
G1 X75.568 Y80.497 E11.02689
G1 X76.568 Y78.766 E11.08957
G1 X77.89 Y77.289 E11.15172
G1 X78.169 Y77.538 F30000
G1 F1800
G1 X79.757 Y76.372 E11.21349
G1 X81.629 Y75.538 E11.27775
G1 X83.554 Y75.137 E11.3394
G1 X85.485 Y75.141 E11.39995
G1 X87.424 Y75.555 E11.46212
G1 X89.234 Y76.367 E11.52432
G1 X90.782 Y77.494 E11.58436
G1 X91.344 Y78.089 E11.61002
G1 X133.657 Y78.089 E12.93671
G1 X134.218 Y77.494 E12.96235
G1 X135.631 Y76.446 E13.01751
G1 X137.457 Y75.595 E13.08068
G1 X139.428 Y75.151 E13.14403
G1 X141.446 Y75.137 E13.2073
G1 X143.344 Y75.529 E13.26807
G1 X145.153 Y76.32 E13.32998
G1 X146.854 Y77.559 E13.39596
G1 X148.14 Y79.005 E13.45663
G1 X149.174 Y80.849 E13.52292
G1 X149.74 Y82.718 E13.58415
G1 X149.909 Y84.636 E13.64452
G1 X149.672 Y86.607 E13.70676
G1 X149.038 Y88.458 E13.76811
G1 X148.063 Y90.1 E13.82799
G1 X146.911 Y91.376 E13.88189
G1 X146.911 Y133.624 E15.20655
G1 X148.063 Y134.9 E15.26045
G1 X149.053 Y136.575 E15.32146
G1 X149.701 Y138.526 E15.38592
G1 X149.91 Y140.587 E15.45087
G1 X149.666 Y142.632 E15.51544
G1 X149.021 Y144.493 E15.5772
G1 X148.003 Y146.18 E15.63898
G1 X146.661 Y147.614 E15.70056
G1 X145.127 Y148.695 E15.7594
G1 X143.411 Y149.449 E15.81817
G1 X141.544 Y149.853 E15.87806
G1 X139.657 Y149.873 E15.93723
G1 X137.673 Y149.476 E16.00067
G1 X135.773 Y148.637 E16.06579
G1 X134.219 Y147.507 E16.12603
G1 X133.656 Y146.911 E16.15174
G1 X91.343 Y146.911 E17.47843
G1 X90.774 Y147.513 E17.5044
G1 X89.288 Y148.601 E17.56215
G1 X87.544 Y149.405 E17.62236
G1 X85.682 Y149.836 E17.68229
G1 X83.711 Y149.878 E17.7441
G1 X81.636 Y149.464 E17.81044
G1 X79.851 Y148.682 E17.87154
G1 X78.242 Y147.528 E17.93362
G1 X76.889 Y146.035 E17.99679
G1 X75.818 Y144.131 E18.06529
G1 X75.251 Y142.237 E18.12728
G1 X75.092 Y140.252 E18.18972
G1 X75.324 Y138.408 E18.24799
G1 X75.704 Y137.203 E18.28761
G1 X75.987 Y136.489 E18.31169
G1 X76.941 Y134.895 E18.36994
G1 X78.089 Y133.624 E18.42364
G1 X78.089 Y91.376 E19.7483
G1 X76.937 Y90.101 E19.80218
G1 X75.961 Y88.456 E19.86215
G1 X75.317 Y86.556 E19.92505
G1 X75.09 Y84.536 E19.98878
G1 X75.297 Y82.535 E20.05185
G1 X75.905 Y80.668 E20.11341
G1 X76.862 Y79.002 E20.17365
G1 X78.129 Y77.583 E20.2333
G1 X78.408 Y77.83 F30000
G1 F1800
G1 X79.929 Y76.708 E20.29256
G1 X81.764 Y75.891 E20.35554
G1 X83.574 Y75.514 E20.41351
G1 X85.427 Y75.514 E20.47161
G1 X87.289 Y75.908 E20.53128
G1 X89.028 Y76.683 E20.59097
G1 X90.545 Y77.788 E20.64982
G1 X91.18 Y78.466 E20.67895
G1 X133.821 Y78.466 E22.01593
G1 X134.456 Y77.786 E22.0451
G1 X135.84 Y76.761 E22.0991
G1 X137.598 Y75.946 E22.15986
G1 X139.451 Y75.527 E22.21943
G1 X141.389 Y75.51 E22.2802
G1 X143.248 Y75.895 E22.33972
G1 X144.983 Y76.657 E22.39914
G1 X146.587 Y77.825 E22.46135
G1 X147.821 Y79.208 E22.51947
G1 X148.835 Y81.015 E22.58444
G1 X149.366 Y82.771 E22.64196
G1 X149.533 Y84.612 E22.69992
G1 X149.308 Y86.504 E22.75966
G1 X148.704 Y88.282 E22.81854
G1 X147.748 Y89.891 E22.87722
G1 X146.534 Y91.23 E22.93389
G1 X146.534 Y133.77 E24.2677
G1 X147.748 Y135.109 E24.32437
G1 X148.702 Y136.713 E24.38289
G1 X149.337 Y138.625 E24.44606
G1 X149.533 Y140.603 E24.50838
G1 X149.303 Y142.528 E24.56917
G1 X148.688 Y144.317 E24.62848
G1 X147.714 Y145.937 E24.68775
G1 X146.399 Y147.342 E24.74809
G1 X144.926 Y148.375 E24.8045
G1 X143.278 Y149.096 E24.8609
G1 X141.52 Y149.476 E24.91729
G1 X139.71 Y149.499 E24.97405
G1 X137.806 Y149.122 E25.03491
G1 X135.978 Y148.32 E25.0975
G1 X134.456 Y147.213 E25.15651
G1 X133.821 Y146.534 E25.18566
G1 X91.179 Y146.534 E26.52267
G1 X90.537 Y147.22 E26.55213
G1 X89.081 Y148.286 E26.60871
G1 X87.405 Y149.054 E26.66651
G1 X85.617 Y149.464 E26.72403
G1 X83.724 Y149.5 E26.78339
G1 X81.768 Y149.11 E26.84593
G1 X80.021 Y148.345 E26.90573
G1 X78.479 Y147.234 E26.96532
G1 X77.208 Y145.832 E27.02465
G1 X76.157 Y143.964 E27.09185
G1 X75.618 Y142.149 E27.15121
G1 X75.469 Y140.242 E27.21118
G1 X75.689 Y138.505 E27.26608
G1 X76.061 Y137.323 E27.30493
G1 X76.332 Y136.643 E27.32788
G1 X77.254 Y135.105 E27.3841
G1 X78.466 Y133.77 E27.44063
G1 X78.466 Y91.23 E28.77444
G1 X77.251 Y89.891 E28.83113
G1 X76.312 Y88.316 E28.88862
G1 X75.681 Y86.454 E28.95026
G1 X75.467 Y84.515 E29.01143
G1 X75.662 Y82.632 E29.07079
G1 X76.242 Y80.838 E29.12991
G1 X77.157 Y79.238 E29.1877
G1 X78.368 Y77.875 E29.24487
G1 X78.649 Y78.126 F30000
G1 F1800
G1 X80.136 Y77.024 E29.3029
G1 X81.862 Y76.255 E29.36215
G1 X83.594 Y75.891 E29.41764
G1 X85.369 Y75.887 E29.47329
G1 X87.192 Y76.273 E29.53172
G1 X88.856 Y77.019 E29.5889
G1 X90.307 Y78.081 E29.64528
G1 X91.015 Y78.843 E29.67789
G1 X133.986 Y78.843 E31.02522
G1 X134.695 Y78.078 E31.05792
G1 X136.049 Y77.075 E31.11075
G1 X137.737 Y76.297 E31.16903
G1 X139.514 Y75.9 E31.22612
G1 X141.371 Y75.888 E31.28435
G1 X143.151 Y76.259 E31.34136
G1 X144.811 Y76.993 E31.39827
G1 X146.348 Y78.117 E31.45797
G1 X147.526 Y79.443 E31.51358
G1 X148.48 Y81.145 E31.57476
G1 X148.993 Y82.825 E31.62984
G1 X149.156 Y84.588 E31.68535
G1 X148.945 Y86.402 E31.74261
