; generated by PrusaSlicer 2.6.1+linux-x64-GTK3 on 2023-09-12 at 13:52:36 UTC

; 

; external perimeters extrusion width = 0.45mm
; perimeters extrusion width = 0.45mm
; infill extrusion width = 0.45mm
; solid infill extrusion width = 0.45mm
; top infill extrusion width = 0.40mm
; first layer extrusion width = 0.42mm

M190 S60 ; set bed temperature and wait for it to be reached
M104 S210 ; set temperature
;TYPE:Custom
G28 ; home all axes
G1 Z5 F5000 ; lift nozzle
M109 S210 ; set temperature and wait for it to be reached
G21 ; set units to millimeters
G90 ; use absolute coordinates
M82 ; use absolute distances for extrusion
G92 E0
; Filament gcode
M107
;LAYER_CHANGE
;Z:0.35
;HEIGHT:0.35
G1 Z.35 F30000
G1 E-2 F2400
G92 E0
G1 X81.296 Y80.941 F30000
G1 E2 F2400
;TYPE:External perimeter
;WIDTH:0.42
G1 F1800
G1 X82.106 Y80.353 E2.05023
G1 X83.02 Y79.946 E2.10044
G1 X83.999 Y79.737 E2.15068
G1 X85.001 Y79.737 E2.20097
G1 X85.98 Y79.946 E2.25121
G1 X86.894 Y80.353 E2.30142
G1 X87.704 Y80.941 E2.35165
G1 X88.374 Y81.685 E2.4019
G1 X88.925 Y82.649 E2.45762
G1 X89.057 Y82.71 E2.46492
G1 X135.943 Y82.71 E4.81793
G1 X135.973 Y82.707 E4.81944
G1 X136.093 Y82.623 E4.82679
G1 X136.626 Y81.685 E4.88093
G1 X137.296 Y80.941 E4.93118
G1 X138.106 Y80.353 E4.98141
G1 X139.02 Y79.946 E5.03162
G1 X139.999 Y79.737 E5.08186
G1 X141.001 Y79.737 E5.13215
G1 X141.98 Y79.946 E5.18239
G1 X142.894 Y80.353 E5.2326
G1 X143.704 Y80.941 E5.28283
G1 X144.374 Y81.685 E5.33308
G1 X144.875 Y82.552 E5.38333
G1 X145.184 Y83.504 E5.43356
G1 X145.289 Y84.5 E5.48382
G1 X145.184 Y85.496 E5.53408
G1 X144.875 Y86.448 E5.58431
G1 X144.374 Y87.315 E5.63456
G1 X143.704 Y88.059 E5.68481
G1 X142.894 Y88.647 E5.73504
G1 X142.36 Y88.89 E5.76448
G1 X142.29 Y89.028 E5.77225
G1 X142.29 Y135.972 E8.12818
G1 X142.299 Y136.025 E8.13088
G1 X142.392 Y136.129 E8.13788
G1 X142.894 Y136.353 E8.16547
G1 X143.704 Y136.941 E8.2157
G1 X144.374 Y137.685 E8.26595
G1 X144.875 Y138.552 E8.3162
G1 X145.184 Y139.504 E8.36643
G1 X145.289 Y140.5 E8.41669
G1 X145.184 Y141.496 E8.46695
G1 X144.875 Y142.448 E8.51718
G1 X144.374 Y143.315 E8.56743
G1 X143.704 Y144.059 E8.61768
G1 X142.894 Y144.647 E8.66791
G1 X141.98 Y145.054 E8.71812
G1 X141.001 Y145.263 E8.76836
G1 X139.999 Y145.263 E8.81865
G1 X139.02 Y145.054 E8.86889
G1 X138.106 Y144.647 E8.9191
G1 X137.296 Y144.059 E8.96933
G1 X136.626 Y143.315 E9.01958
G1 X136.075 Y142.351 E9.0753
G1 X135.943 Y142.29 E9.0826
G1 X89.057 Y142.29 E11.43561
G1 X89.002 Y142.299 E11.43841
G1 X88.907 Y142.377 E11.44458
G1 X88.374 Y143.315 E11.49872
G1 X87.704 Y144.059 E11.54897
G1 X86.894 Y144.647 E11.5992
G1 X85.98 Y145.054 E11.64941
G1 X85.001 Y145.263 E11.69965
G1 X83.999 Y145.263 E11.74994
G1 X83.02 Y145.054 E11.80018
G1 X82.106 Y144.647 E11.85039
G1 X81.296 Y144.059 E11.90062
G1 X80.626 Y143.315 E11.95087
G1 X80.125 Y142.448 E12.00112
G1 X79.816 Y141.496 E12.05135
G1 X79.711 Y140.5 E12.10161
G1 X79.816 Y139.504 E12.15187
G1 X80.125 Y138.552 E12.2021
G1 X80.626 Y137.685 E12.25235
G1 X81.296 Y136.941 E12.3026
G1 X82.106 Y136.353 E12.35283
G1 X82.64 Y136.11 E12.38227
G1 X82.71 Y135.972 E12.39004
G1 X82.71 Y89.028 E14.74597
G1 X82.701 Y88.975 E14.74867
G1 X82.608 Y88.871 E14.75567
G1 X82.106 Y88.647 E14.78326
G1 X81.296 Y88.059 E14.83349
G1 X80.626 Y87.315 E14.88374
G1 X80.125 Y86.448 E14.93399
G1 X79.816 Y85.496 E14.98422
G1 X79.711 Y84.5 E15.03448
G1 X79.816 Y83.504 E15.08474
G1 X80.125 Y82.552 E15.13497
G1 X80.626 Y81.685 E15.18522
G1 X81.255 Y80.986 E15.23241
G1 E13.23241 F2400
G92 E0
G1 X87.361 Y87.323 F30000
G1 E2 F2400
G1 F1800
G1 X87.462 Y87.29 E2.00533
G1 X111.29 Y87.29 E3.20116
G1 X111.29 Y86.962 E3.21762
G1 X111.406 Y86.799 E3.22766
G1 X113.538 Y86.79 E3.33466
G1 X113.642 Y86.825 E3.34017
G1 X113.71 Y86.962 E3.34785
G1 X113.71 Y87.29 E3.36431
G1 X137.538 Y87.29 E4.56014
G1 X137.675 Y87.359 E4.56784
G1 X137.71 Y87.462 E4.5733
G1 X137.71 Y111.29 E5.76913
G1 X138.038 Y111.29 E5.78559
G1 X138.201 Y111.406 E5.79563
G1 X138.21 Y113.538 E5.90263
G1 X138.175 Y113.642 E5.90814
G1 X138.038 Y113.71 E5.91582
G1 X137.71 Y113.71 E5.93228
G1 X137.71 Y137.538 E7.12811
G1 X137.639 Y137.677 E7.13594
G1 X137.538 Y137.71 E7.14127
G1 X113.71 Y137.71 E8.3371
G1 X113.71 Y138.038 E8.35356
G1 X113.594 Y138.201 E8.3636
G1 X111.462 Y138.21 E8.4706
G1 X111.358 Y138.175 E8.47611
G1 X111.29 Y138.038 E8.48379
G1 X111.29 Y137.71 E8.50025
G1 X87.462 Y137.71 E9.69608
G1 X87.33 Y137.648 E9.7034
G1 X87.29 Y137.538 E9.70927
G1 X87.29 Y109.71 E11.10584
G1 X86.962 Y109.71 E11.1223
G1 X86.799 Y109.594 E11.13234
G1 X86.79 Y107.462 E11.23934
G1 X86.825 Y107.358 E11.24485
G1 X86.962 Y107.29 E11.25253
G1 X87.29 Y107.29 E11.26899
G1 X87.29 Y87.462 E12.26408
G1 X87.334 Y87.377 E12.26888
G1 E10.26888 F2400
G92 E0
G1 X144.914 Y83.007 F30000
G1 E2 F2400
;TYPE:Solid infill
;WIDTH:0.421155
G1 F1800
G1 X142.26 Y80.353 E2.18899
G1 X141.899 Y80.193 E2.20887
G1 X141.532 Y80.115 E2.22776
G1 X144.908 Y83.49 E2.46813
G1 X144.93 Y83.558 E2.47173
G1 X144.982 Y84.054 E2.49684
G1 X140.924 Y79.996 E2.78582
G1 X140.435 Y79.996 E2.81044
G1 X145.02 Y84.582 E3.13698
G1 X144.974 Y85.025 E3.15941
G1 X139.959 Y80.01 E3.51653
G1 X139.556 Y80.096 E3.53728
G1 X144.923 Y85.463 E3.91947
G1 X144.803 Y85.832 E3.93901
G1 X139.152 Y80.182 E4.34139
G1 X138.805 Y80.324 E4.36027
G1 X144.683 Y86.202 E4.77885
G1 X144.637 Y86.342 E4.78627
G1 X144.526 Y86.534 E4.79744
G1 X138.467 Y80.475 E5.22891
G1 X138.236 Y80.578 E5.24165
G1 X138.146 Y80.643 E5.24724
G1 X144.347 Y86.845 E5.68886
G1 X144.168 Y87.155 E5.70689
G1 X137.862 Y80.849 E6.15595
G1 X137.579 Y81.055 E6.17358
G1 X143.937 Y87.414 E6.62638
G1 X143.705 Y87.671 E6.64381
G1 X137.327 Y81.293 E7.098
G1 X137.095 Y81.55 E7.11543
G1 X143.461 Y87.916 E7.56876
G1 X143.177 Y88.122 E7.58643
G1 X136.863 Y81.808 E8.03606
G1 X136.679 Y82.113 E8.054
G1 X142.894 Y88.328 E8.49658
G1 X142.764 Y88.422 E8.50466
G1 X142.583 Y88.506 E8.51471
G1 X136.5 Y82.423 E8.94789
G1 X136.321 Y82.734 E8.96596
G1 X142.248 Y88.661 E9.38803
G1 X142.11 Y88.778 E9.39714
G1 X142.043 Y88.946 E9.40625
G1 X136.05 Y82.952 E9.83305
G1 X135.95 Y82.969 E9.83816
G1 X135.577 Y82.969 E9.85694
G1 X142.031 Y89.423 E10.31654
G1 X142.031 Y89.912 E10.34116
G1 X135.088 Y82.969 E10.83558
G1 X134.598 Y82.969 E10.86025
G1 X142.031 Y90.402 E11.38956
G1 X142.031 Y90.891 E11.41418
G1 X134.109 Y82.969 E11.97832
G1 X133.62 Y82.969 E12.00294
G1 X142.031 Y91.38 E12.6019
G1 X142.031 Y91.87 E12.62657
G1 X137.969 Y87.807 E12.91587
G1 X137.969 Y88.297 E12.94054
G1 X142.031 Y92.359 E13.2298
G1 X142.031 Y92.849 E13.25447
G1 X137.969 Y88.786 E13.54377
G1 X137.969 Y89.275 E13.56839
G1 X142.031 Y93.338 E13.85769
G1 X142.031 Y93.827 E13.88231
G1 X137.969 Y89.765 E14.17157
G1 X137.969 Y90.254 E14.19619
G1 X142.031 Y94.317 E14.48549
G1 X142.031 Y94.806 E14.51011
G1 X137.969 Y90.743 E14.79941
G1 X137.969 Y91.233 E14.82408
G1 X142.031 Y95.296 E15.11338
G1 X142.031 Y95.785 E15.138
G1 X137.969 Y91.722 E15.4273
G1 X137.969 Y92.212 E15.45197
G1 X142.031 Y96.274 E15.74123
G1 X142.031 Y96.764 E15.7659
G1 X137.969 Y92.701 E16.0552
G1 X137.969 Y93.19 E16.07982
G1 X142.031 Y97.253 E16.36912
G1 X142.031 Y97.742 E16.39374
G1 X137.969 Y93.68 E16.683
G1 X137.969 Y94.169 E16.70762
G1 X142.031 Y98.232 E16.99692
G1 X142.031 Y98.721 E17.02154
G1 X137.969 Y94.658 E17.31084
G1 X137.969 Y95.148 E17.33551
G1 X142.031 Y99.211 E17.62481
G1 X142.031 Y99.7 E17.64943
G1 X137.969 Y95.637 E17.93873
G1 X137.969 Y96.127 E17.9634
G1 X142.031 Y100.189 E18.25266
G1 X142.031 Y100.679 E18.27733
G1 X137.969 Y96.616 E18.56663
G1 X137.969 Y97.105 E18.59125
G1 X142.031 Y101.168 E18.88055
G1 X142.031 Y101.657 E18.90517
G1 X137.969 Y97.595 E19.19443
G1 X137.969 Y98.084 E19.21905
G1 X142.031 Y102.147 E19.50835
G1 X142.031 Y102.636 E19.53297
G1 X137.969 Y98.574 E19.82223
G1 X137.969 Y99.063 E19.84685
G1 X142.031 Y103.126 E20.13615
G1 X142.031 Y103.615 E20.16077
G1 X137.969 Y99.552 E20.45007
G1 X137.969 Y100.042 E20.47474
G1 X142.031 Y104.104 E20.764
G1 X142.031 Y104.594 E20.78867
G1 X137.969 Y100.531 E21.07797
G1 X137.969 Y101.02 E21.10259
G1 X142.031 Y105.083 E21.39189
G1 X142.031 Y105.572 E21.41651
G1 X137.969 Y101.51 E21.70577
G1 X137.969 Y101.999 E21.73039
G1 X142.031 Y106.062 E22.01969
G1 X142.031 Y106.551 E22.04431
G1 X137.969 Y102.489 E22.33357
G1 X137.969 Y102.978 E22.35819
G1 X142.031 Y107.041 E22.64749
G1 X142.031 Y107.53 E22.67211
G1 X137.969 Y103.467 E22.96141
G1 X137.969 Y103.957 E22.98608
G1 X142.031 Y108.019 E23.27534
G1 X142.031 Y108.509 E23.30001
G1 X137.969 Y104.446 E23.58931
G1 X137.969 Y104.935 E23.61393
G1 X142.031 Y108.998 E23.90323
G1 X142.031 Y109.488 E23.9279
G1 X137.969 Y105.425 E24.2172
G1 X137.969 Y105.914 E24.24182
G1 X142.031 Y109.977 E24.53112
G1 X142.031 Y110.466 E24.55574
G1 X137.969 Y106.404 E24.845
G1 X137.969 Y106.893 E24.86962
G1 X142.031 Y110.956 E25.15892
G1 X142.031 Y111.445 E25.18354
G1 X137.969 Y107.382 E25.47284
G1 X137.969 Y107.872 E25.49751
G1 X142.031 Y111.934 E25.78677
G1 X142.031 Y112.424 E25.81144
G1 X137.969 Y108.361 E26.10074
G1 X137.969 Y108.851 E26.12541
G1 X142.031 Y112.913 E26.41467
G1 X142.031 Y113.403 E26.43934
G1 X137.969 Y109.34 E26.72864
G1 X137.969 Y109.829 E26.75326
G1 X142.031 Y113.892 E27.04256
G1 X142.031 Y114.381 E27.06718
G1 X137.969 Y110.319 E27.35644
G1 X137.969 Y110.808 E27.38106
G1 X142.031 Y114.871 E27.67036
G1 X142.031 Y115.36 E27.69498
G1 X138.464 Y111.793 E27.94899
G1 X138.466 Y112.284 E27.97371
G1 X142.031 Y115.849 E28.22758
G1 X142.031 Y116.339 E28.25225
G1 X138.467 Y112.774 E28.50608
G1 X138.468 Y113.265 E28.5308
G1 X142.031 Y116.828 E28.78453
G1 X142.031 Y117.318 E28.8092
G1 X138.427 Y113.714 E29.06585
G1 X138.375 Y113.811 E29.07139
G1 X138.148 Y113.924 E29.08416
G1 X142.031 Y117.807 E29.36067
G1 X142.031 Y118.296 E29.38529
G1 X137.969 Y114.234 E29.67455
G1 X137.969 Y114.723 E29.69917
G1 X142.031 Y118.786 E29.98847
G1 X142.031 Y119.275 E30.01309
G1 X137.969 Y115.212 E30.30239
G1 X137.969 Y115.702 E30.32706
G1 X142.031 Y119.765 E30.61636
G1 X142.031 Y120.254 E30.64098
G1 X137.969 Y116.191 E30.93028
G1 X137.969 Y116.681 E30.95495
G1 X142.031 Y120.743 E31.24421
G1 X142.031 Y121.233 E31.26888
G1 X137.969 Y117.17 E31.55818
G1 X137.969 Y117.659 E31.5828
G1 X142.031 Y121.722 E31.8721
G1 X142.031 Y122.211 E31.89672
G1 X137.969 Y118.149 E32.18598
G1 X137.969 Y118.638 E32.2106
G1 X142.031 Y122.701 E32.4999
G1 X142.031 Y123.19 E32.52452
G1 X137.969 Y119.127 E32.81382
G1 X137.969 Y119.617 E32.83849
G1 X142.031 Y123.68 E33.12779
G1 X142.031 Y124.169 E33.15241
G1 X137.969 Y120.106 E33.44171
G1 X137.969 Y120.596 E33.46638
G1 X142.031 Y124.658 E33.75564
G1 X142.031 Y125.148 E33.78031
G1 X137.969 Y121.085 E34.06961
G1 X137.969 Y121.574 E34.09423
G1 X142.031 Y125.637 E34.38353
G1 X142.031 Y126.126 E34.40815
G1 X137.969 Y122.064 E34.69741
G1 X137.969 Y122.553 E34.72203
G1 X142.031 Y126.616 E35.01133
G1 X142.031 Y127.105 E35.03595
G1 X137.969 Y123.043 E35.32521
G1 X137.969 Y123.532 E35.34983
G1 X142.031 Y127.595 E35.63913
G1 X142.031 Y128.084 E35.66375
G1 X137.969 Y124.021 E35.95305
G1 X137.969 Y124.511 E35.97772
G1 X142.031 Y128.573 E36.26698
G1 X142.031 Y129.063 E36.29165
G1 X137.969 Y125 E36.58095
G1 X137.969 Y125.489 E36.60557
G1 X142.031 Y129.552 E36.89487
G1 X142.031 Y130.041 E36.91949
G1 X137.969 Y125.979 E37.20875
G1 X137.969 Y126.468 E37.23337
G1 X142.031 Y130.531 E37.52267
G1 X142.031 Y131.02 E37.54729
G1 X137.969 Y126.958 E37.83655
G1 X137.969 Y127.447 E37.86117
G1 X142.031 Y131.51 E38.15047
G1 X142.031 Y131.999 E38.17509
G1 X137.969 Y127.936 E38.46439
G1 X137.969 Y128.426 E38.48906
G1 X142.031 Y132.488 E38.77832
G1 X142.031 Y132.978 E38.80299
G1 X137.969 Y128.915 E39.09229
G1 X137.969 Y129.404 E39.11691
G1 X142.031 Y133.467 E39.40621
G1 X142.031 Y133.957 E39.43088
G1 X137.969 Y129.894 E39.72018
G1 X137.969 Y130.383 E39.7448
G1 X142.031 Y134.446 E40.0341
G1 X142.031 Y134.935 E40.05872
G1 X137.969 Y130.873 E40.34798
G1 X137.969 Y131.362 E40.3726
G1 X142.187 Y135.58 E40.67297
G1 E38.67297 F2400
G92 E0
G1 X144.812 Y138.695 F30000
G1 E2 F2400
G1 F1800
G1 X142.636 Y136.519 E2.15496
G1 X142.206 Y136.32 E2.17882
G1 X142.11 Y136.222 E2.18573
G1 X142.052 Y136.105 E2.19231
G1 X142.031 Y135.914 E2.20199
G1 X137.969 Y131.851 E2.49129
G1 X137.969 Y132.341 E2.51596
G1 X144.806 Y139.178 E3.00283
G1 X144.93 Y139.558 E3.02296
G1 X144.957 Y139.819 E3.03617
G1 X137.969 Y132.83 E3.53383
G1 X137.969 Y133.32 E3.5585
G1 X145.015 Y140.365 E4.06022
G1 X145.029 Y140.5 E4.06705
G1 X144.994 Y140.834 E4.08396
G1 X137.969 Y133.809 E4.58422
G1 X137.969 Y134.298 E4.60884
G1 X144.947 Y141.277 E5.10579
G1 X144.93 Y141.442 E5.11414
G1 X144.854 Y141.673 E5.12639
G1 X137.969 Y134.788 E5.61668
G1 X137.969 Y135.277 E5.6413
G1 X144.734 Y142.043 E6.12308
G1 X144.603 Y142.401 E6.14228
G1 X137.969 Y135.766 E6.61473
G1 X137.969 Y136.256 E6.6394
G1 X144.424 Y142.711 E7.09907
G1 X144.245 Y143.021 E7.1171
G1 X137.969 Y136.745 E7.56402
G1 X137.969 Y137.235 E7.58869
G1 X144.037 Y143.303 E8.0208
G1 X143.805 Y143.56 E8.03823
G1 X137.938 Y137.693 E8.45603
G1 X137.9 Y137.772 E8.46044
G1 X137.818 Y137.866 E8.46672
G1 X137.692 Y137.937 E8.474
G1 X143.573 Y143.818 E8.89279
G1 X143.299 Y144.033 E8.91033
G1 X137.235 Y137.969 E9.34215
G1 X136.745 Y137.969 E9.36682
G1 X143.016 Y144.239 E9.81335
G1 X142.726 Y144.439 E9.83109
G1 X136.256 Y137.969 E10.29183
G1 X135.766 Y137.969 E10.3165
G1 X142.388 Y144.59 E10.78803
G1 X142.049 Y144.741 E10.80672
G1 X135.277 Y137.969 E11.28896
G1 X134.788 Y137.969 E11.31358
G1 X141.674 Y144.855 E11.80394
G1 X141.27 Y144.941 E11.82474
G1 X134.298 Y137.969 E12.32122
G1 X133.809 Y137.969 E12.34584
G1 X140.844 Y145.004 E12.84681
G1 X140.355 Y145.004 E12.87143
G1 X133.32 Y137.969 E13.3724
G1 X132.83 Y137.969 E13.39707
G1 X139.822 Y144.96 E13.89494
G1 X139.201 Y144.828 E13.92691
G1 X132.341 Y137.969 E14.41538
G1 X131.851 Y137.969 E14.44005
G1 X138.667 Y144.784 E14.92539
G1 E12.92539 F2400
G92 E0
G1 X135.58 Y142.187 F30000
G1 E2 F2400
G1 F1800
G1 X131.362 Y137.969 E2.30037
G1 X130.873 Y137.969 E2.32499
G1 X134.935 Y142.031 E2.61425
G1 X134.446 Y142.031 E2.63887
G1 X130.383 Y137.969 E2.92817
G1 X129.894 Y137.969 E2.95279
G1 X133.957 Y142.031 E3.24209
G1 X133.467 Y142.031 E3.26676
G1 X129.405 Y137.969 E3.55602
G1 X128.915 Y137.969 E3.58069
G1 X132.978 Y142.031 E3.86999
G1 X132.488 Y142.031 E3.89466
G1 X128.426 Y137.969 E4.18392
G1 X127.936 Y137.969 E4.20859
G1 X131.999 Y142.031 E4.49789
G1 X131.51 Y142.031 E4.52251
G1 X127.447 Y137.969 E4.81181
G1 X126.958 Y137.969 E4.83643
G1 X131.02 Y142.031 E5.12569
G1 X130.531 Y142.031 E5.15031
G1 X126.468 Y137.969 E5.43961
G1 X125.979 Y137.969 E5.46423
G1 X130.042 Y142.031 E5.75353
G1 X129.552 Y142.031 E5.7782
G1 X125.49 Y137.969 E6.06746
G1 X125 Y137.969 E6.09213
G1 X129.063 Y142.031 E6.38143
G1 X128.573 Y142.031 E6.4061
G1 X124.511 Y137.969 E6.69536
G1 X124.021 Y137.969 E6.72003
G1 X128.084 Y142.031 E7.00933
G1 X127.595 Y142.031 E7.03395
G1 X123.532 Y137.969 E7.32325
G1 X123.043 Y137.969 E7.34787
G1 X127.105 Y142.031 E7.63713
G1 X126.616 Y142.031 E7.66175
G1 X122.553 Y137.969 E7.95105
G1 X122.064 Y137.969 E7.97567
G1 X126.127 Y142.031 E8.26497
G1 X125.637 Y142.031 E8.28964
G1 X121.574 Y137.969 E8.57894
G1 X121.085 Y137.969 E8.60356
G1 X125.148 Y142.031 E8.89286
G1 X124.658 Y142.031 E8.91753
G1 X120.596 Y137.969 E9.20679
G1 X120.106 Y137.969 E9.23146
G1 X124.169 Y142.031 E9.52076
G1 X123.68 Y142.031 E9.54538
G1 X119.617 Y137.969 E9.83468
G1 X119.128 Y137.969 E9.8593
G1 X123.19 Y142.031 E10.14856
G1 X122.701 Y142.031 E10.17318
G1 X118.638 Y137.969 E10.46248
G1 X118.149 Y137.969 E10.4871
G1 X122.211 Y142.031 E10.77636
G1 X121.722 Y142.031 E10.80098
G1 X117.659 Y137.969 E11.09028
G1 X117.17 Y137.969 E11.1149
G1 X121.233 Y142.031 E11.4042
G1 X120.743 Y142.031 E11.42887
G1 X116.681 Y137.969 E11.71813
G1 X116.191 Y137.969 E11.7428
G1 X120.254 Y142.031 E12.0321
G1 X119.765 Y142.031 E12.05672
G1 X115.702 Y137.969 E12.34602
G1 X115.213 Y137.969 E12.37064
G1 X119.275 Y142.031 E12.6599
G1 X118.786 Y142.031 E12.68452
G1 X114.723 Y137.969 E12.97382
G1 X114.234 Y137.969 E12.99844
G1 X118.296 Y142.031 E13.2877
