; generated by PrusaSlicer 2.6.1+linux-x64-GTK3 on 2023-11-14 at 16:48:12 UTC

; 

; external perimeters extrusion width = 0.45mm
; perimeters extrusion width = 0.60mm
; infill extrusion width = 0.60mm
; solid infill extrusion width = 0.60mm
; top infill extrusion width = 0.60mm
; first layer extrusion width = 0.40mm

;TYPE:Custom
; M190 R30 ; Because of probe temperature drift,
; M109 R30 ; Let the beds and hotend cool down before homing the axis

G28 ; home all axes
G1 Z100.0 F3000 ; Raise head above brush
M190 S65 ; set bed temperature and wait for it to be reached
M109 S230 ; set hot end temp and wait for it

; Brush any crap off the nozzle
G1 X232.0 Y0.0 F3000 ; Goto Start of movement
G1 Z19.0 F3000 ; Lower into brush
G1 X221.0 Y2.0 F3000 ; Goto Start of movement
G1 X229.0 Y4.0 F3000 ; 
G1 X221.0 Y6.0 F3000 ; 
G1 X229.0 Y8.0 F3000 ; 
G1 X221.0 Y10.0 F3000 ;
G1 X229.0 Y12.0 F3000 ;
G1 X221.0 Y14.0 F3000 ;
G1 X229.0 Y16.0 F3000 ;
G1 X221.0 Y18.0 F3000 ;
G1 X229.0 Y20.0 F3000 ;
G1 X221.0 Y22.0 F3000 ;
G1 X229.0 Y24.0 F3000 ;
G1 X221.0 Y26.0 F3000 ;
G1 X229.0 Y28.0 F3000 ;
G1 X221.0 Y30.0 F3000 ;
G1 X229.0 Y28.0 F3000 ;
G1 X221.0 Y26.0 F3000 ;
G1 X229.0 Y24.0 F3000 ;
G1 X221.0 Y22.0 F3000 ;
G1 X229.0 Y20.0 F3000 ;
G1 X221.0 Y18.0 F3000 ;
G1 X229.0 Y16.0 F3000 ;
G1 X221.0 Y14.0 F3000 ;
G1 X229.0 Y12.0 F3000 ;
G1 X221.0 Y10.0 F3000 ;
G1 X229.0 Y8.0 F3000 ; 
G1 X221.0 Y6.0 F3000 ; 
G1 X229.0 Y4.0 F3000 ; 
G1 X221.0 Y2.0 F3000 ; 
G1 X229.0 Y0.0 F3000 ; 
G1 X225.0 Y0.0 F3000 ; 
G1 X225.0 Y30.0 F5000 ; 
G1 X225.0 Y0.0 F5000 ; 
G1 X225.0 Y30.0 F5000 ; 
G1 X225.0 Y0.0 F5000 ; 
G1 X225.0 Y30.0 F5000 ; 

; Do a purge line to prime the extruder
G92 E0 ;Reset Extruder
G1 X227.0 Y80.0 F5000 ; Goto Start of purge
G1 Z0.28 F5000 ;Move Head to start height
G1 X227.0 Y230.0 Z0.28 F1500.0 E15; Draw first line
G1 X226.7 Y230.0 Z0.28 F5000.0 ;Move to side a little
G1 X226.7 Y80.0 Z0.28 F1500.0 E30; Draw the second line
G1 Z0.4 F5000; Move Z Axis Up
G1 Y120 F1500; Wipe to the back
G1 X117.5 Y117.5 Z27.0 F5000 ; Raise head above brush
G92 E0 ;Reset Extruder
G21 ; set units to millimeters
G90 ; use absolute coordinates
M82 ; use absolute distances for extrusion
G92 E0
; Filament gcode
SET_PRESSURE_ADVANCE ADVANCE=0.063
M107
;LAYER_CHANGE
;Z:0.35
;HEIGHT:0.35
G1 Z.35 F24000
G1 E-.1 F2400
G92 E0
G1 X107.037 Y110.964 F24000
G1 E.1 F2400
;TYPE:Skirt/Brim
;WIDTH:0.4
G1 F3000
G1 X107.968 Y110.138 E.15884
G1 X109.197 Y109.261 E.23022
G1 X110.716 Y108.411 E.31251
G1 X112.48 Y107.666 E.40304
G1 X114.589 Y107.038 E.50707
G1 X116.867 Y106.624 E.61653
G1 X119.206 Y106.451 E.72741
G1 X121.56 Y106.523 E.83875
G1 X124.102 Y106.882 E.96012
G1 X126.155 Y107.409 E1.06032
G1 X128.13 Y108.154 E1.16011
G1 X129.619 Y108.909 E1.23904
G1 X131.024 Y109.826 E1.31836
G1 X131.971 Y110.599 E1.37615
G1 X132.462 Y111.064 E1.40812
G1 X133.003 Y111.648 E1.44576
G1 X133.591 Y112.393 E1.49063
G1 X134.003 Y113.016 E1.52594
G1 X134.449 Y113.834 E1.56999
G1 X134.696 Y114.397 E1.59906
G1 X134.975 Y115.208 E1.63961
G1 X135.181 Y116.097 E1.68275
G1 X135.278 Y116.872 E1.71967
G1 X135.303 Y117.548 E1.75165
G1 X135.256 Y118.383 E1.79119
G1 X135.135 Y119.155 E1.82813
G1 X134.989 Y119.76 E1.85755
G1 X134.734 Y120.522 E1.89554
G1 X134.494 Y121.088 E1.9246
G1 X134.063 Y121.9 E1.96806
G1 X133.697 Y122.473 E2.0002
G1 X133.054 Y123.307 E2.04999
G1 X132.592 Y123.818 E2.08256
G1 X131.697 Y124.657 E2.14056
G1 X130.434 Y125.602 E2.21513
G1 X129.027 Y126.429 E2.29229
G1 X127.303 Y127.205 E2.38167
G1 X125.33 Y127.845 E2.47973
G1 X123.093 Y128.312 E2.58777
G1 X120.631 Y128.549 E2.7047
G1 X118.203 Y128.519 E2.81949
G1 X115.821 Y128.232 E2.93292
G1 X113.649 Y127.728 E3.03833
G1 X111.803 Y127.088 E3.1307
G1 X110.154 Y126.313 E3.21684
G1 X108.724 Y125.439 E3.29607
G1 X107.517 Y124.496 E3.36848
G1 X106.67 Y123.672 E3.42435
G1 X106.242 Y123.185 E3.455
G1 X105.831 Y122.653 E3.48678
G1 X105.277 Y121.799 E3.5349
G1 X104.847 Y120.959 E3.57951
G1 X104.503 Y120.066 E3.62475
G1 X104.262 Y119.149 E3.66957
G1 X104.128 Y118.24 E3.71301
G1 X104.098 Y117.312 E3.7569
G1 X104.171 Y116.397 E3.80029
G1 X104.343 Y115.504 E3.84328
G1 X104.619 Y114.611 E3.88747
G1 X104.991 Y113.747 E3.93194
G1 X105.508 Y112.833 E3.98158
G1 X106.102 Y112.002 E4.02987
G1 X106.563 Y111.456 E4.06365
G1 X106.995 Y111.008 E4.09307
G1 X107.229 Y111.232 F24000
G1 F3000
G1 X108.164 Y110.398 E4.1523
G1 X109.363 Y109.54 E4.222
G1 X110.866 Y108.699 E4.30342
G1 X112.598 Y107.968 E4.3923
G1 X114.656 Y107.356 E4.4938
G1 X116.899 Y106.947 E4.60159
G1 X119.222 Y106.776 E4.71171
G1 X121.541 Y106.847 E4.82139
G1 X124.03 Y107.199 E4.94023
G1 X126.049 Y107.716 E5.03876
G1 X127.991 Y108.448 E5.13687
G1 X129.449 Y109.186 E5.21412
G1 X130.825 Y110.083 E5.29177
G1 X131.761 Y110.846 E5.34886
G1 X132.235 Y111.296 E5.37976
G1 X132.752 Y111.854 E5.41572
G1 X133.331 Y112.589 E5.45995
G1 X133.721 Y113.178 E5.49335
G1 X134.161 Y113.983 E5.53672
G1 X134.391 Y114.509 E5.56386
G1 X134.665 Y115.306 E5.6037
G1 X134.86 Y116.146 E5.64447
G1 X134.955 Y116.906 E5.68068
G1 X134.978 Y117.552 E5.71124
G1 X134.934 Y118.341 E5.7486
G1 X134.815 Y119.098 E5.78483
G1 X134.679 Y119.663 E5.8123
G1 X134.427 Y120.413 E5.8497
G1 X134.203 Y120.942 E5.87686
G1 X133.779 Y121.742 E5.91966
G1 X133.427 Y122.291 E5.95049
G1 X132.8 Y123.104 E5.99903
G1 X132.355 Y123.595 E6.03036
G1 X131.481 Y124.413 E6.08695
G1 X130.262 Y125.327 E6.15898
G1 X128.87 Y126.145 E6.23531
G1 X127.195 Y126.898 E6.32213
G1 X125.238 Y127.534 E6.41941
G1 X123.053 Y127.989 E6.52492
G1 X120.626 Y128.224 E6.64019
G1 X118.233 Y128.195 E6.75333
G1 X115.885 Y127.913 E6.86513
G1 X113.731 Y127.413 E6.96967
G1 X111.917 Y126.784 E7.06044
G1 X110.301 Y126.023 E7.14488
G1 X108.902 Y125.166 E7.22244
G1 X107.738 Y124.257 E7.29226
G1 X106.91 Y123.453 E7.34682
G1 X106.496 Y122.982 E7.37647
G1 X106.093 Y122.46 E7.40765
G1 X105.554 Y121.629 E7.45448
G1 X105.14 Y120.819 E7.49749
G1 X104.81 Y119.958 E7.54108
G1 X104.578 Y119.075 E7.58424
G1 X104.451 Y118.202 E7.62595
G1 X104.423 Y117.311 E7.66809
G1 X104.494 Y116.433 E7.70973
G1 X104.661 Y115.574 E7.7511
G1 X104.927 Y114.716 E7.79357
G1 X105.286 Y113.884 E7.83641
G1 X105.777 Y113.015 E7.8836
G1 X106.363 Y112.196 E7.93121
G1 X106.801 Y111.678 E7.96328
G1 X107.188 Y111.276 E7.98966
G1 X107.422 Y111.5 F24000
G1 F3000
G1 X108.36 Y110.657 E8.04928
G1 X109.53 Y109.819 E8.11732
G1 X111.017 Y108.987 E8.19787
G1 X112.716 Y108.271 E8.28503
G1 X114.723 Y107.674 E8.38402
G1 X116.932 Y107.27 E8.49018
G1 X119.22 Y107.101 E8.59864
G1 X121.522 Y107.172 E8.70752
G1 X123.959 Y107.516 E8.82387
G1 X125.943 Y108.023 E8.92068
G1 X127.853 Y108.742 E9.01716
G1 X129.279 Y109.463 E9.0927
G1 X130.626 Y110.34 E9.16869
G1 X131.55 Y111.094 E9.22507
G1 X132.007 Y111.528 E9.25487
G1 X132.501 Y112.061 E9.28923
G1 X133.072 Y112.785 E9.33282
G1 X133.44 Y113.34 E9.3643
G1 X133.866 Y114.12 E9.40632
G1 X134.086 Y114.621 E9.43219
G1 X134.356 Y115.404 E9.47135
G1 X134.538 Y116.194 E9.50968
G1 X134.632 Y116.939 E9.54518
G1 X134.653 Y117.556 E9.57437
G1 X134.612 Y118.298 E9.6095
G1 X134.495 Y119.041 E9.64506
G1 X134.368 Y119.567 E9.67064
G1 X134.121 Y120.303 E9.70734
G1 X133.913 Y120.796 E9.73264
G1 X133.495 Y121.584 E9.77481
G1 X133.157 Y122.11 E9.80437
G1 X132.547 Y122.9 E9.85156
G1 X132.119 Y123.372 E9.88168
G1 X131.266 Y124.17 E9.9369
G1 X130.089 Y125.051 E10.0064
G1 X128.713 Y125.86 E10.08186
G1 X127.086 Y126.592 E10.1662
G1 X125.146 Y127.222 E10.26263
G1 X123.013 Y127.667 E10.36564
G1 X120.621 Y127.899 E10.47925
G1 X118.246 Y127.871 E10.59154
G1 X115.95 Y127.595 E10.70087
G1 X113.813 Y127.099 E10.80458
G1 X112.032 Y126.48 E10.89372
G1 X110.447 Y125.733 E10.97656
G1 X109.08 Y124.894 E11.05239
G1 X107.958 Y124.018 E11.11969
G1 X107.15 Y123.233 E11.17295
G1 X106.75 Y122.779 E11.20156
G1 X106.362 Y122.278 E11.23152
G1 X105.831 Y121.46 E11.27762
G1 X105.434 Y120.68 E11.319
G1 X105.116 Y119.85 E11.36102
G1 X104.895 Y119.002 E11.40245
G1 X104.774 Y118.165 E11.44243
G1 X104.748 Y117.31 E11.48287
G1 X104.817 Y116.468 E11.52281
G1 X104.978 Y115.645 E11.56246
G1 X105.229 Y114.837 E11.60246
G1 X105.581 Y114.021 E11.64447
G1 X106.047 Y113.197 E11.68922
G1 X106.623 Y112.39 E11.73609
G1 X107.039 Y111.899 E11.76651
G1 X107.38 Y111.544 E11.78978
G1 X107.615 Y111.768 F24000
G1 F3000
G1 X108.557 Y110.915 E11.84986
G1 X109.696 Y110.098 E11.91613
G1 X111.168 Y109.275 E11.99586
G1 X112.834 Y108.574 E12.08131
G1 X114.79 Y107.992 E12.17779
G1 X116.965 Y107.594 E12.28232
G1 X119.236 Y107.425 E12.38998
G1 X121.503 Y107.496 E12.49721
G1 X123.887 Y107.833 E12.61104
G1 X125.837 Y108.331 E12.70619
G1 X127.714 Y109.036 E12.80098
G1 X129.109 Y109.74 E12.87485
G1 X130.428 Y110.598 E12.94924
G1 X131.34 Y111.342 E13.00488
G1 X131.779 Y111.76 E13.03354
G1 X132.25 Y112.267 E13.06626
G1 X132.813 Y112.981 E13.10925
G1 X133.158 Y113.502 E13.13879
G1 X133.571 Y114.257 E13.17947
G1 X133.781 Y114.734 E13.20411
G1 X134.046 Y115.502 E13.24252
G1 X134.217 Y116.243 E13.27847
G1 X134.308 Y116.972 E13.3132
G1 X134.328 Y117.56 E13.34101
G1 X134.29 Y118.256 E13.37396
G1 X134.175 Y118.984 E13.4088
G1 X134.058 Y119.47 E13.43243
G1 X133.815 Y120.194 E13.46853
G1 X133.617 Y120.662 E13.49255
G1 X133.212 Y121.425 E13.53339
G1 X132.888 Y121.928 E13.56168
G1 X132.294 Y122.696 E13.60758
G1 X131.883 Y123.148 E13.63646
G1 X131.05 Y123.927 E13.69038
G1 X129.917 Y124.776 E13.75731
G1 X128.556 Y125.575 E13.83192
G1 X126.977 Y126.286 E13.91379
G1 X125.054 Y126.91 E14.00937
G1 X122.972 Y127.344 E14.10991
G1 X120.616 Y127.574 E14.22182
G1 X118.259 Y127.546 E14.33326
G1 X116.015 Y127.276 E14.44011
G1 X113.895 Y126.784 E14.543
G1 X112.147 Y126.176 E14.63049
G1 X110.594 Y125.443 E14.71168
G1 X109.272 Y124.632 E14.785
G1 X108.177 Y123.779 E14.85062
G1 X107.389 Y123.014 E14.90254
G1 X107.003 Y122.576 E14.93014
G1 X106.63 Y122.095 E14.95892
G1 X106.108 Y121.29 E15.00428
G1 X105.727 Y120.54 E15.04405
G1 X105.423 Y119.743 E15.08438
G1 X105.212 Y118.929 E15.12413
G1 X105.097 Y118.128 E15.16239
G1 X105.073 Y117.31 E15.20108
G1 X105.14 Y116.505 E15.23927
G1 X105.295 Y115.717 E15.27724
G1 X105.53 Y114.957 E15.31485
G1 X105.876 Y114.157 E15.35606
G1 X106.316 Y113.379 E15.39832
G1 X106.884 Y112.585 E15.44447
G1 X107.277 Y112.12 E15.47325
G1 X107.573 Y111.811 E15.49348
G1 X107.808 Y112.036 F24000
G1 F3000
G1 X108.753 Y111.174 E15.55395
G1 X109.863 Y110.377 E15.61855
G1 X111.318 Y109.563 E15.69737
G1 X112.952 Y108.877 E15.78115
G1 X114.857 Y108.31 E15.87511
G1 X116.998 Y107.917 E15.97802
G1 X119.234 Y107.75 E16.08402
G1 X121.484 Y107.821 E16.19044
G1 X123.815 Y108.15 E16.30173
G1 X125.732 Y108.638 E16.39525
G1 X127.576 Y109.33 E16.48836
G1 X128.94 Y110.018 E16.56058
G1 X130.229 Y110.855 E16.63324
G1 X131.13 Y111.59 E16.68821
G1 X131.552 Y111.992 E16.71576
G1 X131.999 Y112.473 E16.7468
G1 X132.554 Y113.177 E16.78918
G1 X132.876 Y113.664 E16.81678
G1 X133.277 Y114.395 E16.8562
G1 X133.476 Y114.846 E16.8795
G1 X133.736 Y115.6 E16.91721
G1 X133.896 Y116.292 E16.95079
G1 X133.985 Y117.005 E16.98476
G1 X134.003 Y117.563 E17.01115
G1 X133.968 Y118.213 E17.04192
G1 X133.855 Y118.927 E17.07609
G1 X133.748 Y119.374 E17.09782
G1 X133.509 Y120.085 E17.13328
G1 X133.321 Y120.528 E17.15603
G1 X132.928 Y121.266 E17.19556
G1 X132.627 Y121.735 E17.22191
G1 X132.041 Y122.492 E17.26717
G1 X131.648 Y122.925 E17.29481
G1 X130.835 Y123.683 E17.34736
G1 X129.745 Y124.5 E17.41176
G1 X128.399 Y125.291 E17.48557
G1 X126.868 Y125.979 E17.56492
G1 X124.962 Y126.598 E17.65966
G1 X122.932 Y127.022 E17.7577
G1 X120.611 Y127.249 E17.86795
G1 X118.271 Y127.221 E17.97858
G1 X116.08 Y126.958 E18.0829
G1 X113.977 Y126.47 E18.18496
G1 X112.262 Y125.872 E18.27083
G1 X110.741 Y125.153 E18.35037
G1 X109.465 Y124.371 E18.42112
G1 X108.397 Y123.539 E18.48512
G1 X107.62 Y122.785 E18.53631
G1 X107.257 Y122.372 E18.5623
G1 X106.899 Y121.912 E18.58986
G1 X106.394 Y121.135 E18.63367
G1 X106.028 Y120.416 E18.67181
G1 X105.735 Y119.653 E18.71045
G1 X105.529 Y118.857 E18.74932
G1 X105.42 Y118.092 E18.78585
G1 X105.397 Y117.328 E18.82198
G1 X105.461 Y116.558 E18.85851
G1 X105.608 Y115.804 E18.89483
G1 X105.832 Y115.078 E18.93075
G1 X106.163 Y114.309 E18.97033
G1 X106.585 Y113.561 E19.01093
G1 X107.144 Y112.779 E19.05637
G1 X107.516 Y112.341 E19.08354
G1 X107.766 Y112.079 E19.10066
G1 X108.001 Y112.304 F24000
G1 F3000
G1 X108.151 Y112.147 E19.11093
G1 X108.963 Y111.423 E19.16236
G1 X110.045 Y110.647 E19.22531
G1 X111.452 Y109.859 E19.30155
G1 X113.053 Y109.186 E19.38365
G1 X114.925 Y108.627 E19.47601
G1 X117.03 Y108.24 E19.57719
G1 X119.25 Y108.075 E19.68243
G1 X121.465 Y108.145 E19.7872
G1 X123.744 Y108.467 E19.89601
G1 X125.643 Y108.951 E19.98866
G1 X127.437 Y109.624 E20.07924
G1 X128.786 Y110.304 E20.15066
G1 X130.045 Y111.122 E20.22164
G1 X130.91 Y111.829 E20.27446
G1 X131.317 Y112.217 E20.30104
G1 X131.748 Y112.68 E20.33094
G1 X132.294 Y113.373 E20.37265
G1 X132.602 Y113.838 E20.39902
G1 X132.989 Y114.545 E20.43712
G1 X133.176 Y114.971 E20.45911
G1 X133.421 Y115.681 E20.49462
G1 X133.574 Y116.341 E20.52665
G1 X133.661 Y117.023 E20.55915
G1 X133.679 Y117.553 E20.58422
G1 X133.644 Y118.187 E20.61424
G1 X133.535 Y118.87 E20.64694
G1 X133.434 Y119.29 E20.66736
G1 X133.204 Y119.975 E20.70152
G1 X133.025 Y120.394 E20.72306
G1 X132.644 Y121.108 E20.76132
G1 X132.365 Y121.542 E20.78571
G1 X131.788 Y122.288 E20.8303
G1 X131.412 Y122.701 E20.8567
G1 X130.62 Y123.44 E20.90791
G1 X129.572 Y124.225 E20.96981
G1 X128.242 Y125.006 E21.04273
G1 X126.76 Y125.673 E21.11956
G1 X124.87 Y126.287 E21.21351
G1 X122.891 Y126.699 E21.30907
G1 X120.606 Y126.924 E21.41762
G1 X118.284 Y126.896 E21.5274
G1 X116.145 Y126.639 E21.62925
G1 X114.059 Y126.155 E21.73049
G1 X112.378 Y125.568 E21.81467
G1 X110.888 Y124.863 E21.8926
G1 X109.657 Y124.109 E21.96085
G1 X108.617 Y123.3 E22.02314
G1 X107.859 Y122.565 E22.07306
G1 X107.51 Y122.169 E22.09801
G1 X107.16 Y121.718 E22.125
G1 X106.671 Y120.965 E22.16745
G1 X106.321 Y120.276 E22.20398
G1 X106.042 Y119.545 E22.24097
G1 X105.849 Y118.802 E22.27726
G1 X105.743 Y118.055 E22.31293
G1 X105.722 Y117.327 E22.34736
G1 X105.781 Y116.611 E22.38132
G1 X105.921 Y115.891 E22.416
G1 X106.134 Y115.198 E22.45027
G1 X106.451 Y114.461 E22.4882
G1 X106.855 Y113.743 E22.52715
G1 X107.404 Y112.974 E22.57182
G1 X107.959 Y112.347 E22.61141
G1 X108.194 Y112.572 F24000
G1 F3000
G1 X108.381 Y112.376 E22.62422
G1 X109.173 Y111.671 E22.67435
G1 X110.226 Y110.916 E22.7356
G1 X111.587 Y110.155 E22.80932
G1 X113.155 Y109.495 E22.88975
G1 X114.992 Y108.945 E22.9804
G1 X117.063 Y108.564 E23.07995
G1 X119.248 Y108.4 E23.18354
G1 X121.446 Y108.47 E23.2875
G1 X123.672 Y108.784 E23.39378
G1 X125.554 Y109.263 E23.48559
G1 X127.299 Y109.918 E23.57371
G1 X128.631 Y110.59 E23.64424
G1 X129.846 Y111.38 E23.71275
G1 X130.7 Y112.077 E23.76486
G1 X131.089 Y112.448 E23.79027
G1 X131.497 Y112.886 E23.81857
G1 X132.035 Y113.568 E23.85964
G1 X132.32 Y114 E23.88411
G1 X132.694 Y114.682 E23.92088
G1 X132.871 Y115.083 E23.9416
G1 X133.107 Y115.763 E23.97563
G1 X133.256 Y116.406 E24.00683
G1 X133.337 Y117.056 E24.0378
G1 X133.354 Y117.542 E24.06079
G1 X133.32 Y118.161 E24.0901
G1 X133.216 Y118.812 E24.12127
G1 X133.12 Y119.206 E24.14044
G1 X132.898 Y119.865 E24.17331
G1 X132.729 Y120.26 E24.19362
G1 X132.361 Y120.949 E24.23055
G1 X132.096 Y121.36 E24.25367
G1 X131.543 Y122.075 E24.2964
G1 X131.186 Y122.468 E24.3215
G1 X130.405 Y123.196 E24.37198
G1 X129.385 Y123.959 E24.4322
G1 X128.101 Y124.714 E24.50262
G1 X126.635 Y125.373 E24.57861
G1 X124.795 Y125.97 E24.67006
G1 X122.833 Y126.38 E24.76482
G1 X120.583 Y126.6 E24.8717
G1 X118.314 Y126.573 E24.97898
G1 X116.209 Y126.321 E25.07921
G1 X114.158 Y125.846 E25.17874
G1 X112.493 Y125.264 E25.26212
G1 X111.035 Y124.574 E25.33838
G1 X109.835 Y123.836 E25.40498
G1 X108.824 Y123.049 E25.46555
G1 X108.09 Y122.337 E25.51389
G1 X107.757 Y121.958 E25.53774
G1 X107.428 Y121.535 E25.56307
G1 X106.957 Y120.81 E25.60394
G1 X106.615 Y120.137 E25.63963
G1 X106.349 Y119.438 E25.67499
G1 X106.166 Y118.73 E25.70956
G1 X106.066 Y118.019 E25.7435
G1 X106.047 Y117.345 E25.77538
G1 X106.102 Y116.663 E25.80773
G1 X106.234 Y115.978 E25.84071
