; generated by PrusaSlicer 2.6.1+linux-x64-GTK3 on 2023-11-28 at 15:18:00 UTC

; 

; external perimeters extrusion width = 0.68mm
; perimeters extrusion width = 0.68mm
; infill extrusion width = 0.68mm
; solid infill extrusion width = 0.68mm
; top infill extrusion width = 0.60mm
; support material extrusion width = 0.35mm

;TYPE:Custom
; M190 R30 ; Because of probe temperature drift,
; M109 R30 ; Let the beds and hotend cool down before homing the axis

G28 ; home all axes
G1 Z100.0 F3000 ; Raise head above brush
M190 S65 ; set bed temperature and wait for it to be reached
M109 S205 ; set hot end temp and wait for it

; Brush any crap off the nozzle
G1 X232.0 Y0.0 F3000 ; Goto Start of movement
G1 Z21.0 F3000 ; Lower into brush
G1 X221.0 Y2.0 F3000 ; Goto Start of movement
G1 X229.0 Y4.0 F3000 ; 
G1 X221.0 Y6.0 F3000 ; 
G1 X229.0 Y8.0 F3000 ; 
G1 X221.0 Y10.0 F3000 ;
G1 X229.0 Y12.0 F3000 ;
G1 X221.0 Y14.0 F3000 ;
G1 X229.0 Y16.0 F3000 ;
G1 X221.0 Y18.0 F3000 ;
G1 X229.0 Y20.0 F3000 ;
G1 X221.0 Y22.0 F3000 ;
G1 X229.0 Y24.0 F3000 ;
G1 X221.0 Y26.0 F3000 ;
G1 X229.0 Y28.0 F3000 ;
G1 X221.0 Y30.0 F3000 ;
G1 X229.0 Y28.0 F3000 ;
G1 X221.0 Y26.0 F3000 ;
G1 X229.0 Y24.0 F3000 ;
G1 X221.0 Y22.0 F3000 ;
G1 X229.0 Y20.0 F3000 ;
G1 X221.0 Y18.0 F3000 ;
G1 X229.0 Y16.0 F3000 ;
G1 X221.0 Y14.0 F3000 ;
G1 X229.0 Y12.0 F3000 ;
G1 X221.0 Y10.0 F3000 ;
G1 X229.0 Y8.0 F3000 ; 
G1 X221.0 Y6.0 F3000 ; 
G1 X229.0 Y4.0 F3000 ; 
G1 X221.0 Y2.0 F3000 ; 
G1 X229.0 Y0.0 F3000 ; 
G1 X225.0 Y0.0 F3000 ; 
G1 X225.0 Y30.0 F5000 ; 
G1 X225.0 Y0.0 F5000 ; 
G1 X225.0 Y30.0 F5000 ; 
G1 X225.0 Y0.0 F5000 ; 
G1 X225.0 Y30.0 F5000 ; 

; Do a purge line to prime the extruder
G92 E0 ;Reset Extruder
G1 X227.0 Y80.0 F5000 ; Goto Start of purge
G1 Z0.28 F5000 ;Move Head to start height
G1 X227.0 Y230.0 Z0.28 F1500.0 E15; Draw first line
G1 X226.7 Y230.0 Z0.28 F5000.0 ;Move to side a little
G1 X226.7 Y80.0 Z0.28 F1500.0 E30; Draw the second line
G1 Z0.4 F5000; Move Z Axis Up
G1 Y120 F1500; Wipe to the back
G1 X117.5 Y117.5 Z27.0 F5000 ; Raise head above brush
G92 E0 ;Reset Extruder
G21 ; set units to millimeters
G90 ; use absolute coordinates
M82 ; use absolute distances for extrusion
G92 E0
; Filament gcode
SET_PRESSURE_ADVANCE ADVANCE=0.0944
M107
;LAYER_CHANGE
;Z:0.35
;HEIGHT:0.35
G1 Z.35 F24000
G1 E-.1 F2400
G92 E0
G1 X76.453 Y106.353 F24000
G1 E.1 F2400
;TYPE:Support material interface
;WIDTH:0.35
G1 F1800
G1 X68.978 Y113.828 E.52285
G1 X69.321 Y114.171 E.54225
G1 X76.796 Y106.696 E.9651
G1 X77.14 Y107.04 E.98456
G1 X69.665 Y114.515 E1.40741
G1 X70.008 Y114.858 E1.42681
G1 X71.981 Y112.885 E1.53842
G1 X71.731 Y113.822 E1.57721
G1 X70.351 Y115.201 E1.65525
G1 X70.695 Y115.545 E1.67471
G1 X71.597 Y114.642 E1.72576
G1 X71.464 Y115.462 E1.75899
G1 X71.038 Y115.888 E1.78309
G1 X71.381 Y116.231 E1.80249
G1 X71.4 Y116.213 E1.80354
G1 E1.70354 F2400
G92 E0
G1 X71.084 Y119.066 F24000
G1 E.1 F2400
G1 F1800
G1 X71.398 Y118.752 E.11776
G1 X71.409 Y118.951 E.12573
G1 X69.018 Y121.343 E.26101
G1 X69.361 Y121.686 E.28041
G1 X71.471 Y119.576 E.39977
G1 X71.566 Y120.167 E.42371
G1 X69.704 Y122.029 E.52904
G1 X70.048 Y122.373 E.5485
G1 X71.662 Y120.758 E.63983
G1 X71.772 Y121.335 E.66333
G1 X70.391 Y122.716 E.74145
G1 X70.734 Y123.059 E.76085
G1 X71.917 Y121.877 E.82774
G1 X72.062 Y122.418 E.85014
G1 X71.078 Y123.403 E.90583
G1 X71.421 Y123.746 E.92523
G1 X72.223 Y122.945 E.97057
G1 X72.493 Y123.152 E.98418
G1 X72.702 Y123.152 E.99254
G1 X71.765 Y124.09 E1.04557
G1 X72.108 Y124.433 E1.06497
G1 X73.389 Y123.152 E1.13743
G1 X74.076 Y123.152 E1.16491
G1 X72.451 Y124.776 E1.25681
G1 X72.795 Y125.12 E1.27627
G1 X74.762 Y123.152 E1.38757
G1 X75.449 Y123.152 E1.41505
G1 X73.138 Y125.463 E1.54578
G1 X73.482 Y125.807 E1.56524
G1 X76.136 Y123.152 E1.7154
G1 X76.823 Y123.152 E1.74288
G1 X73.825 Y126.15 E1.91247
G1 X74.168 Y126.493 E1.93187
G1 X77.509 Y123.152 E2.12087
G1 X78.196 Y123.152 E2.14835
G1 X74.512 Y126.837 E2.35678
G1 X74.855 Y127.18 E2.37618
G1 X78.883 Y123.152 E2.60404
G1 X79.57 Y123.152 E2.63152
G1 X75.198 Y127.523 E2.87881
G1 X75.542 Y127.867 E2.89827
G1 X80.256 Y123.152 E3.16496
G1 X80.943 Y123.152 E3.19244
G1 X75.885 Y128.21 E3.47856
G1 X76.229 Y128.554 E3.49802
G1 X81.63 Y123.152 E3.80357
G1 X82.174 Y123.152 E3.82533
G1 X81.777 Y122.834 F24000
;TYPE:Support material
G1 F1800
G1 X78.473 Y122.834 E3.95749
G1 X80.125 Y121.182 E4.05094
G1 X81.748 Y122.805 E4.14275
G1 X80.757 Y122.711 F24000
G1 F1800
G1 X81.031 Y122.437 E4.15825
G1 X80.815 Y122.221 E4.17047
G1 X80.449 Y122.587 E4.19117
G1 X80.017 Y122.587 E4.20845
G1 X80.599 Y122.005 E4.24137
G1 X80.383 Y121.789 E4.25359
G1 X79.585 Y122.587 E4.29873
G1 X79.153 Y122.587 E4.31601
G1 X80.254 Y121.486 E4.37829
G1 E4.27829 F2400
G92 E0
G1 X80.128 Y124.978 F24000
G1 E.1 F2400
;TYPE:Support material interface
G1 F1800
G1 X80.309 Y125.159 E.11024
G1 X82.317 Y123.152 E.2238
G1 X83.004 Y123.152 E.25128
G1 X80.653 Y125.503 E.38427
G1 X80.996 Y125.846 E.40367
G1 X83.69 Y123.152 E.55607
G1 X84.377 Y123.152 E.58355
G1 X81.34 Y126.19 E.75538
G1 X81.683 Y126.533 E.77478
G1 X85.064 Y123.152 E.96604
G1 X85.751 Y123.152 E.99352
G1 X82.026 Y126.876 E1.20421
G1 X82.37 Y127.22 E1.22367
G1 X86.437 Y123.152 E1.45376
G1 X87.124 Y123.152 E1.48124
G1 X82.713 Y127.563 E1.73076
G1 X83.057 Y127.907 E1.75022
G1 X87.811 Y123.152 E2.01918
G1 X88.498 Y123.152 E2.04666
G1 X83.4 Y128.25 E2.33505
G1 X83.743 Y128.593 E2.35445
G1 X89.184 Y123.152 E2.66224
G1 X89.728 Y123.152 E2.684
G1 X89.252 Y122.834 F24000
;TYPE:Support material
G1 F1800
G1 X85.948 Y122.834 E2.81616
G1 X87.6 Y121.182 E2.90961
G1 X89.223 Y122.805 E3.00142
G1 X88.1 Y122.711 F24000
G1 F1800
G1 X88.44 Y122.371 E3.02065
G1 X88.224 Y122.155 E3.03287
G1 X87.792 Y122.587 E3.05731
G1 X87.36 Y122.587 E3.07459
G1 X88.008 Y121.939 E3.11125
G1 X87.792 Y121.723 E3.12347
G1 X86.805 Y122.711 E3.17933
G1 E3.07933 F2400
G92 E0
G1 X87.642 Y125.017 F24000
G1 E.1 F2400
;TYPE:Support material interface
G1 F1800
G1 X87.824 Y125.199 E.1103
G1 X89.871 Y123.152 E.2261
G1 X90.558 Y123.152 E.25358
G1 X88.168 Y125.543 E.38881
G1 X88.511 Y125.886 E.40821
G1 X91.245 Y123.152 E.56287
G1 X91.932 Y123.152 E.59035
G1 X88.854 Y126.229 E.76444
G1 X89.198 Y126.573 E.7839
G1 X92.618 Y123.152 E.97739
G1 X93.305 Y123.152 E1.00487
G1 X89.541 Y126.916 E1.21779
G1 X89.884 Y127.26 E1.23722
G1 X93.992 Y123.152 E1.4696
G1 X94.679 Y123.152 E1.49708
G1 X90.228 Y127.603 E1.74887
G1 X90.571 Y127.946 E1.76827
G1 X95.365 Y123.152 E2.03946
G1 X96.052 Y123.152 E2.06694
G1 X90.915 Y128.29 E2.35756
G1 X91.258 Y128.633 E2.37696
G1 X96.739 Y123.152 E2.68701
G1 X97.283 Y123.152 E2.70877
G1 X96.727 Y122.834 F24000
;TYPE:Support material
G1 F1800
G1 X93.423 Y122.834 E2.84093
G1 X95.075 Y121.182 E2.93438
G1 X96.698 Y122.805 E3.02619
G1 X95.875 Y122.711 F24000
G1 F1800
G1 X96.065 Y122.521 E3.03694
G1 X95.849 Y122.305 E3.04916
G1 X95.567 Y122.587 E3.06511
G1 X95.135 Y122.587 E3.08239
G1 X95.633 Y122.089 E3.11056
G1 X95.417 Y121.874 E3.12275
G1 X94.703 Y122.587 E3.16311
G1 X94.271 Y122.587 E3.18039
G1 X95.288 Y121.57 E3.23792
G1 E3.13792 F2400
G92 E0
G1 X95.157 Y125.057 F24000
G1 E.1 F2400
;TYPE:Support material interface
G1 F1800
G1 X95.339 Y125.239 E.1103
G1 X97.426 Y123.152 E.22836
G1 X98.112 Y123.152 E.2558
G1 X95.682 Y125.582 E.39326
G1 X96.026 Y125.926 E.41272
G1 X98.799 Y123.152 E.56961
G1 X99.486 Y123.152 E.59709
G1 X96.369 Y126.269 E.77341
G1 X96.712 Y126.612 E.79281
G1 X100.173 Y123.152 E.98857
G1 X100.86 Y123.152 E1.01605
G1 X97.056 Y126.956 E1.23124
G1 X97.399 Y127.299 E1.25064
G1 X101.546 Y123.152 E1.48523
G1 X102.233 Y123.152 E1.51271
G1 X97.743 Y127.643 E1.76673
G1 X98.086 Y127.986 E1.78613
G1 X102.92 Y123.152 E2.05958
G1 X103.607 Y123.152 E2.08706
G1 X98.429 Y128.329 E2.37994
G1 X98.773 Y128.673 E2.3994
G1 X104.293 Y123.152 E2.71169
G1 X104.837 Y123.152 E2.73345
G1 X104.202 Y122.834 F24000
;TYPE:Support material
G1 F1800
G1 X100.898 Y122.834 E2.86561
G1 X102.55 Y121.182 E2.95906
G1 X104.173 Y122.805 E3.05087
G1 X103.219 Y122.711 F24000
G1 F1800
G1 X103.474 Y122.455 E3.06532
G1 X103.258 Y122.24 E3.07751
G1 X102.91 Y122.587 E3.09717
G1 X102.478 Y122.587 E3.11445
G1 X103.042 Y122.024 E3.14633
G1 X102.826 Y121.808 E3.15855
G1 X102.046 Y122.587 E3.20265
G1 X101.614 Y122.587 E3.21993
G1 X102.697 Y121.504 E3.28119
G1 E3.18119 F2400
G92 E0
G1 X102.672 Y125.097 F24000
G1 E.1 F2400
;TYPE:Support material interface
G1 F1800
G1 X102.854 Y125.279 E.1103
G1 X104.98 Y123.152 E.23059
G1 X105.667 Y123.152 E.25807
G1 X103.197 Y125.622 E.39779
G1 X103.54 Y125.965 E.41719
G1 X106.354 Y123.152 E.57635
G1 X107.04 Y123.152 E.60379
G1 X103.884 Y126.309 E.78235
G1 X104.227 Y126.652 E.80175
G1 X107.727 Y123.152 E.99974
G1 X108.414 Y123.152 E1.02722
G1 X104.571 Y126.996 E1.24464
G1 X104.914 Y127.339 E1.26404
G1 X109.101 Y123.152 E1.50089
G1 X109.788 Y123.152 E1.52837
G1 X105.257 Y127.682 E1.78465
G1 X105.601 Y128.026 E1.80411
G1 X110.474 Y123.152 E2.0798
G1 X111.161 Y123.152 E2.10728
G1 X105.944 Y128.369 E2.4024
G1 X106.287 Y128.713 E2.42183
G1 X111.848 Y123.152 E2.73641
G1 X112.392 Y123.152 E2.75817
G1 X111.677 Y122.834 F24000
;TYPE:Support material
G1 F1800
G1 X108.373 Y122.834 E2.89033
G1 X110.025 Y121.182 E2.98378
G1 X111.648 Y122.805 E3.07559
G1 X110.562 Y122.711 F24000
G1 F1800
G1 X110.883 Y122.39 E3.09375
G1 X110.667 Y122.174 E3.10597
G1 X110.253 Y122.587 E3.12936
G1 X109.821 Y122.587 E3.14664
G1 X110.451 Y121.958 E3.18225
G1 X110.235 Y121.742 E3.19447
G1 X109.266 Y122.711 E3.24928
G1 E3.14928 F2400
G92 E0
G1 X110.187 Y125.137 F24000
G1 E.1 F2400
;TYPE:Support material interface
G1 F1800
G1 X110.368 Y125.318 E.11024
G1 X112.535 Y123.152 E.2328
G1 X113.221 Y123.152 E.26024
G1 X110.712 Y125.662 E.4022
G1 X111.055 Y126.005 E.4216
G1 X113.908 Y123.152 E.58299
G1 X114.595 Y123.152 E.61047
G1 X111.399 Y126.349 E.79129
G1 X111.742 Y126.692 E.81069
G1 X115.282 Y123.152 E1.01094
G1 X115.968 Y123.152 E1.03838
G1 X112.085 Y127.035 E1.25804
G1 X112.429 Y127.379 E1.2775
G1 X116.655 Y123.152 E1.51659
G1 X117.342 Y123.152 E1.54407
G1 X112.772 Y127.722 E1.80259
G1 X113.115 Y128.065 E1.82199
G1 X118.029 Y123.152 E2.09994
G1 X118.716 Y123.152 E2.12742
G1 X113.459 Y128.409 E2.4248
G1 X113.763 Y128.713 E2.442
G1 X117.5 Y124.975 E2.65342
G1 X117.54 Y125.015 E2.65568
G1 X119.402 Y123.152 E2.76104
G1 X119.946 Y123.152 E2.7828
G1 X119.152 Y122.834 F24000
;TYPE:Support material
G1 F1800
G1 X115.848 Y122.834 E2.91496
G1 X117.5 Y121.182 E3.00841
G1 X119.123 Y122.805 E3.10022
G1 X118.337 Y122.711 F24000
G1 F1800
G1 X118.508 Y122.54 E3.10989
G1 X118.292 Y122.324 E3.12211
G1 X118.028 Y122.587 E3.13702
G1 X117.597 Y122.587 E3.15426
G1 X118.076 Y122.108 E3.18136
G1 X117.86 Y121.892 E3.19358
G1 X117.165 Y122.587 E3.2329
G1 X116.733 Y122.587 E3.25018
G1 X117.731 Y121.588 E3.30666
G1 E3.20666 F2400
G92 E0
G1 X117.641 Y125.116 F24000
G1 E.1 F2400
;TYPE:Support material interface
G1 F1800
G1 X117.883 Y125.358 E.11369
G1 X120.089 Y123.152 E.23848
G1 X120.776 Y123.152 E.26596
G1 X118.226 Y125.702 E.41021
G1 X118.57 Y126.045 E.42964
G1 X121.463 Y123.152 E.59329
G1 X122.149 Y123.152 E.62073
G1 X118.913 Y126.388 E.80379
G1 X119.257 Y126.732 E.82325
G1 X122.836 Y123.152 E1.02574
G1 X123.523 Y123.152 E1.05322
G1 X119.6 Y127.075 E1.27514
G1 X119.943 Y127.418 E1.29454
G1 X124.21 Y123.152 E1.53589
G1 X124.896 Y123.152 E1.56333
G1 X120.287 Y127.762 E1.82408
G1 X120.63 Y128.105 E1.84348
G1 X125.583 Y123.152 E2.12366
G1 X126.27 Y123.152 E2.15114
G1 X120.974 Y128.449 E2.45076
G1 X121.237 Y128.713 E2.46567
G1 X124.975 Y124.975 E2.67712
G1 X125.054 Y125.054 E2.68159
G1 X126.957 Y123.152 E2.78921
G1 X127.644 Y123.152 E2.81669
G1 X125.398 Y125.398 E2.94374
G1 X125.741 Y125.741 E2.96314
G1 X128.33 Y123.152 E3.1096
G1 X129.017 Y123.152 E3.13708
G1 X126.085 Y126.085 E3.30297
G1 X126.428 Y126.428 E3.32237
G1 X129.704 Y123.152 E3.50769
G1 X130.391 Y123.152 E3.53517
G1 X126.771 Y126.771 E3.73992
G1 X127.115 Y127.115 E3.75938
G1 X131.077 Y123.152 E3.98353
G1 X131.764 Y123.152 E4.01101
G1 X127.458 Y127.458 E4.25459
G1 X127.802 Y127.802 E4.27405
G1 X132.451 Y123.152 E4.53707
G1 X133.138 Y123.152 E4.56455
G1 X128.145 Y128.145 E4.847
G1 X128.488 Y128.488 E4.8664
G1 X133.824 Y123.152 E5.16825
G1 X134.511 Y123.152 E5.19573
G1 X132.569 Y125.094 E5.30559
G1 X132.913 Y125.438 E5.32505
G1 X135.198 Y123.152 E5.45434
G1 X135.885 Y123.152 E5.48182
G1 X133.256 Y125.781 E5.63054
G1 X133.599 Y126.124 E5.64994
G1 X136.572 Y123.152 E5.81809
G1 X137.258 Y123.152 E5.84553
G1 X133.943 Y126.468 E6.03308
G1 X134.286 Y126.811 E6.05248
G1 X137.945 Y123.152 E6.25946
G1 X138.632 Y123.152 E6.28694
G1 X134.629 Y127.155 E6.51338
G1 X134.973 Y127.498 E6.53281
G1 X139.319 Y123.152 E6.77866
G1 X140.005 Y123.152 E6.8061
G1 X135.316 Y127.841 E7.07135
G1 X135.66 Y128.185 E7.09081
G1 X140.692 Y123.152 E7.37549
G1 X141.379 Y123.152 E7.40297
G1 X136.003 Y128.528 E7.70708
G1 X136.187 Y128.713 E7.71752
G1 X139.925 Y124.975 E7.92897
G1 X140.084 Y125.134 E7.93796
G1 X142.066 Y123.152 E8.05008
G1 X142.752 Y123.152 E8.07752
G1 X140.427 Y125.477 E8.20904
G1 X140.771 Y125.821 E8.2285
G1 X143.439 Y123.152 E8.37945
G1 X144.126 Y123.152 E8.40693
G1 X141.114 Y126.164 E8.57731
G1 X141.457 Y126.507 E8.59671
G1 X144.813 Y123.152 E8.78653
G1 X145.5 Y123.152 E8.81401
G1 X141.801 Y126.851 E9.02326
G1 X142.144 Y127.194 E9.04266
G1 X146.186 Y123.152 E9.27131
G1 X146.873 Y123.152 E9.29879
G1 X142.488 Y127.538 E9.54687
G1 X142.831 Y127.881 E9.56627
G1 X147.56 Y123.152 E9.83378
G1 X148.247 Y123.152 E9.86126
G1 X143.174 Y128.224 E10.1482
G1 X143.518 Y128.568 E10.16766
G1 X148.933 Y123.152 E10.47401
G1 X149.477 Y123.152 E10.49577
G1 X149.052 Y122.834 F24000
;TYPE:Support material
G1 F1800
G1 X145.748 Y122.834 E10.62793
G1 X147.4 Y121.182 E10.72138
G1 X149.023 Y122.805 E10.81319
G1 X148.141 Y122.711 F24000
G1 F1800
G1 X148.36 Y122.492 E10.82558
G1 X148.144 Y122.276 E10.8378
G1 X147.833 Y122.587 E10.85539
G1 X147.401 Y122.587 E10.87267
G1 X147.928 Y122.06 E10.90248
G1 X147.712 Y121.844 E10.9147
G1 X146.969 Y122.587 E10.95673
G1 X146.537 Y122.587 E10.97401
G1 X147.583 Y121.54 E11.03321
G1 E10.93321 F2400
G92 E0
G1 X147.417 Y124.992 F24000
G1 E.1 F2400
;TYPE:Support material interface
G1 F1800
G1 X147.599 Y125.174 E.1103
G1 X149.62 Y123.152 E.22465
G1 X150.307 Y123.152 E.25213
G1 X147.942 Y125.517 E.38591
G1 X148.285 Y125.86 E.40531
G1 X150.994 Y123.152 E.55853
G1 X151.68 Y123.152 E.58597
G1 X148.629 Y126.204 E.75859
G1 X148.972 Y126.547 E.77799
G1 X152.367 Y123.152 E.97004
G1 X153.054 Y123.152 E.99752
G1 X149.316 Y126.891 E1.209
G1 X149.659 Y127.234 E1.2284
G1 X153.741 Y123.152 E1.45931
G1 X154.428 Y123.152 E1.48679
G1 X150.002 Y127.577 E1.73713
G1 X150.346 Y127.921 E1.75659
G1 X155.114 Y123.152 E2.02634
G1 X155.801 Y123.152 E2.05382
G1 X150.689 Y128.264 E2.343
G1 X151.032 Y128.608 E2.36243
G1 X156.488 Y123.152 E2.67107
G1 X157.032 Y123.152 E2.69283
G1 X156.527 Y122.834 F24000
;TYPE:Support material
G1 F1800
G1 X153.223 Y122.834 E2.82499
G1 X154.875 Y121.182 E2.91844
G1 X156.498 Y122.805 E3.01025
G1 X155.484 Y122.711 F24000
G1 F1800
G1 X155.769 Y122.426 E3.02637
G1 X155.553 Y122.21 E3.03859
G1 X155.176 Y122.587 E3.05992
G1 X154.744 Y122.587 E3.0772
G1 X155.337 Y121.994 E3.11075
G1 X155.121 Y121.778 E3.12297
G1 X154.312 Y122.587 E3.16873
G1 X153.88 Y122.587 E3.18601
G1 X154.992 Y121.474 E3.24894
G1 E3.14894 F2400
G92 E0
G1 X154.932 Y125.032 F24000
G1 E.1 F2400
;TYPE:Support material interface
G1 F1800
G1 X155.113 Y125.213 E.11024
G1 X157.175 Y123.152 E.22686
G1 X157.861 Y123.152 E.2543
G1 X155.457 Y125.557 E.39032
G1 X155.8 Y125.9 E.40972
G1 X158.548 Y123.152 E.56517
G1 X159.235 Y123.152 E.59265
G1 X156.144 Y126.244 E.76753
G1 X156.487 Y126.587 E.78693
G1 X159.922 Y123.152 E.98124
G1 X160.608 Y123.152 E1.00868
G1 X156.83 Y126.93 E1.2224
G1 X157.174 Y127.274 E1.24186
G1 X161.295 Y123.152 E1.47501
G1 X161.982 Y123.152 E1.50249
G1 X157.517 Y127.617 E1.75507
G1 X157.86 Y127.96 E1.77447
G1 X162.669 Y123.152 E2.04648
G1 X163.356 Y123.152 E2.07396
G1 X158.204 Y128.304 E2.3654
G1 X158.547 Y128.647 E2.3848
G1 X164.042 Y123.152 E2.69564
G1 X164.406 Y123.152 E2.7102
