; generated by PrusaSlicer 2.6.1+linux-x64-GTK3 on 2023-11-28 at 14:47:50 UTC

; 

; external perimeters extrusion width = 0.68mm
; perimeters extrusion width = 0.68mm
; infill extrusion width = 0.68mm
; solid infill extrusion width = 0.68mm
; top infill extrusion width = 0.60mm

;TYPE:Custom
; M190 R30 ; Because of probe temperature drift,
; M109 R30 ; Let the beds and hotend cool down before homing the axis

G28 ; home all axes
G1 Z100.0 F3000 ; Raise head above brush
M190 S65 ; set bed temperature and wait for it to be reached
M109 S205 ; set hot end temp and wait for it

; Brush any crap off the nozzle
G1 X232.0 Y0.0 F3000 ; Goto Start of movement
G1 Z21.0 F3000 ; Lower into brush
G1 X221.0 Y2.0 F3000 ; Goto Start of movement
G1 X229.0 Y4.0 F3000 ; 
G1 X221.0 Y6.0 F3000 ; 
G1 X229.0 Y8.0 F3000 ; 
G1 X221.0 Y10.0 F3000 ;
G1 X229.0 Y12.0 F3000 ;
G1 X221.0 Y14.0 F3000 ;
G1 X229.0 Y16.0 F3000 ;
G1 X221.0 Y18.0 F3000 ;
G1 X229.0 Y20.0 F3000 ;
G1 X221.0 Y22.0 F3000 ;
G1 X229.0 Y24.0 F3000 ;
G1 X221.0 Y26.0 F3000 ;
G1 X229.0 Y28.0 F3000 ;
G1 X221.0 Y30.0 F3000 ;
G1 X229.0 Y28.0 F3000 ;
G1 X221.0 Y26.0 F3000 ;
G1 X229.0 Y24.0 F3000 ;
G1 X221.0 Y22.0 F3000 ;
G1 X229.0 Y20.0 F3000 ;
G1 X221.0 Y18.0 F3000 ;
G1 X229.0 Y16.0 F3000 ;
G1 X221.0 Y14.0 F3000 ;
G1 X229.0 Y12.0 F3000 ;
G1 X221.0 Y10.0 F3000 ;
G1 X229.0 Y8.0 F3000 ; 
G1 X221.0 Y6.0 F3000 ; 
G1 X229.0 Y4.0 F3000 ; 
G1 X221.0 Y2.0 F3000 ; 
G1 X229.0 Y0.0 F3000 ; 
G1 X225.0 Y0.0 F3000 ; 
G1 X225.0 Y30.0 F5000 ; 
G1 X225.0 Y0.0 F5000 ; 
G1 X225.0 Y30.0 F5000 ; 
G1 X225.0 Y0.0 F5000 ; 
G1 X225.0 Y30.0 F5000 ; 

; Do a purge line to prime the extruder
G92 E0 ;Reset Extruder
G1 X227.0 Y80.0 F5000 ; Goto Start of purge
G1 Z0.28 F5000 ;Move Head to start height
G1 X227.0 Y230.0 Z0.28 F1500.0 E15; Draw first line
G1 X226.7 Y230.0 Z0.28 F5000.0 ;Move to side a little
G1 X226.7 Y80.0 Z0.28 F1500.0 E30; Draw the second line
G1 Z0.4 F5000; Move Z Axis Up
G1 Y120 F1500; Wipe to the back
G1 X117.5 Y117.5 Z27.0 F5000 ; Raise head above brush
G92 E0 ;Reset Extruder
G21 ; set units to millimeters
G90 ; use absolute coordinates
M82 ; use absolute distances for extrusion
G92 E0
; Filament gcode
SET_PRESSURE_ADVANCE ADVANCE=0.0944
M107
;LAYER_CHANGE
;Z:0.35
;HEIGHT:0.35
G1 Z.35 F24000
G1 E-.1 F2400
G92 E0
G1 X126.94 Y111.421 F24000
G1 E.1 F2400
;TYPE:Perimeter
;WIDTH:0.794405
G1 F1800
G1 X126.839 Y111.678 E.1289
G1 X126.463 Y111.185 E.1938
G1 X125.819 Y110.448 E.29624
;WIDTH:0.801964
G1 X125.274 Y109.925 E.37613
G1 X124.848 Y109.564 E.43519
;WIDTH:0.79357
G1 X124.343 Y109.181 E.50145
G1 X125.104 Y108.848 E.58829
G1 X125.291 Y108.999 E.61342
;WIDTH:0.801964
G1 X125.781 Y109.404 E.68066
G1 X126.638 Y110.263 E.809
;WIDTH:0.801416
G1 X127.168 Y110.913 E.89764
;WIDTH:0.794405
G1 X127.071 Y111.087 E.91849
G1 X126.972 Y111.337 E.94663
G1 X126.341 Y112.142 F24000
;WIDTH:0.675
G1 F1800
G1 X125.961 Y111.612 E1.00356
G1 X125.367 Y110.926 E1.08277
G1 X124.558 Y110.172 E1.17931
G1 X123.807 Y109.601 E1.26166
G1 X122.719 Y108.947 E1.37247
;WIDTH:0.719373
G1 X122.436 Y108.792 E1.40272
;WIDTH:0.763747
G1 X122.153 Y108.637 E1.43505
G1 X122.473 Y108.661 E1.46721
;WIDTH:0.719373
G1 X122.794 Y108.685 E1.49739
;WIDTH:0.675
G1 X123.359 Y108.707 E1.54675
G1 X123.769 Y108.653 E1.58285
G1 X124.137 Y108.556 E1.61607
G1 X124.712 Y108.323 E1.67023
G1 X125.152 Y108.048 E1.71552
G1 X126.212 Y108.897 E1.83407
G1 X127.12 Y109.804 E1.9461
G1 X127.968 Y110.864 E2.0646
G1 X127.695 Y111.304 E2.1098
G1 X127.512 Y111.753 E2.15212
G1 X127.355 Y112.324 E2.20381
G1 X127.306 Y112.943 E2.25801
;WIDTH:0.723093
G1 X127.331 Y113.359 E2.29731
;WIDTH:0.771187
G1 X127.356 Y113.776 E2.33962
G1 X127.273 Y113.63 E2.35663
;WIDTH:0.743908
G1 X127.093 Y113.327 E2.39093
;WIDTH:0.709454
G1 X126.913 Y113.024 E2.42346
;WIDTH:0.675
G1 X126.613 Y112.52 E2.47466
G1 X126.394 Y112.215 E2.50744
G1 E2.40744 F2400
G92 E0
G1 X125.073 Y126.262 F24000
G1 E.1 F2400
;WIDTH:0.801965
G1 F1800
G1 X125.274 Y126.092 E.12784
G1 X126.079 Y125.29 E.24803
;WIDTH:0.801418
G1 X126.452 Y124.845 E.3094
;WIDTH:0.794667
G1 X126.833 Y124.347 E.37505
G1 X126.947 Y124.674 E.41131
G1 X127.159 Y125.116 E.46264
G1 X126.319 Y126.082 E.59668
G1 X125.609 Y126.759 E.6994
G1 X125.104 Y127.169 E.76751
;WIDTH:0.793573
G1 X124.93 Y127.071 E.78839
G1 X124.343 Y126.836 E.85449
G1 X124.848 Y126.452 E.92082
;WIDTH:0.801965
G1 X125.004 Y126.32 E.94243
G1 E.84243 F2400
G92 E0
G1 X122.508 Y127.18 F24000
G1 E.1 F2400
;WIDTH:0.711904
G1 F1800
G1 X122.72 Y127.069 E.12217
;WIDTH:0.675
G1 X123.245 Y126.764 E.17517
G1 X123.981 Y126.283 E.25192
G1 X124.818 Y125.61 E.34567
G1 X125.574 Y124.86 E.43863
G1 X126.188 Y124.124 E.5223
G1 X126.612 Y123.499 E.58823
G1 X126.912 Y122.994 E.6395
;WIDTH:0.718564
G1 X127.124 Y122.635 E.67854
;WIDTH:0.762129
G1 X127.336 Y122.276 E.72022
G1 X127.325 Y122.484 E.74104
;WIDTH:0.729133
G1 X127.314 Y122.693 E.76096
;WIDTH:0.696138
G1 X127.341 Y123.507 E.83456
;WIDTH:0.675
G1 X127.434 Y124.067 E.88411
G1 X127.699 Y124.733 E.94668
G1 X127.963 Y125.161 E.99058
G1 X127.12 Y126.212 E1.10819
G1 X126.212 Y127.12 E1.22028
G1 X125.152 Y127.968 E1.33878
G1 X124.682 Y127.682 E1.38681
G1 X123.991 Y127.41 E1.45163
G1 X123.358 Y127.309 E1.50758
G1 X122.795 Y127.331 E1.55676
;WIDTH:0.711904
G1 X122.426 Y127.374 E1.59118
;WIDTH:0.748809
G1 X122.057 Y127.417 E1.6276
G1 X122.389 Y127.243 E1.66435
;WIDTH:0.711904
G1 X122.429 Y127.222 E1.66854
G1 E1.56854 F2400
G92 E0
G1 X109.595 Y125.971 F24000
G1 E.1 F2400
;WIDTH:0.801965
G1 F1800
G1 X109.378 Y125.753 E.13253
;WIDTH:0.801417
G1 X108.849 Y125.105 E.22094
;WIDTH:0.794407
G1 X108.946 Y124.93 E.24188
G1 X109.178 Y124.339 E.30833
G1 X109.553 Y124.832 E.37316
G1 X110.197 Y125.568 E.47552
;WIDTH:0.801965
G1 X110.742 Y126.092 E.55548
G1 X111.156 Y126.442 E.61282
;WIDTH:0.793318
G1 X111.671 Y126.834 E.68046
G1 X111.343 Y126.947 E.71672
G1 X110.901 Y127.16 E.768
G1 X110.713 Y127.007 E.79333
;WIDTH:0.801965
G1 X110.235 Y126.613 E.85885
G1 X109.659 Y126.034 E.94523
G1 X108.087 Y125.09 F24000
;WIDTH:0.675
G1 F1800
G1 X108.323 Y124.712 E.98413
G1 X108.504 Y124.264 E1.02631
G1 X108.661 Y123.693 E1.078
G1 X108.711 Y123.074 E1.13221
;WIDTH:0.72236
G1 X108.684 Y122.653 E1.17194
;WIDTH:0.769721
G1 X108.658 Y122.233 E1.21447
G1 X108.744 Y122.386 E1.23221
;WIDTH:0.741548
G1 X108.924 Y122.689 E1.26639
;WIDTH:0.708274
G1 X109.104 Y122.992 E1.29886
;WIDTH:0.675
G1 X109.404 Y123.497 E1.35013
G1 X110.056 Y124.405 E1.44771
G1 X110.65 Y125.09 E1.52686
G1 X111.335 Y125.739 E1.60923
G1 X111.794 Y126.099 E1.66015
G1 X112.499 Y126.6 E1.73565
G1 X113.388 Y127.112 E1.8252
;WIDTH:0.711958
G1 X113.673 Y127.264 E1.85513
;WIDTH:0.748917
G1 X113.958 Y127.416 E1.8868
G1 X113.733 Y127.373 E1.90926
;WIDTH:0.720222
G1 X112.941 Y127.306 E1.98387
;WIDTH:0.675
G1 X112.322 Y127.356 E2.03808
G1 X111.95 Y127.434 E2.07126
G1 X111.283 Y127.699 E2.13391
G1 X110.856 Y127.963 E2.17773
G1 X109.804 Y127.12 E2.29541
G1 X108.897 Y126.212 E2.40744
G1 X108.061 Y125.166 E2.52433
G1 E2.42433 F2400
G92 E0
G1 X110.06 Y110.596 F24000
G1 E.1 F2400
;WIDTH:0.791026
G1 F1800
G1 X109.284 Y111.523 E.22594
;WIDTH:0.795046
G1 X108.753 Y112.303 E.32479
G1 X108.503 Y112.748 E.37826
;WIDTH:0.794696
G1 X108.214 Y113.295 E.44304
G1 X107.754 Y112.612 E.52926
G1 X107.872 Y112.404 E.5543
;WIDTH:0.801317
G1 X108.24 Y111.761 E.63259
;WIDTH:0.801435
G1 X108.978 Y110.735 E.76617
;WIDTH:0.801551
G1 X109.823 Y109.795 E.89978
;WIDTH:0.801663
G1 X110.766 Y108.953 E1.03344
;WIDTH:0.801774
G1 X111.795 Y108.218 E1.16715
G1 X112.609 Y107.755 E1.26617
;WIDTH:0.791675
G1 X112.818 Y107.913 E1.29349
G1 X113.312 Y108.215 E1.35386
G1 X112.761 Y108.491 E1.41812
G1 X111.812 Y109.077 E1.53442
;WIDTH:0.790895
G1 X110.883 Y109.8 E1.65703
;WIDTH:0.791026
G1 X110.124 Y110.533 E1.76695
G1 X109.057 Y109.653 F24000
;WIDTH:0.675
G1 F1800
G1 X109.339 Y109.339 E1.80379
G1 X110.334 Y108.447 E1.92044
G1 X111.421 Y107.668 E2.03718
G1 X112.705 Y106.962 E2.16509
G1 X113.09 Y107.307 E2.21022
G1 X113.615 Y107.636 E2.2643
G1 X114.107 Y107.841 E2.31083
G1 X114.73 Y107.987 E2.36669
;WIDTH:0.723088
G1 X115.11 Y108.027 E2.40272
;WIDTH:0.771177
G1 X115.491 Y108.067 E2.44152
G1 X115.347 Y108.111 E2.45677
;WIDTH:0.746853
G1 X115.062 Y108.221 E2.48663
;WIDTH:0.710926
G1 X114.777 Y108.331 E2.51489
;WIDTH:0.675
G1 X114.013 Y108.616 E2.58607
G1 X113.1 Y109.055 E2.6745
G1 X112.21 Y109.601 E2.76564
G1 X111.335 Y110.277 E2.86216
G1 X110.538 Y111.044 E2.95871
G1 X109.829 Y111.893 E3.05526
G1 X109.299 Y112.674 E3.13765
G1 X108.703 Y113.8 E3.24886
G1 X108.304 Y114.824 E3.34479
;WIDTH:0.709422
G1 X108.17 Y115.243 E3.38539
;WIDTH:0.743845
G1 X108.036 Y115.661 E3.4281
G1 X108.034 Y115.348 E3.45856
;WIDTH:0.707107
G1 X107.99 Y114.79 E3.51004
;WIDTH:0.675
G1 X107.894 Y114.282 E3.55517
G1 X107.678 Y113.7 E3.60936
G1 X107.381 Y113.207 E3.6596
G1 X106.963 Y112.7 E3.71696
G1 X107.668 Y111.421 E3.84444
G1 X108.447 Y110.334 E3.96118
G1 X108.997 Y109.72 E4.03314
G1 E3.93314 F2400
G92 E0
G1 X127.128 Y114.98 F24000
G1 E.1 F2400
G1 F1800
G1 X127.399 Y115.942 E.18724
G1 X127.567 Y116.97 E.27817
G1 X127.623 Y118.002 E.36839
G1 X127.567 Y119.048 E.45983
G1 X127.399 Y120.075 E.55067
G1 X127.12 Y121.078 E.64155
G1 X126.825 Y121.823 E.7115
G1 X126.58 Y122.34 E.76144
G1 X126.271 Y122.923 E.81904
G1 X125.829 Y123.584 E.88845
G1 X125.492 Y124.029 E.93718
G1 X125.021 Y124.584 E1.00072
G1 X124.406 Y125.175 E1.07517
G1 X123.618 Y125.805 E1.16324
G1 X122.935 Y126.25 E1.2344
G1 X122.468 Y126.525 E1.28171
G1 X121.612 Y126.921 E1.36404
G1 X120.627 Y127.258 E1.45492
G1 X119.612 Y127.487 E1.54575
G1 X118.577 Y127.605 E1.63668
G1 X117.536 Y127.61 E1.72755
G1 X116.501 Y127.503 E1.81838
G1 X115.483 Y127.285 E1.90926
G1 X114.495 Y126.957 E2.00013
G1 X113.548 Y126.525 E2.09099
G1 X112.809 Y126.086 E2.16602
G1 X112.157 Y125.622 E2.23588
G1 X111.747 Y125.304 E2.28117
G1 X111.062 Y124.655 E2.36354
G1 X110.513 Y124.017 E2.43701
G1 X109.796 Y123.006 E2.5452
G1 X109.436 Y122.339 E2.61136
G1 X109.189 Y121.816 E2.66185
G1 X108.914 Y121.124 E2.72685
G1 X108.63 Y120.123 E2.81768
G1 X108.457 Y119.103 E2.90799
G1 X108.395 Y118.058 E2.99937
G1 X108.446 Y117.017 E3.09035
G1 X108.609 Y115.989 E3.18121
G1 X108.882 Y114.985 E3.27203
G1 X109.26 Y114.022 E3.36234
G1 X109.561 Y113.444 E3.41923
G1 X109.881 Y112.885 E3.47546
G1 X110.326 Y112.229 E3.54466
G1 X110.995 Y111.432 E3.63549
G1 X111.747 Y110.713 E3.72631
G1 X112.573 Y110.079 E3.8172
G1 X113.409 Y109.569 E3.90268
G1 X114.265 Y109.16 E3.98549
G1 X114.969 Y108.9 E4.051
G1 X115.483 Y108.732 E4.0982
G1 X116.405 Y108.529 E4.18061
G1 X117.484 Y108.408 E4.27539
G1 X118.48 Y108.406 E4.36233
G1 X119.516 Y108.513 E4.45325
G1 X120.533 Y108.732 E4.54406
G1 X121.515 Y109.057 E4.63435
G1 X122.554 Y109.537 E4.73426
G1 X123.363 Y110.024 E4.81669
G1 X124.086 Y110.567 E4.89562
G1 X124.954 Y111.362 E4.99837
G1 X125.503 Y112 E5.07184
G1 X126.117 Y112.857 E5.16387
G1 X126.383 Y113.305 E5.20935
G1 X126.713 Y113.927 E5.27081
G1 X127.103 Y114.893 E5.36175
G1 X126.396 Y114.738 F24000
;TYPE:External perimeter
G1 F1800
G1 X126.546 Y115.115 E5.39717
G1 X126.816 Y116.086 E5.48515
G1 X126.968 Y117.018 E5.56758
G1 X127.023 Y118.017 E5.65492
G1 X126.972 Y118.967 E5.73797
G1 X126.809 Y119.962 E5.82598
G1 X126.556 Y120.871 E5.90834
G1 X126.267 Y121.601 E5.97687
G1 X126.05 Y122.059 E6.02111
G1 X125.741 Y122.642 E6.07871
G1 X125.332 Y123.248 E6.14253
G1 X124.659 Y124.084 E6.23621
G1 X123.993 Y124.739 E6.31775
G1 X123.255 Y125.328 E6.40017
G1 X122.626 Y125.736 E6.46562
G1 X121.821 Y126.164 E6.5452
G1 X121.36 Y126.377 E6.58953
G1 X120.436 Y126.69 E6.67469
G1 X119.483 Y126.902 E6.75991
G1 X118.513 Y127.009 E6.8451
G1 X117.536 Y127.011 E6.93038
G1 X116.566 Y126.907 E7.01554
G1 X115.612 Y126.699 E7.10077
G1 X114.687 Y126.389 E7.18593
G1 X113.892 Y126.023 E7.26233
G1 X113.118 Y125.572 E7.34053
G1 X112.52 Y125.144 E7.40472
G1 X112.024 Y124.739 E7.46062
G1 X111.475 Y124.219 E7.52663
G1 X110.971 Y123.628 E7.59443
G1 X110.292 Y122.67 E7.69693
G1 X109.966 Y122.058 E7.75746
G1 X109.746 Y121.594 E7.80229
G1 X109.471 Y120.902 E7.86729
G1 X109.208 Y119.962 E7.9525
G1 X109.049 Y119.006 E8.0371
G1 X108.994 Y118.025 E8.12287
G1 X109.045 Y117.05 E8.2081
G1 X109.201 Y116.086 E8.29334
G1 X109.46 Y115.145 E8.37854
G1 X109.818 Y114.244 E8.46317
G1 X110.377 Y113.222 E8.56486
G1 X110.822 Y112.566 E8.63406
G1 X111.453 Y111.821 E8.71928
G1 X112.16 Y111.148 E8.80449
G1 X112.936 Y110.556 E8.88969
G1 X113.719 Y110.083 E8.96954
G1 X114.517 Y109.705 E9.04662
G1 X115.16 Y109.468 E9.10644
G1 X115.76 Y109.286 E9.16117
G1 X116.534 Y109.115 E9.23036
G1 X117.051 Y109.057 E9.27577
G1 X117.909 Y109.006 E9.3508
G1 X118.48 Y109.006 E9.40064
G1 X119.451 Y109.11 E9.48589
G1 X120.404 Y109.318 E9.57104
G1 X121.323 Y109.626 E9.65565
G1 X121.823 Y109.855 E9.70366
G1 X122.627 Y110.281 E9.78309
G1 X123.081 Y110.556 E9.82942
G1 X123.832 Y111.127 E9.91177
G1 X124.542 Y111.797 E9.99699
G1 X125.046 Y112.388 E10.06479
G1 X125.62 Y113.193 E10.15109
G1 X126.05 Y113.958 E10.22769
G1 X126.363 Y114.655 E10.29439
G1 X126.798 Y114.785 F24000
G1 E10.19439 F2400
G92 E0
G1 X119.46 Y107.257 F24000
G1 E.1 F2400
;TYPE:Perimeter
G1 F1800
G1 X119.998 Y107.331 E.14741
G1 X121.023 Y107.573 E.23934
G1 X122.438 Y108.037 E.36933
G1 X123.281 Y108.112 E.44321
G1 X123.912 Y108 E.49915
G1 X124.456 Y107.779 E.55041
G1 X124.718 Y107.629 E.57676
G1 X125.11 Y107.306 E.6211
G1 X125.568 Y107.603 E.66875
G1 X126.614 Y108.45 E.78624
G1 X127.566 Y109.402 E.90376
G1 X128.413 Y110.449 E1.02132
G1 X128.711 Y110.907 E1.06902
G1 X128.391 Y111.294 E1.11285
G1 X128.25 Y111.529 E1.13677
G1 X128.017 Y112.105 E1.19101
G1 X127.939 Y112.557 E1.23105
G1 X127.915 Y113.218 E1.28879
G1 X128.02 Y113.755 E1.33655
G1 X128.476 Y115.11 E1.46135
G1 X128.727 Y116.255 E1.56367
G1 X128.854 Y117.468 E1.67013
G1 X128.854 Y118.594 E1.76842
G1 X128.727 Y119.761 E1.87089
G1 X128.476 Y120.906 E1.97321
G1 X127.964 Y122.519 E2.12093
G1 X127.904 Y123.028 E2.16567
G1 X127.954 Y123.647 E2.21988
G1 X128.147 Y124.29 E2.27848
G1 X128.426 Y124.781 E2.32778
G1 X128.714 Y125.106 E2.36569
G1 X128.413 Y125.568 E2.41382
G1 X127.566 Y126.614 E2.53131
G1 X126.614 Y127.566 E2.64883
G1 X125.568 Y128.413 E2.76632
G1 X125.109 Y128.711 E2.81409
G1 X124.722 Y128.391 E2.85792
G1 X124.456 Y128.238 E2.88471
G1 X123.691 Y127.958 E2.95582
G1 X123.051 Y127.903 E3.01189
G1 X122.436 Y127.98 E3.06599
G1 X120.8 Y128.499 E3.21581
G1 X119.649 Y128.739 E3.31844
G1 X118.48 Y128.854 E3.42098
G1 X117.305 Y128.841 E3.52355
G1 X116.138 Y128.701 E3.62615
G1 X114.993 Y128.436 E3.72874
G1 X113.624 Y127.987 E3.85451
G1 X112.989 Y127.904 E3.91041
G1 X112.287 Y127.964 E3.97191
G1 X111.757 Y128.136 E4.02055
G1 X111.235 Y128.426 E4.07268
G1 X110.911 Y128.714 E4.11052
G1 X110.449 Y128.413 E4.15865
G1 X109.402 Y127.566 E4.27621
G1 X108.45 Y126.614 E4.39373
G1 X107.614 Y125.581 E4.50973
G1 X107.306 Y125.109 E4.55893
G1 X107.627 Y124.721 E4.60289
G1 X107.767 Y124.486 E4.62677
G1 X108 Y123.912 E4.68085
G1 X108.078 Y123.46 E4.72089
G1 X108.102 Y122.798 E4.77872
G1 X107.995 Y122.257 E4.82686
G1 X107.566 Y120.993 E4.94338
G1 X107.326 Y119.968 E5.03527
G1 X107.187 Y118.925 E5.12712
G1 X107.149 Y117.87 E5.21927
G1 X107.228 Y116.724 E5.31954
G1 X107.419 Y115.379 E5.43813
G1 X107.391 Y114.82 E5.48699
G1 X107.332 Y114.491 E5.51617
G1 X107.149 Y113.999 E5.56199
G1 X106.982 Y113.67 E5.5942
G1 X106.601 Y113.182 E5.64824
G1 X106.235 Y112.879 E5.68972
G1 X106.473 Y112.32 E5.74275
G1 X107.161 Y111.098 E5.86516
G1 X107.978 Y109.958 E5.98759
G1 X108.914 Y108.914 E6.10999
G1 X109.958 Y107.978 E6.23239
G1 X111.098 Y107.161 E6.35482
G1 X112.319 Y106.474 E6.47712
G1 X112.875 Y106.237 E6.52988
G1 X113.201 Y106.619 E6.57372
G1 X113.486 Y106.847 E6.60558
G1 X114.141 Y107.223 E6.67151
G1 X114.76 Y107.388 E6.72743
G1 X115.564 Y107.41 E6.79764
G1 X116.851 Y107.209 E6.91135
G1 X117.903 Y107.147 E7.00334
G1 X118.956 Y107.188 E7.09533
G1 X119.37 Y107.245 E7.13181
G1 X118.813 Y106.585 F24000
;TYPE:External perimeter
G1 F1800
G1 X119.068 Y106.598 E7.1541
G1 X120.166 Y106.754 E7.25091
G1 X121.245 Y107.016 E7.34783
G1 X122.511 Y107.442 E7.46443
G1 X123.127 Y107.518 E7.51861
