; generated by PrusaSlicer 2.6.1+linux-x64-GTK3 on 2023-11-21 at 00:40:40 UTC

; 

; external perimeters extrusion width = 0.45mm
; perimeters extrusion width = 0.60mm
; infill extrusion width = 0.60mm
; solid infill extrusion width = 0.60mm
; top infill extrusion width = 0.60mm
; first layer extrusion width = 0.40mm

;TYPE:Custom
; M190 R30 ; Because of probe temperature drift,
; M109 R30 ; Let the beds and hotend cool down before homing the axis

G28 ; home all axes
G1 Z100.0 F3000 ; Raise head above brush
M190 S65 ; set bed temperature and wait for it to be reached
M109 S230 ; set hot end temp and wait for it

; Brush any crap off the nozzle
G1 X232.0 Y0.0 F3000 ; Goto Start of movement
G1 Z19.0 F3000 ; Lower into brush
G1 X221.0 Y2.0 F3000 ; Goto Start of movement
G1 X229.0 Y4.0 F3000 ; 
G1 X221.0 Y6.0 F3000 ; 
G1 X229.0 Y8.0 F3000 ; 
G1 X221.0 Y10.0 F3000 ;
G1 X229.0 Y12.0 F3000 ;
G1 X221.0 Y14.0 F3000 ;
G1 X229.0 Y16.0 F3000 ;
G1 X221.0 Y18.0 F3000 ;
G1 X229.0 Y20.0 F3000 ;
G1 X221.0 Y22.0 F3000 ;
G1 X229.0 Y24.0 F3000 ;
G1 X221.0 Y26.0 F3000 ;
G1 X229.0 Y28.0 F3000 ;
G1 X221.0 Y30.0 F3000 ;
G1 X229.0 Y28.0 F3000 ;
G1 X221.0 Y26.0 F3000 ;
G1 X229.0 Y24.0 F3000 ;
G1 X221.0 Y22.0 F3000 ;
G1 X229.0 Y20.0 F3000 ;
G1 X221.0 Y18.0 F3000 ;
G1 X229.0 Y16.0 F3000 ;
G1 X221.0 Y14.0 F3000 ;
G1 X229.0 Y12.0 F3000 ;
G1 X221.0 Y10.0 F3000 ;
G1 X229.0 Y8.0 F3000 ; 
G1 X221.0 Y6.0 F3000 ; 
G1 X229.0 Y4.0 F3000 ; 
G1 X221.0 Y2.0 F3000 ; 
G1 X229.0 Y0.0 F3000 ; 
G1 X225.0 Y0.0 F3000 ; 
G1 X225.0 Y30.0 F5000 ; 
G1 X225.0 Y0.0 F5000 ; 
G1 X225.0 Y30.0 F5000 ; 
G1 X225.0 Y0.0 F5000 ; 
G1 X225.0 Y30.0 F5000 ; 

; Do a purge line to prime the extruder
G92 E0 ;Reset Extruder
G1 X227.0 Y80.0 F5000 ; Goto Start of purge
G1 Z0.28 F5000 ;Move Head to start height
G1 X227.0 Y230.0 Z0.28 F1500.0 E15; Draw first line
G1 X226.7 Y230.0 Z0.28 F5000.0 ;Move to side a little
G1 X226.7 Y80.0 Z0.28 F1500.0 E30; Draw the second line
G1 Z0.4 F5000; Move Z Axis Up
G1 Y120 F1500; Wipe to the back
G1 X117.5 Y117.5 Z27.0 F5000 ; Raise head above brush
G92 E0 ;Reset Extruder
G21 ; set units to millimeters
G90 ; use absolute coordinates
M82 ; use absolute distances for extrusion
G92 E0
; Filament gcode
SET_PRESSURE_ADVANCE ADVANCE=0.063
M107
;LAYER_CHANGE
;Z:0.35
;HEIGHT:0.35
G1 Z.35 F24000
G1 E-.1 F2400
G92 E0
G1 X121.787 Y125.99 F24000
G1 E.1 F2400
;TYPE:Perimeter
;WIDTH:0.4
G1 F1800
G1 X122.093 Y125.972 E.11449
G1 X125.964 Y125.99 E.2975
G1 X129.519 Y125.982 E.46557
G1 X129.499 Y128.221 E.57142
G1 X129.414 Y129.031 E.60992
G1 X129.171 Y129.778 E.64706
G1 X128.778 Y130.458 E.68419
G1 X128.253 Y131.042 E.72132
G1 X127.617 Y131.504 E.75848
G1 X126.9 Y131.823 E.79558
G1 X126.351 Y131.94 E.82212
G1 X125.725 Y132.01 E.8519
G1 X123.752 Y132.01 E.94517
G1 X121.599 Y131.899 E1.04709
G1 X119.482 Y131.568 E1.14839
G1 X117.411 Y131.021 E1.24966
G1 X115.407 Y130.264 E1.35093
G1 X113.492 Y129.304 E1.4522
G1 X111.684 Y128.15 E1.5536
G1 X109.993 Y126.832 E1.65496
G1 X109.154 Y126.014 E1.71036
G1 X108.277 Y124.991 E1.77406
G1 X107.499 Y123.884 E1.83803
G1 X106.8 Y122.656 E1.90483
G1 X106.206 Y121.331 E1.97348
G1 X105.852 Y120.267 E2.02649
G1 X105.613 Y119.173 E2.07943
G1 X105.494 Y118.06 E2.13235
G1 X105.494 Y116.94 E2.1853
G1 X105.613 Y115.827 E2.23822
G1 X105.852 Y114.733 E2.29116
G1 X106.136 Y113.878 E2.33375
G1 X106.377 Y113.25 E2.36555
G1 X107.032 Y111.905 E2.43627
G1 X107.322 Y111.402 E2.46372
G1 X108.111 Y110.229 E2.53055
G1 X109.001 Y109.152 E2.5966
G1 X109.995 Y108.166 E2.66279
G1 X111.684 Y106.85 E2.76401
G1 X113.492 Y105.696 E2.86541
G1 X115.407 Y104.736 E2.96668
G1 X117.411 Y103.979 E3.06795
G1 X119.482 Y103.432 E3.16922
G1 X121.599 Y103.101 E3.27052
G1 X123.751 Y102.99 E3.37239
G1 X125.924 Y103.001 E3.47512
G1 X126.516 Y103.074 E3.50332
G1 X127.267 Y103.318 E3.54065
G1 X127.947 Y103.71 E3.57776
G1 X128.531 Y104.236 E3.61492
G1 X128.993 Y104.871 E3.65204
G1 X129.312 Y105.589 E3.68918
G1 X129.44 Y106.189 E3.71818
G1 X129.499 Y106.766 E3.7456
G1 X129.515 Y108.995 E3.85098
G1 X129.486 Y109.031 E3.85317
G1 X121.727 Y109.023 E4.21998
G1 X121.369 Y109.152 E4.23797
G1 X121.091 Y109.462 E4.25766
G1 X121.007 Y109.752 E4.27193
G1 X121.005 Y124.929 E4.98943
G1 X121.024 Y125.344 E5.00907
G1 X121.223 Y125.715 E5.02897
G1 X121.406 Y125.867 E5.04022
G1 X121.73 Y125.972 E5.05632
G1 X121.485 Y125.523 F24000
;TYPE:External perimeter
G1 F1800
G1 X121.811 Y125.663 E5.07309
G1 X122.074 Y125.647 E5.08555
G1 X125.966 Y125.665 E5.26955
G1 X129.482 Y125.646 E5.43577
G1 X129.748 Y125.724 E5.44887
G1 X129.797 Y125.798 E5.45307
G1 X129.844 Y125.949 E5.46055
G1 X129.824 Y128.24 E5.56886
G1 X129.733 Y129.099 E5.6097
G1 X129.47 Y129.911 E5.65005
G1 X129.043 Y130.65 E5.6904
G1 X128.471 Y131.285 E5.7308
G1 X127.781 Y131.787 E5.77114
G1 X127.001 Y132.134 E5.8115
G1 X126.162 Y132.312 E5.85205
G1 X125.734 Y132.335 E5.87231
G1 X123.744 Y132.335 E5.96639
G1 X121.566 Y132.222 E6.06949
G1 X119.416 Y131.887 E6.17236
G1 X117.312 Y131.331 E6.27524
G1 X115.276 Y130.562 E6.37813
G1 X113.331 Y129.587 E6.48099
G1 X111.496 Y128.416 E6.5839
G1 X109.779 Y127.077 E6.68684
G1 X108.917 Y126.236 E6.74377
G1 X108.021 Y125.19 E6.80888
G1 X107.225 Y124.058 E6.8743
G1 X106.51 Y122.803 E6.94258
G1 X105.903 Y121.449 E7.01273
G1 X105.538 Y120.353 E7.06734
G1 X105.292 Y119.225 E7.12192
G1 X105.169 Y118.077 E7.1765
G1 X105.169 Y116.923 E7.23106
G1 X105.292 Y115.775 E7.28564
G1 X105.538 Y114.647 E7.34022
G1 X105.828 Y113.776 E7.38362
G1 X106.081 Y113.117 E7.41699
G1 X106.745 Y111.753 E7.48871
G1 X107.046 Y111.231 E7.5172
G1 X107.85 Y110.034 E7.58537
G1 X108.761 Y108.932 E7.65296
G1 X109.78 Y107.922 E7.72079
G1 X111.496 Y106.584 E7.82366
G1 X113.331 Y105.413 E7.92657
G1 X115.276 Y104.438 E8.02943
G1 X117.312 Y103.669 E8.13232
G1 X119.416 Y103.113 E8.2352
G1 X121.566 Y102.778 E8.33807
G1 X123.743 Y102.665 E8.44113
G1 X125.945 Y102.676 E8.54523
G1 X126.587 Y102.755 E8.57581
G1 X127.4 Y103.019 E8.61622
G1 X128.139 Y103.446 E8.65657
G1 X128.774 Y104.017 E8.69694
G1 X129.276 Y104.708 E8.73732
G1 X129.623 Y105.488 E8.77768
G1 X129.757 Y106.121 E8.80827
G1 X129.824 Y106.756 E8.83846
G1 X129.84 Y109.102 E8.94937
G1 X129.742 Y109.279 E8.95893
G1 X129.549 Y109.356 E8.96875
G1 X122.245 Y109.353 E9.31405
G1 X121.903 Y109.335 E9.33024
G1 X121.614 Y109.389 E9.34414
G1 X121.414 Y109.561 E9.35661
G1 X121.322 Y109.832 E9.37014
G1 X121.342 Y110.086 E9.38219
G1 X121.33 Y125.209 E10.09714
G1 X121.458 Y125.469 E10.11084
G1 X121.391 Y125.865 F24000
G1 E10.01084 F2400
G92 E0
G1 X126.738 Y103.248 F24000
G1 E.1 F2400
;TYPE:Solid infill
;WIDTH:0.400253
G1 F1800
G1 X129.019 Y105.529 E.25262
G1 X129.079 Y105.665 E.25965
G1 X129.183 Y106.153 E.28326
G1 X126.326 Y103.296 E.47442
G1 X125.815 Y103.244 E.49872
G1 X129.25 Y106.68 E.72859
G1 X129.258 Y107.147 E.75069
G1 X125.352 Y103.242 E1.01201
G1 X124.89 Y103.24 E1.03387
G1 X129.261 Y107.611 E1.32633
G1 X129.265 Y108.074 E1.34824
G1 X124.428 Y103.237 E1.67188
G1 X123.966 Y103.235 E1.69374
G1 X129.268 Y108.537 E2.0485
G1 X129.27 Y108.787 E2.06033
G1 X129.058 Y108.787 E2.07036
G1 X123.521 Y103.25 E2.44084
G1 X123.083 Y103.272 E2.46159
G1 X128.598 Y108.787 E2.8306
G1 X128.138 Y108.787 E2.85236
G1 X122.645 Y103.293 E3.21993
G1 X122.207 Y103.315 E3.24068
G1 X127.678 Y108.787 E3.60678
G1 X127.218 Y108.786 E3.62854
G1 X121.769 Y103.337 E3.99313
G1 X121.358 Y103.386 E4.01271
G1 X126.758 Y108.786 E4.37402
G1 X126.298 Y108.786 E4.39578
G1 X120.96 Y103.448 E4.75294
G1 X120.562 Y103.51 E4.772
G1 X125.838 Y108.786 E5.12502
G1 X125.378 Y108.786 E5.14678
G1 X120.165 Y103.572 E5.49561
G1 X119.767 Y103.634 E5.51467
G1 X124.918 Y108.785 E5.85932
G1 X124.458 Y108.785 E5.88108
G1 X119.383 Y103.71 E6.22065
G1 X119.019 Y103.806 E6.23846
G1 X123.998 Y108.785 E6.5716
G1 X123.538 Y108.785 E6.59336
G1 X118.655 Y103.902 E6.92008
G1 X118.292 Y103.998 E6.93784
G1 X123.078 Y108.785 E7.2581
G1 X122.618 Y108.785 E7.27986
G1 X117.928 Y104.094 E7.5937
G1 X117.564 Y104.19 E7.61151
G1 X122.158 Y108.784 E7.91889
G1 X121.743 Y108.77 E7.93854
G1 X121.697 Y108.783 E7.9408
G1 X117.224 Y104.31 E8.24009
G1 X116.89 Y104.436 E8.25698
G1 X121.341 Y108.887 E8.5548
G1 X121.224 Y108.956 E8.56123
G1 X121.084 Y109.09 E8.5704
G1 X116.557 Y104.562 E8.87333
G1 X116.223 Y104.688 E8.89022
G1 X120.879 Y109.344 E9.20175
G1 X120.777 Y109.702 E9.21936
G1 X115.889 Y104.814 E9.54642
G1 X115.555 Y104.94 E9.56331
G1 X120.773 Y110.158 E9.91245
G1 X120.773 Y110.618 E9.93421
G1 X115.245 Y105.09 E10.30409
G1 X114.939 Y105.243 E10.32028
G1 X120.772 Y111.077 E10.7106
G1 X120.772 Y111.537 E10.73236
G1 X114.632 Y105.397 E11.14319
G1 X114.326 Y105.55 E11.15938
G1 X120.772 Y111.996 E11.59068
G1 X120.771 Y112.455 E11.6124
G1 X114.02 Y105.704 E12.06411
G1 X113.713 Y105.857 E12.08034
G1 X120.771 Y112.915 E12.55259
G1 X120.771 Y113.374 E12.57431
G1 X113.424 Y106.028 E13.06586
G1 X113.144 Y106.207 E13.08158
G1 X120.77 Y113.834 E13.59187
G1 X120.77 Y114.293 E13.61359
G1 X112.863 Y106.386 E14.14265
G1 X112.582 Y106.565 E14.15841
G1 X120.769 Y114.753 E14.70623
G1 X120.769 Y115.212 E14.72795
G1 X112.301 Y106.744 E15.29454
G1 X112.021 Y106.924 E15.31029
G1 X120.769 Y115.672 E15.89562
G1 X120.768 Y116.131 E15.91734
G1 X111.747 Y107.109 E16.52097
G1 X111.488 Y107.311 E16.53651
G1 X120.768 Y116.59 E17.1574
G1 X120.768 Y117.05 E17.17916
G1 X111.23 Y107.512 E17.81735
G1 X110.972 Y107.714 E17.83285
G1 X120.767 Y117.509 E18.48823
G1 X120.767 Y117.969 E18.50999
G1 X110.713 Y107.915 E19.1827
G1 X110.455 Y108.117 E19.1982
G1 X120.766 Y118.428 E19.88811
G1 X120.766 Y118.888 E19.90987
G1 X110.196 Y108.318 E20.61711
G1 X109.961 Y108.543 E20.6325
G1 X120.766 Y119.347 E21.35543
G1 X120.765 Y119.807 E21.37719
G1 X109.73 Y108.772 E22.11554
G1 X109.499 Y109.001 E22.13093
G1 X120.765 Y120.266 E22.8847
G1 X120.765 Y120.726 E22.90646
G1 X109.269 Y109.229 E23.67569
G1 X109.052 Y109.472 E23.6911
G1 X120.764 Y121.185 E24.47478
G1 X120.764 Y121.644 E24.4965
G1 X108.844 Y109.724 E25.29407
G1 X108.636 Y109.976 E25.30953
G1 X120.764 Y122.104 E26.12101
G1 X120.763 Y122.563 E26.14273
G1 X108.428 Y110.228 E26.96806
G1 X108.229 Y110.489 E26.98359
G1 X120.763 Y123.023 E27.82224
G1 X120.762 Y123.482 E27.84396
G1 X108.044 Y110.764 E28.69492
G1 X107.86 Y111.039 E28.71057
G1 X120.762 Y123.942 E29.57387
G1 X120.762 Y124.401 E29.59559
G1 X107.675 Y111.314 E30.47124
G1 X107.493 Y111.593 E30.487
G1 X120.907 Y125.007 E31.38453
G1 E31.28453 F2400
G92 E0
G1 X128.869 Y126.071 F24000
G1 E.1 F2400
G1 F1800
G1 X129.271 Y126.473 E.1269
G1 X129.267 Y126.929 E.14848
G1 X128.558 Y126.219 E.19595
G1 X128.1 Y126.222 E.21762
G1 X129.263 Y127.384 E.2954
G1 X129.259 Y127.84 E.31698
G1 X127.643 Y126.224 E.42511
G1 X127.186 Y126.227 E.44673
G1 X129.247 Y128.288 E.58463
G1 X129.203 Y128.704 E.60442
G1 X126.728 Y126.229 E.77002
G1 X126.271 Y126.232 E.79164
G1 X129.136 Y129.097 E.98334
G1 X129.024 Y129.444 E1.00059
G1 X125.812 Y126.233 E1.21547
G1 X125.35 Y126.231 E1.23733
G1 X128.893 Y129.773 E1.47436
G1 X128.724 Y130.065 E1.49032
G1 X124.888 Y126.229 E1.74699
G1 X124.426 Y126.226 E1.76885
G1 X128.549 Y130.349 E2.04472
G1 X128.331 Y130.591 E2.06013
G1 X123.964 Y126.224 E2.35233
G1 X123.502 Y126.222 E2.37419
G1 X128.113 Y130.833 E2.68271
G1 X127.852 Y131.032 E2.69824
G1 X123.04 Y126.22 E3.02021
G1 X122.578 Y126.218 E3.04207
G1 X127.586 Y131.225 E3.37712
G1 X127.495 Y131.292 E3.38247
G1 X127.286 Y131.385 E3.39329
G1 X121.982 Y126.082 E3.74815
G1 E3.64815 F2400
G92 E0
G1 X127.078 Y131.637 F24000
G1 E.1 F2400
G1 F1800
G1 X121.639 Y126.198 E.46392
G1 X121.378 Y126.118 E.47684
G1 X121.148 Y125.989 E.48932
G1 X121.027 Y125.861 E.49765
G1 X120.855 Y125.568 E.51372
G1 X120.789 Y125.411 E.52178
G1 X120.778 Y125.337 E.52532
G1 X107.325 Y111.884 E1.42546
G1 X107.167 Y112.186 E1.44159
G1 X126.616 Y131.635 E2.74292
G1 X126.237 Y131.715 E2.76125
G1 X107.016 Y112.495 E4.04729
G1 X106.865 Y112.804 E4.06356
G1 X125.822 Y131.761 E5.33197
G1 X125.368 Y131.766 E5.35345
G1 X106.715 Y113.113 E6.60152
G1 X106.568 Y113.426 E6.61788
G1 X124.908 Y131.766 E7.84501
G1 X124.448 Y131.766 E7.86677
G1 X106.435 Y113.753 E9.07202
G1 X106.32 Y114.098 E9.08923
G1 X123.988 Y131.766 E10.27139
G1 X123.516 Y131.754 E10.29373
G1 X106.205 Y114.443 E11.45201
G1 X106.09 Y114.788 E11.46922
G1 X123.031 Y131.729 E12.60274
G1 X122.546 Y131.704 E12.62572
G1 X106.007 Y115.164 E13.73238
G1 X105.925 Y115.542 E13.75068
G1 X122.062 Y131.679 E14.8304
G1 X121.571 Y131.648 E14.85368
G1 X105.848 Y115.925 E15.9057
G1 X105.803 Y116.34 E15.92545
G1 X121.026 Y131.563 E16.94402
G1 X120.481 Y131.478 E16.97012
G1 X105.759 Y116.755 E17.9552
G1 X105.737 Y117.194 E17.976
G1 X119.936 Y131.392 E18.92602
G1 X119.37 Y131.287 E18.95326
G1 X105.737 Y117.654 E19.86544
G1 X105.745 Y118.121 E19.88754
G1 X118.746 Y131.122 E20.75744
G1 X118.121 Y130.957 E20.78802
G1 X105.801 Y118.637 E21.61235
G1 X105.859 Y119.154 E21.63696
G1 X117.496 Y130.792 E22.41562
G1 X116.759 Y130.514 E22.45289
G1 X105.987 Y119.742 E23.17364
G1 X106.087 Y120.203 E23.19596
G1 X106.137 Y120.352 E23.2034
G1 X116.02 Y130.235 E23.86467
G1 X115.505 Y130.04 E23.89072
G1 X115.225 Y129.9 E23.90553
G1 X106.366 Y121.041 E24.49828
G1 X106.433 Y121.243 E24.50835
G1 X106.698 Y121.833 E24.53895
G1 X114.303 Y129.438 E25.0478
G1 X113.612 Y129.092 E25.08436
G1 X113.294 Y128.889 E25.10221
G1 X107.107 Y122.702 E25.51618
G1 X107.721 Y123.776 E25.57471
G1 X112.024 Y128.079 E25.86262
G1 X111.824 Y127.951 E25.87385
G1 X110.154 Y126.648 E25.97407
G1 X108.208 Y124.723 E26.10358
M106 S51
;LAYER_CHANGE
;Z:0.65
;HEIGHT:0.3
G1 Z.65 F24000
M104 S225 ; set temperature
M140 S60 ; set bed temperature
G1 E26.00358 F2400
G92 E0
G1 X128.722 Y126.119 F24000
G1 E.1 F2400
;TYPE:Overhang perimeter
;WIDTH:0.4
;HEIGHT:0.4
M106 S127.5
G1 F9000
G1 X128.995 Y126.118 E.11426
G1 X129.01 Y126.073 E.11674
G1 X129.412 Y126.073 E.13774
G1 X129.412 Y126.861 E.17891
G1 X129.862 Y126.973 E.20314
G1 X129.862 Y125.622 E.27372
G1 X128.687 Y125.624 E.33511
G1 X128.672 Y125.669 E.33759
G1 X128.482 Y125.669 E.34752
M106 S51
G1 E.24752 F2400
G92 E0
G1 X128.69 Y108.879 F24000
G1 E.1 F2400
M106 S127.5
G1 F9000
G1 X129.019 Y108.879 E.11719
G1 X129.033 Y108.924 E.11965
G1 X129.406 Y108.924 E.13914
G1 X129.407 Y108.498 E.1614
G1 X129.362 Y108.481 E.16391
G1 X129.363 Y108.336 E.17149
G1 X129.813 Y107.98 E.20147
G1 X129.813 Y108.173 E.21155
G1 X129.858 Y108.19 E.21406
G1 X129.856 Y109.374 E.27592
G1 X128.704 Y109.374 E.33611
G1 X128.69 Y109.329 E.33857
G1 X128.501 Y109.329 E.34844
M106 S51
G1 E.24844 F2400
G92 E0
G1 X130.221 Y126.75 F24000
G1 E.1 F2400
;TYPE:Perimeter
;WIDTH:0.6
;HEIGHT:0.3
G1 F6000
G1 X130.216 Y128.307 E.20402
G1 X130.148 Y129.014 E.25147
G1 X130 Y129.634 E.29405
G1 X129.75 Y130.232 E.33735
G1 X129.464 Y130.728 E.3756
G1 X129.068 Y131.248 E.41927
G1 X128.589 Y131.699 E.46322
G1 X128.14 Y132.025 E.50029
G1 X127.561 Y132.343 E.54442
G1 X126.935 Y132.561 E.5887
G1 X126.4 Y132.675 E.62524
G1 X125.721 Y132.731 E.67075
G1 X123.756 Y132.731 E.80202
G1 X121.525 Y132.616 E.95126
G1 X119.335 Y132.274 E1.09934
G1 X117.191 Y131.708 E1.24748
G1 X115.118 Y130.924 E1.39554
G1 X113.136 Y129.931 E1.54364
G1 X111.266 Y128.738 E1.69182
G1 X109.522 Y127.367 E1.84002
G1 X108.639 Y126.505 E1.92246
G1 X107.715 Y125.43 E2.01716
G1 X106.895 Y124.268 E2.11217
G1 X106.159 Y122.981 E2.21121
G1 X105.532 Y121.596 E2.31278
G1 X105.154 Y120.459 E2.39283
G1 X104.899 Y119.289 E2.47283
G1 X104.771 Y118.099 E2.55279
G1 X104.771 Y116.901 E2.63282
G1 X104.899 Y115.711 E2.71278
G1 X105.154 Y114.541 E2.79278
G1 X105.459 Y113.624 E2.85734
G1 X105.712 Y112.969 E2.90425
G1 X106.404 Y111.557 E3.0093
G1 X106.707 Y111.034 E3.04968
G1 X107.539 Y109.8 E3.14911
G1 X108.477 Y108.669 E3.24727
G1 X109.524 Y107.632 E3.34572
G1 X111.266 Y106.262 E3.49377
G1 X113.136 Y105.069 E3.64195
G1 X115.118 Y104.076 E3.79005
G1 X117.191 Y103.292 E3.93811
G1 X119.335 Y102.726 E4.08625
G1 X121.525 Y102.384 E4.23433
G1 X123.756 Y102.269 E4.38357
G1 X125.818 Y102.274 E4.52132
G1 X126.478 Y102.337 E4.56561
G1 X127.123 Y102.489 E4.60988
G1 X127.734 Y102.745 E4.65414
G1 X128.212 Y103.021 E4.69101
G1 X128.737 Y103.421 E4.7351
