; generated by PrusaSlicer 2.6.1+linux-x64-GTK3 on 2023-10-04 at 13:57:40 UTC

; 

; external perimeters extrusion width = 0.45mm
; perimeters extrusion width = 0.60mm
; infill extrusion width = 0.60mm
; solid infill extrusion width = 0.60mm
; top infill extrusion width = 0.60mm
; first layer extrusion width = 0.40mm

M190 S65 ; set bed temperature and wait for it to be reached
M104 S220 ; set temperature
;TYPE:Custom
G28 ; home all axes
G1 Z5 F5000 ; lift nozzle
M109 S220 ; set temperature and wait for it to be reached
G21 ; set units to millimeters
G90 ; use absolute coordinates
M82 ; use absolute distances for extrusion
G92 E0
; Filament gcode
M107
;LAYER_CHANGE
;Z:0.25
;HEIGHT:0.25
G1 Z.25 F24000
G1 E-.1 F2400
G92 E0
G1 X74.81 Y97.06 F24000
G1 E.1 F2400
;TYPE:Skirt/Brim
;WIDTH:0.4
G1 F4500
G1 X76.817 Y95.616 E.18901
G1 X80.25 Y94.807 E.31598
G1 X144.75 Y94.807 E2.63791
G1 X147.191 Y95.205 E2.72694
G1 X150.19 Y97.06 E2.85388
G1 X152.19 Y99.06 E2.9557
G1 X153.634 Y101.067 E3.04471
G1 X154.443 Y104.5 E3.17168
G1 X154.443 Y112.5 E3.45967
G1 X154.045 Y114.941 E3.5487
G1 X152.894 Y117.129 E3.6377
G1 X151.017 Y118.901 E3.73062
G1 X136.017 Y128.901 E4.3796
G1 X133.766 Y129.924 E4.46861
G1 X131.75 Y130.193 E4.54183
G1 X93.25 Y130.193 E5.92779
G1 X90.809 Y129.795 E6.01682
G1 X88.983 Y128.901 E6.09001
G1 X73.983 Y118.901 E6.73899
G1 X72.173 Y117.216 E6.82801
G1 X70.99 Y115.045 E6.91701
G1 X70.557 Y112.5 E7.00994
G1 X70.557 Y104.5 E7.29793
G1 X70.955 Y102.059 E7.38696
G1 X72.81 Y99.06 E7.5139
G1 X74.768 Y97.103 E7.61356
G1 X75.013 Y97.348 F24000
G1 F4500
G1 X77.021 Y95.901 E7.70266
G1 X80.25 Y95.154 E7.82197
G1 X144.75 Y95.154 E10.1439
G1 X147.133 Y95.551 E10.23087
G1 X149.945 Y97.305 E10.35018
G1 X151.945 Y99.305 E10.452
G1 X153.349 Y101.271 E10.53897
G1 X154.096 Y104.5 E10.65828
G1 X154.096 Y112.5 E10.94627
G1 X153.699 Y114.883 E11.03324
G1 X152.55 Y117.008 E11.1202
G1 X150.825 Y118.613 E11.20502
G1 X135.825 Y128.613 E11.854
G1 X133.622 Y129.604 E11.94096
G1 X131.75 Y129.846 E12.00891
G1 X93.25 Y129.846 E13.39487
G1 X90.867 Y129.449 E13.48184
G1 X89.175 Y128.613 E13.54978
G1 X74.175 Y118.613 E14.19876
G1 X72.412 Y116.96 E14.28576
G1 X71.281 Y114.825 E14.37274
G1 X70.904 Y112.5 E14.45753
G1 X70.904 Y104.5 E14.74552
G1 X71.301 Y102.117 E14.83249
G1 X73.055 Y99.305 E14.9518
G1 X74.97 Y97.39 E15.04929
G1 E14.94929 F2400
G92 E0
G1 X142.694 Y105.336 F24000
G1 E.1 F2400
;TYPE:Perimeter
;WIDTH:0.399999
G1 F1500
G1 X142.248 Y104.733 E.127
G1 X141.851 Y104.357 E.14668
G1 X141.471 Y104.085 E.1635
G1 X144.093 Y104.085 E.25789
G1 X145.165 Y105.157 E.31247
G1 X145.165 Y110.915 E.51975
G1 X141.499 Y110.91 E.65172
G1 X142.176 Y110.344 E.68349
G1 X142.718 Y109.648 E.71525
G1 X143.1 Y108.851 E.74707
G1 X143.246 Y108.321 E.76686
G1 X143.3 Y107.989 E.77897
G1 X143.329 Y107.447 E.79851
G1 X143.311 Y107.111 E.81062
G1 X143.223 Y106.572 E.83028
G1 X143.042 Y106.02 E.85119
G1 X142.773 Y105.442 E.87414
G1 X142.73 Y105.384 E.87674
G1 E.77674 F2400
G92 E0
G1 X141.562 Y111.261 F24000
G1 E.1 F2400
G1 F1500
G1 X140.337 Y111.261 E.1441
;WIDTH:0.427663
G1 X140.037 Y111.247 E.15577
;WIDTH:0.455326
G1 X139.737 Y111.233 E.16831
G1 X139.789 Y111.219 E.17056
;WIDTH:0.4479
G1 X140.566 Y110.995 E.2037
;WIDTH:0.399999
G1 X141.286 Y110.63 E.23276
G1 X141.912 Y110.119 E.26185
G1 X142.412 Y109.486 E.29089
G1 X142.766 Y108.758 E.32003
G1 X142.954 Y107.971 E.34916
G1 X142.969 Y107.167 E.37811
G1 X142.881 Y106.628 E.39777
G1 X142.72 Y106.148 E.416
G1 X142.486 Y105.636 E.43627
G1 X142.01 Y104.984 E.46533
G1 X141.404 Y104.45 E.49441
G1 X140.698 Y104.058 E.52348
;WIDTH:0.444083
G1 X140.313 Y103.921 E.54006
;WIDTH:0.488166
G1 X139.928 Y103.783 E.55853
G1 X140.066 Y103.768 E.5648
;WIDTH:0.45755
G1 X140.204 Y103.753 E.57063
;WIDTH:0.426934
G1 X140.75 Y103.739 E.59182
;WIDTH:0.399999
G1 X144.237 Y103.739 E.71735
G1 X145.511 Y105.013 E.78221
G1 X145.511 Y105.612 E.80377
G1 X145.511 Y111.261 E1.00713
G1 X141.622 Y111.261 E1.14713
G1 E1.04713 F2400
G92 E0
G1 X135.704 Y105.523 F24000
G1 E.1 F2400
G1 F3000
G1 X135.57 Y105.739 E.10915
G1 X135.277 Y106.572 E.14094
G1 X135.171 Y107.448 E.1727
G1 X135.255 Y108.326 E.20445
G1 X135.526 Y109.167 E.23626
G1 X135.973 Y109.93 E.26809
G1 X136.569 Y110.575 E.2997
G1 X137.001 Y110.91 E.31938
G1 X132.433 Y110.915 E.48382
G1 X131.465 Y110.936 E.51868
G1 X130.99 Y111.098 E.53675
G1 X130.616 Y111.376 E.55353
G1 X130.366 Y111.706 E.56843
G1 X130.227 Y112.037 E.58135
G1 X130.165 Y112.473 E.5972
G1 X130.165 Y120.915 E.9011
G1 X94.835 Y120.915 E2.17294
G1 X94.835 Y112.5 E2.47587
G1 X94.83 Y112.338 E2.4817
G1 X94.716 Y111.874 E2.4989
G1 X94.524 Y111.538 E2.51283
G1 X94.212 Y111.226 E2.52871
G1 X93.782 Y110.999 E2.54621
G1 X93.277 Y110.915 E2.56464
G1 X87.999 Y110.91 E2.75464
G1 X88.676 Y110.343 E2.78643
G1 X89.218 Y109.648 E2.81816
G1 X89.599 Y108.852 E2.84993
G1 X89.8 Y107.993 E2.88169
G1 X89.811 Y107.111 E2.91344
G1 X89.633 Y106.247 E2.9452
G1 X89.273 Y105.442 E2.97694
G1 X88.748 Y104.733 E3.0087
G1 X88.351 Y104.357 E3.02838
G1 X87.971 Y104.085 E3.0452
G1 X137.029 Y104.085 E4.81123
G1 X136.649 Y104.357 E4.82805
G1 X136.034 Y104.99 E4.85982
G1 X135.736 Y105.472 E4.88022
G1 X136.56 Y104.94 F24000
G1 F3000
G1 X136.321 Y105.184 E4.89252
G1 X135.891 Y105.868 E4.9216
G1 X135.619 Y106.628 E4.95066
G1 X135.516 Y107.429 E4.97973
G1 X135.588 Y108.233 E5.00879
G1 X135.832 Y109.004 E5.0379
G1 X136.237 Y109.706 E5.06708
G1 X136.779 Y110.3 E5.09603
G1 X137.438 Y110.765 E5.12506
G1 X138.183 Y111.078 E5.15415
;WIDTH:0.432891
G1 X138.446 Y111.153 E5.16493
;WIDTH:0.465782
G1 X138.709 Y111.228 E5.17665
G1 X138.436 Y111.245 E5.18837
;WIDTH:0.432891
G1 X138.163 Y111.261 E5.19915
;WIDTH:0.399999
G1 X131.756 Y111.261 E5.42979
G1 X131.33 Y111.326 E5.4453
G1 X130.996 Y111.503 E5.45891
G1 X130.753 Y111.746 E5.47128
G1 X130.559 Y112.134 E5.4869
G1 X130.511 Y112.473 E5.49923
G1 X130.511 Y121.261 E5.81559
G1 X94.489 Y121.261 E7.11234
G1 X94.489 Y112.5 E7.42773
G1 X94.441 Y112.134 E7.44102
G1 X94.247 Y111.746 E7.45664
G1 X94.004 Y111.503 E7.46901
G1 X93.67 Y111.326 E7.48262
G1 X93.277 Y111.261 E7.49696
G1 X86.837 Y111.261 E7.72879
;WIDTH:0.427663
G1 X86.537 Y111.247 E7.74046
;WIDTH:0.455326
G1 X86.237 Y111.233 E7.753
G1 X86.289 Y111.219 E7.75525
;WIDTH:0.4479
G1 X87.066 Y110.995 E7.78839
;WIDTH:0.399999
G1 X87.786 Y110.63 E7.81745
G1 X88.412 Y110.119 E7.84654
G1 X88.912 Y109.486 E7.87558
G1 X89.265 Y108.76 E7.90464
G1 X89.454 Y107.974 E7.93374
G1 X89.469 Y107.167 E7.9628
G1 X89.311 Y106.375 E7.99187
G1 X88.986 Y105.636 E8.02093
G1 X88.51 Y104.984 E8.04999
G1 X87.904 Y104.45 E8.07907
G1 X87.198 Y104.058 E8.10814
;WIDTH:0.444084
G1 X86.813 Y103.921 E8.12472
;WIDTH:0.488168
G1 X86.428 Y103.783 E8.14319
G1 X86.566 Y103.768 E8.14946
;WIDTH:0.457552
G1 X86.704 Y103.753 E8.15529
;WIDTH:0.426936
G1 X87.25 Y103.739 E8.17648
;WIDTH:0.399999
G1 X137.75 Y103.739 E9.99442
;WIDTH:0.449963
G1 X138.119 Y103.764 E10.00965
;WIDTH:0.499926
G1 X138.489 Y103.789 E10.02685
G1 X138.312 Y103.859 E10.03568
;WIDTH:0.451422
G1 X137.938 Y104.014 E10.05242
;WIDTH:0.425711
G1 X137.564 Y104.168 E10.06806
;WIDTH:0.399999
G1 X136.887 Y104.608 E10.09713
G1 X136.602 Y104.898 E10.11177
G1 E10.01177 F2400
G92 E0
G1 X138.746 Y104.168 F24000
G1 E.1 F2400
G1 F1500
G1 X139.153 Y104.113 E.11478
G1 X139.886 Y104.171 E.14125
G1 X140.587 Y104.386 E.16765
G1 X141.226 Y104.746 E.19405
G1 X141.771 Y105.236 E.22043
G1 X142.199 Y105.83 E.24679
G1 X142.489 Y106.503 E.27317
G1 X142.628 Y107.223 E.29957
G1 X142.609 Y107.952 E.32582
G1 X142.432 Y108.666 E.3523
G1 X142.106 Y109.324 E.37873
G1 X141.648 Y109.895 E.40508
G1 X141.077 Y110.354 E.43145
G1 X140.42 Y110.68 E.45785
G1 X139.709 Y110.858 E.48424
G1 X138.977 Y110.878 E.5106
G1 X138.257 Y110.74 E.53699
G1 X137.584 Y110.451 E.56336
G1 X136.988 Y110.024 E.58975
G1 X136.501 Y109.482 E.61598
G1 X136.138 Y108.842 E.64247
G1 X135.922 Y108.14 E.66891
G1 X135.862 Y107.41 E.69528
G1 X135.961 Y106.684 E.72166
G1 X136.213 Y105.996 E.74804
G1 X136.607 Y105.378 E.77442
G1 X137.125 Y104.86 E.80079
G1 X137.743 Y104.465 E.82719
G1 X138.43 Y104.212 E.85354
G1 X138.686 Y104.177 E.86284
G1 X138.394 Y104.592 F24000
G1 F1500
G1 X138.541 Y104.54 E.86845
G1 X139.19 Y104.457 E.892
G1 X139.849 Y104.516 E.91582
G1 X140.477 Y104.714 E.93952
G1 X141.047 Y105.043 E.96321
G1 X141.533 Y105.487 E.98691
G1 X141.913 Y106.025 E1.01062
G1 X142.167 Y106.632 E1.03431
G1 X142.286 Y107.279 E1.05799
G1 X142.263 Y107.933 E1.08155
G1 X142.098 Y108.574 E1.10538
G1 X141.8 Y109.161 E1.12908
G1 X141.384 Y109.671 E1.15277
G1 X140.867 Y110.079 E1.17648
G1 X140.275 Y110.366 E1.20016
G1 X139.635 Y110.519 E1.22385
G1 X138.977 Y110.532 E1.24754
G1 X138.332 Y110.402 E1.27123
G1 X137.729 Y110.137 E1.29494
G1 X137.198 Y109.748 E1.31864
G1 X136.765 Y109.257 E1.34221
G1 X136.444 Y108.679 E1.36601
G1 X136.256 Y108.048 E1.38971
G1 X136.208 Y107.391 E1.41342
G1 X136.303 Y106.74 E1.4371
G1 X136.535 Y106.124 E1.4608
G1 X136.894 Y105.573 E1.48447
G1 X137.364 Y105.111 E1.50819
G1 X137.921 Y104.762 E1.53185
G1 X138.337 Y104.613 E1.54776
G1 X138.03 Y105.101 F24000
;TYPE:External perimeter
G1 F1500
G1 X138.1 Y105.058 E1.55072
G1 X138.652 Y104.868 E1.57174
G1 X139.228 Y104.801 E1.59262
G1 X139.812 Y104.86 E1.61375
G1 X140.366 Y105.043 E1.63475
G1 X140.868 Y105.34 E1.65575
G1 X141.295 Y105.738 E1.67676
G1 X141.626 Y106.219 E1.69778
G1 X141.846 Y106.76 E1.7188
G1 X141.944 Y107.335 E1.7398
G1 X141.917 Y107.915 E1.7607
G1 X141.764 Y108.481 E1.78181
G1 X141.494 Y108.999 E1.80284
G1 X141.12 Y109.447 E1.82385
G1 X140.658 Y109.803 E1.84485
G1 X140.13 Y110.052 E1.86586
G1 X139.56 Y110.181 E1.8869
G1 X138.977 Y110.185 E1.90789
G1 X138.406 Y110.064 E1.9289
G1 X137.875 Y109.822 E1.94991
G1 X137.407 Y109.472 E1.97095
G1 X137.029 Y109.033 E1.9918
G1 X136.75 Y108.517 E2.01292
G1 X136.59 Y107.955 E2.03396
G1 X136.554 Y107.373 E2.05495
G1 X136.644 Y106.796 E2.07597
G1 X136.857 Y106.252 E2.097
G1 X137.181 Y105.767 E2.118
G1 X137.602 Y105.363 E2.139
G1 X137.979 Y105.132 E2.15492
G1 X138.025 Y105.019 F24000
G1 E2.05492 F2400
G92 E0
G1 X139.737 Y111.233 F24000
G1 E.1 F2400
;TYPE:Perimeter
;WIDTH:0.455326
G1 F3000
G1 X138.977 Y111.243 E.13173
;WIDTH:0.465782
G1 X138.709 Y111.228 E.14323
G1 E.04323 F2400
G92 E0
G1 X138.489 Y103.789 F24000
G1 E.1 F2400
;WIDTH:0.499926
G1 F3000
G1 X138.801 Y103.771 E.1145
;WIDTH:0.464607
G1 X139.114 Y103.754 E.12789
;WIDTH:0.458727
G1 X139.521 Y103.768 E.14504
;WIDTH:0.488166
G1 X139.928 Y103.783 E.16343
G1 E.06343 F2400
G92 E0
G1 X81.752 Y106.723 F24000
G1 E.1 F2400
;WIDTH:0.399999
G1 F1500
G1 X81.689 Y107.111 E.11415
G1 X81.671 Y107.448 E.1263
G1 X81.7 Y107.993 E.14595
G1 X81.755 Y108.327 E.15814
G1 X81.903 Y108.857 E.17795
G1 X82.041 Y109.195 E.19109
G1 X82.471 Y109.927 E.22165
G1 X83.069 Y110.575 E.25339
G1 X83.501 Y110.91 E.27307
G1 X79.835 Y110.915 E.40504
G1 X79.835 Y105.157 E.61232
G1 X80.907 Y104.085 E.6669
G1 X83.529 Y104.085 E.76129
G1 X83.149 Y104.357 E.77811
G1 X82.534 Y104.99 E.80988
G1 X82.162 Y105.547 E.83399
G1 X81.958 Y106.02 E.85253
G1 X81.762 Y106.664 E.87676
G1 E.77676 F2400
G92 E0
G1 X83.435 Y104.577 F24000
G1 E.1 F2400
G1 F1500
G1 X82.821 Y105.184 E.13108
G1 X82.514 Y105.636 E.15075
G1 X82.28 Y106.148 E.17102
G1 X82.119 Y106.628 E.18925
G1 X82.016 Y107.429 E.21832
G1 X82.089 Y108.234 E.24742
G1 X82.347 Y109.032 E.27761
G1 X82.735 Y109.703 E.30551
G1 X83.279 Y110.3 E.33459
G1 X83.938 Y110.765 E.36362
G1 X84.683 Y111.078 E.39271
;WIDTH:0.432891
G1 X84.946 Y111.153 E.40349
;WIDTH:0.465782
G1 X85.209 Y111.228 E.41521
G1 X84.936 Y111.245 E.42693
;WIDTH:0.432891
G1 X84.663 Y111.261 E.43771
;WIDTH:0.399999
G1 X79.489 Y111.261 E.62397
G1 X79.489 Y105.013 E.84889
G1 X80.763 Y103.739 E.91375
G1 X84.25 Y103.739 E1.03928
;WIDTH:0.449963
G1 X84.619 Y103.764 E1.05451
;WIDTH:0.499926
G1 X84.989 Y103.789 E1.07171
G1 X84.812 Y103.859 E1.08054
;WIDTH:0.45142
G1 X84.438 Y104.014 E1.09728
;WIDTH:0.42571
G1 X84.064 Y104.168 E1.11292
;WIDTH:0.399999
G1 X83.486 Y104.544 E1.13774
G1 E1.03774 F2400
G92 E0
G1 X86.692 Y104.265 F24000
G1 E.1 F2400
G1 F1500
G1 X87.087 Y104.386 E.11487
G1 X87.726 Y104.746 E.14127
G1 X88.271 Y105.236 E.16765
G1 X88.699 Y105.83 E.19401
G1 X88.989 Y106.503 E.22039
G1 X89.128 Y107.223 E.24679
G1 X89.108 Y107.956 E.27319
G1 X88.932 Y108.667 E.29956
G1 X88.606 Y109.324 E.32596
G1 X88.148 Y109.895 E.35231
G1 X87.577 Y110.354 E.37868
G1 X86.92 Y110.68 E.40508
G1 X86.209 Y110.858 E.43147
G1 X85.477 Y110.878 E.45783
G1 X84.757 Y110.74 E.48422
G1 X84.084 Y110.451 E.51059
G1 X83.488 Y110.024 E.53698
G1 X82.999 Y109.479 E.56334
G1 X82.653 Y108.87 E.58855
G1 X82.422 Y108.141 E.61608
G1 X82.362 Y107.41 E.64248
G1 X82.461 Y106.684 E.66886
G1 X82.713 Y105.996 E.69524
G1 X83.107 Y105.378 E.72162
G1 X83.625 Y104.86 E.74799
G1 X84.243 Y104.465 E.77439
G1 X84.93 Y104.212 E.80074
G1 X85.653 Y104.113 E.82701
G1 X86.386 Y104.171 E.85348
G1 X86.634 Y104.247 E.86282
G1 X86.201 Y104.502 F24000
G1 F1500
G1 X86.349 Y104.516 E.86817
G1 X86.977 Y104.714 E.89187
G1 X87.547 Y105.043 E.91556
G1 X88.033 Y105.487 E.93926
G1 X88.413 Y106.025 E.96297
G1 X88.667 Y106.632 E.98666
G1 X88.786 Y107.279 E1.01034
G1 X88.762 Y107.937 E1.03404
G1 X88.598 Y108.574 E1.05772
G1 X88.3 Y109.161 E1.08142
G1 X87.884 Y109.671 E1.10511
G1 X87.367 Y110.079 E1.12882
G1 X86.775 Y110.366 E1.1525
G1 X86.135 Y110.519 E1.17619
G1 X85.477 Y110.532 E1.19988
G1 X84.831 Y110.402 E1.2236
G1 X84.229 Y110.137 E1.24728
G1 X83.698 Y109.748 E1.27098
G1 X83.263 Y109.254 E1.29468
G1 X82.959 Y108.708 E1.31718
G1 X82.756 Y108.048 E1.34204
G1 X82.708 Y107.391 E1.36575
G1 X82.803 Y106.74 E1.38943
G1 X83.035 Y106.124 E1.41313
G1 X83.394 Y105.573 E1.4368
G1 X83.864 Y105.111 E1.46052
G1 X84.421 Y104.762 E1.48418
G1 X85.041 Y104.54 E1.50789
G1 X85.69 Y104.457 E1.53144
G1 X86.141 Y104.497 E1.54774
G1 X85.724 Y104.802 F24000
;TYPE:External perimeter
G1 F1500
G1 X86.312 Y104.86 E1.56901
G1 X86.866 Y105.043 E1.59001
G1 X87.368 Y105.34 E1.61101
G1 X87.795 Y105.738 E1.63202
G1 X88.126 Y106.219 E1.65304
G1 X88.346 Y106.76 E1.67406
G1 X88.444 Y107.335 E1.69506
G1 X88.416 Y107.918 E1.71607
G1 X88.264 Y108.482 E1.7371
G1 X87.994 Y108.999 E1.7581
G1 X87.62 Y109.447 E1.77911
G1 X87.158 Y109.803 E1.80011
G1 X86.63 Y110.052 E1.82112
G1 X86.06 Y110.181 E1.84216
G1 X85.477 Y110.185 E1.86315
G1 X84.906 Y110.064 E1.88416
G1 X84.375 Y109.822 E1.90517
G1 X83.907 Y109.472 E1.92621
G1 X83.527 Y109.03 E1.94719
G1 X83.265 Y108.545 E1.96703
G1 X83.09 Y107.955 E1.98918
G1 X83.054 Y107.373 E2.01017
G1 X83.144 Y106.796 E2.03119
G1 X83.357 Y106.252 E2.05222
G1 X83.681 Y105.767 E2.07322
G1 X84.102 Y105.363 E2.09422
G1 X84.6 Y105.058 E2.11524
G1 X85.152 Y104.868 E2.13626
G1 X85.664 Y104.809 E2.15481
G1 X85.921 Y104.453 F24000
G1 X84.989 Y103.789
;TYPE:Perimeter
;WIDTH:0.499926
G1 F3000
G1 X85.301 Y103.771 E2.16931
;WIDTH:0.464607
G1 X85.614 Y103.754 E2.1827
;WIDTH:0.458728
G1 X86.021 Y103.768 E2.19985
;WIDTH:0.488168
G1 X86.428 Y103.783 E2.21824
G1 E2.11824 F2400
G92 E0
G1 X86.237 Y111.233 F24000
G1 E.1 F2400
;WIDTH:0.455326
G1 F3000
G1 X85.477 Y111.243 E.13173
;WIDTH:0.465782
G1 X85.209 Y111.228 E.14323
G1 E.04323 F2400
G92 E0
G1 X130.857 Y113.054 F24000
G1 E.1 F2400
;WIDTH:0.399999
G1 F3000
G1 X130.857 Y121.607 E.4079
G1 X94.143 Y121.607 E1.72956
G1 X94.139 Y112.398 E2.06107
G1 X94.031 Y112.047 E2.07429
G1 X93.796 Y111.78 E2.08709
G1 X93.558 Y111.654 E2.09678
G1 X93.277 Y111.607 E2.10704
G1 X79.143 Y111.607 E2.61585
G1 X79.143 Y104.87 E2.85837
G1 X80.62 Y103.393 E2.93356
G1 X144.38 Y103.393 E5.22884
G1 X145.857 Y104.87 E5.30403
G1 X145.857 Y111.607 E5.54655
G1 X131.58 Y111.619 E6.0605
G1 X131.316 Y111.709 E6.07054
G1 X131.108 Y111.863 E6.07986
G1 X130.924 Y112.14 E6.09183
G1 X130.857 Y112.473 E6.10406
G1 X130.857 Y112.994 E6.12282
G1 X131.204 Y112.689 F24000
G1 F3000
G1 X131.204 Y121.954 E6.45635
G1 X93.796 Y121.954 E7.80299
G1 X93.796 Y112.5 E8.14332
G1 X93.788 Y112.379 E8.14769
G1 X93.692 Y112.161 E8.15626
G1 X93.521 Y112.015 E8.16435
G1 X93.277 Y111.954 E8.1734
G1 X78.796 Y111.954 E8.6947
G1 X78.796 Y104.726 E8.9549
G1 X80.476 Y103.046 E9.04043
G1 X144.524 Y103.046 E11.34608
