; generated by PrusaSlicer 2.6.1+linux-x64-GTK3 on 2023-09-19 at 14:26:41 UTC

; 

; external perimeters extrusion width = 0.45mm
; perimeters extrusion width = 0.60mm
; infill extrusion width = 0.60mm
; solid infill extrusion width = 0.60mm
; top infill extrusion width = 0.60mm
; support material extrusion width = 0.35mm
; first layer extrusion width = 0.40mm

; external perimeters extrusion width = 0.45mm
; perimeters extrusion width = 0.60mm
; infill extrusion width = 0.60mm
; solid infill extrusion width = 0.60mm
; top infill extrusion width = 0.60mm
; support material extrusion width = 0.35mm
; first layer extrusion width = 0.40mm

M190 S65 ; set bed temperature and wait for it to be reached
M104 S220 ; set temperature
;TYPE:Custom
G28 ; home all axes
G1 Z5 F5000 ; lift nozzle
M109 S220 ; set temperature and wait for it to be reached
G21 ; set units to millimeters
G90 ; use absolute coordinates
M82 ; use absolute distances for extrusion
G92 E0
; Filament gcode
M107
;LAYER_CHANGE
;Z:0.25
;HEIGHT:0.25
G1 Z.25 F30000
G1 E-.1 F2400
G92 E0
G1 X92.538 Y74.027 F30000
G1 E.1 F2400
;TYPE:Skirt/Brim
;WIDTH:0.4
G1 F4500
G1 X94.044 Y72.696 E.17235
G1 X95.303 Y71.972 E.22463
G1 X97.608 Y71.298 E.31108
G1 X98.806 Y71.204 E.35434
G1 X129.156 Y71.204 E1.44691
G1 X130.353 Y71.298 E1.49013
G1 X132.732 Y72.006 E1.57948
G1 X133.917 Y72.696 E1.62884
G1 X135.423 Y74.026 E1.70117
G1 X136.605 Y75.766 E1.77689
G1 X137.305 Y77.637 E1.8488
G1 X137.449 Y78.386 E1.87626
G1 X137.543 Y79.585 E1.91956
G1 X137.536 Y105.049 E2.83623
G1 X136.743 Y158.733 E4.769
G1 X136.614 Y160.045 E4.81646
G1 X135.976 Y162.122 E4.89468
G1 X135.251 Y163.381 E4.94698
G1 X133.921 Y164.887 E5.01931
G1 X132.181 Y166.069 E5.09503
G1 X130.311 Y166.77 E5.16692
G1 X129.562 Y166.913 E5.19437
G1 X128.362 Y167.007 E5.2377
G1 X98.01 Y167.001 E6.33034
G1 X96.888 Y166.923 E6.37083
G1 X95.861 Y166.717 E6.40854
G1 X94.611 Y166.278 E6.45623
G1 X93.642 Y165.77 E6.49562
G1 X92.811 Y165.191 E6.53208
G1 X92.057 Y164.516 E6.56851
G1 X91.441 Y163.82 E6.60197
G1 X90.863 Y162.991 E6.63835
G1 X90.472 Y162.272 E6.66781
G1 X90.024 Y161.153 E6.7112
G1 X89.777 Y160.171 E6.74765
G1 X89.645 Y159.084 E6.78707
G1 X89.625 Y133.156 E7.72045
G1 X90.419 Y79.472 E9.65322
G1 X90.656 Y77.637 E9.71983
G1 X91.356 Y75.766 E9.79174
G1 X92.504 Y74.076 E9.86529
G1 X92.788 Y74.269 F30000
G1 F4500
G1 X94.238 Y72.984 E9.93504
G1 X95.451 Y72.285 E9.98544
G1 X97.662 Y71.64 E10.06835
G1 X98.806 Y71.55 E10.10966
G1 X129.156 Y71.55 E11.20223
G1 X130.299 Y71.64 E11.2435
G1 X132.584 Y72.32 E11.32932
G1 X133.723 Y72.984 E11.37678
G1 X135.165 Y74.258 E11.44605
G1 X136.299 Y75.929 E11.51875
G1 X136.968 Y77.715 E11.58741
G1 X137.197 Y79.585 E11.65523
G1 X137.19 Y105.044 E12.57172
G1 X136.396 Y158.728 E14.50449
G1 X136.272 Y159.991 E14.55018
G1 X135.663 Y161.975 E14.62489
G1 X134.964 Y163.187 E14.67526
G1 X133.69 Y164.629 E14.74453
G1 X132.019 Y165.763 E14.81723
G1 X130.233 Y166.432 E14.88589
G1 X129.508 Y166.571 E14.91246
G1 X128.362 Y166.661 E14.95384
G1 X98.01 Y166.655 E16.04648
G1 X96.933 Y166.579 E16.08535
G1 X95.952 Y166.383 E16.12136
G1 X94.753 Y165.963 E16.16709
G1 X93.821 Y165.473 E16.205
G1 X93.025 Y164.918 E16.23993
G1 X92.302 Y164.271 E16.27486
G1 X91.714 Y163.607 E16.30679
G1 X91.159 Y162.812 E16.34169
G1 X90.782 Y162.119 E16.37009
G1 X90.355 Y161.05 E16.41153
G1 X90.118 Y160.108 E16.4465
G1 X89.991 Y159.063 E16.4844
G1 X89.972 Y133.161 E17.41684
G1 X90.765 Y79.477 E19.34961
G1 X90.993 Y77.715 E19.41357
G1 X91.662 Y75.929 E19.48223
G1 X92.755 Y74.319 E19.55228
G1 E19.45228 F2400
G92 E0
G1 X118.547 Y104.043 F30000
G1 E.1 F2400
;TYPE:Perimeter
;WIDTH:0.399999
G1 F3000
G1 X99.702 Y104.039 E.7784
G1 X99.696 Y80.482 E1.62642
G1 X128.265 Y80.482 E2.65487
G1 X128.259 Y104.045 E3.50311
G1 X118.607 Y104.043 E3.85057
G1 X118.547 Y104.389 F30000
G1 F3000
G1 X99.356 Y104.385 E4.54142
G1 X99.35 Y80.136 E5.41435
G1 X128.611 Y80.136 E6.46771
G1 X128.605 Y104.391 E7.34086
G1 X118.607 Y104.389 E7.70078
G1 X118.547 Y104.735 F30000
G1 F3000
G1 X99.01 Y104.731 E8.40409
G1 X99.003 Y79.789 E9.30197
G1 X128.958 Y79.789 E10.38031
G1 X128.952 Y104.738 E11.27844
G1 X118.607 Y104.735 E11.65085
G1 X118.546 Y105.082 F30000
G1 F3000
G1 X98.874 Y105.078 E12.35902
G1 X98.712 Y105.02 E12.36521
G1 X98.663 Y104.886 E12.37035
G1 X98.657 Y79.66 E13.27846
G1 X98.72 Y79.497 E13.28475
G1 X98.848 Y79.443 E13.28975
G1 X129.066 Y79.443 E14.37756
G1 X129.251 Y79.505 E14.38458
G1 X129.304 Y79.654 E14.39027
G1 X129.298 Y104.847 E15.29719
G1 X129.247 Y105.018 E15.30361
G1 X129.106 Y105.084 E15.30921
G1 X118.606 Y105.082 E15.6872
G1 X118.546 Y105.428 F30000
;TYPE:External perimeter
G1 F1500
G1 X98.874 Y105.424 E16.39537
G1 X98.747 Y105.41 E16.39997
G1 X98.546 Y105.327 E16.4078
G1 X98.392 Y105.175 E16.41559
G1 X98.317 Y104.917 E16.42526
G1 X98.31 Y79.66 E17.33448
G1 X98.339 Y79.45 E17.34211
G1 X98.429 Y79.31 E17.3481
G1 X98.572 Y79.17 E17.3553
G1 X98.821 Y79.097 E17.36464
G1 X129.066 Y79.097 E18.45342
G1 X129.366 Y79.151 E18.46439
G1 X129.459 Y79.227 E18.46871
G1 X129.587 Y79.379 E18.47586
G1 X129.651 Y79.654 E18.48602
G1 X129.644 Y104.847 E19.39294
G1 X129.591 Y105.145 E19.40384
G1 X129.514 Y105.238 E19.40819
G1 X129.362 Y105.367 E19.41537
G1 X129.137 Y105.43 E19.42378
G1 X118.606 Y105.428 E19.80288
G1 X118.346 Y105.082 F30000
G1 E19.70288 F2400
G92 E0
G1 X128.161 Y81.291 F30000
G1 E.1 F2400
;TYPE:Solid infill
;WIDTH:0.402309
G1 F2250
G1 X127.612 Y80.742 E.12814
G1 X127.119 Y80.742 E.14601
G1 X128.005 Y81.628 E.19142
G1 X128.005 Y82.121 E.20929
G1 X126.626 Y80.742 E.27996
G1 X126.133 Y80.742 E.29783
G1 X128.005 Y82.614 E.39377
G1 X128.005 Y83.107 E.41164
G1 X125.64 Y80.742 E.53285
G1 X125.147 Y80.742 E.55072
G1 X128.004 Y83.6 E.69717
G1 X128.004 Y84.093 E.71504
G1 X124.653 Y80.742 E.88678
G1 X124.16 Y80.742 E.90465
G1 X128.004 Y84.586 E1.10165
G1 X128.004 Y85.079 E1.11952
G1 X123.667 Y80.742 E1.34179
G1 X123.174 Y80.742 E1.35966
G1 X128.004 Y85.572 E1.6072
G1 X128.004 Y86.065 E1.62507
G1 X122.681 Y80.742 E1.89787
G1 X122.188 Y80.742 E1.91574
G1 X128.004 Y86.557 E2.21378
G1 X128.004 Y87.05 E2.23165
G1 X121.695 Y80.742 E2.55496
G1 X121.202 Y80.742 E2.57283
G1 X128.003 Y87.543 E2.92138
G1 X128.003 Y88.036 E2.93925
G1 X120.709 Y80.742 E3.31306
G1 X120.216 Y80.742 E3.33093
G1 X128.003 Y88.529 E3.73001
G1 X128.003 Y89.022 E3.74788
G1 X119.723 Y80.742 E4.17223
G1 X119.23 Y80.742 E4.1901
G1 X128.003 Y89.515 E4.63971
G1 X128.003 Y90.008 E4.65758
G1 X118.736 Y80.742 E5.13248
G1 X118.243 Y80.742 E5.15035
G1 X128.003 Y90.501 E5.65052
G1 X128.003 Y90.994 E5.66839
G1 X117.75 Y80.742 E6.19383
G1 X117.257 Y80.742 E6.2117
G1 X128.002 Y91.487 E6.76238
G1 X128.002 Y91.98 E6.78025
G1 X116.764 Y80.742 E7.35619
G1 X116.271 Y80.742 E7.37406
G1 X128.002 Y92.473 E7.97527
G1 X128.002 Y92.966 E7.99314
G1 X115.778 Y80.742 E8.61961
G1 X115.285 Y80.742 E8.63748
G1 X128.002 Y93.459 E9.28922
G1 X128.002 Y93.952 E9.30709
G1 X114.792 Y80.742 E9.9841
G1 X114.299 Y80.742 E10.00197
G1 X128.002 Y94.445 E10.70424
G1 X128.002 Y94.938 E10.72211
G1 X113.806 Y80.742 E11.44965
G1 X113.313 Y80.742 E11.46752
G1 X128.001 Y95.431 E12.2203
G1 X128.001 Y95.924 E12.23817
G1 X112.82 Y80.742 E13.01621
G1 X112.326 Y80.742 E13.03411
G1 X128.001 Y96.417 E13.83745
G1 X128.001 Y96.909 E13.85528
G1 X111.833 Y80.742 E14.68386
G1 X111.34 Y80.742 E14.70173
G1 X128.001 Y97.402 E15.55557
G1 X128.001 Y97.895 E15.57344
G1 X110.847 Y80.742 E16.45255
G1 X110.354 Y80.742 E16.47042
G1 X128.001 Y98.388 E17.37479
G1 X128.001 Y98.881 E17.39266
G1 X109.861 Y80.742 E18.3223
G1 X109.368 Y80.742 E18.34017
G1 X128 Y99.374 E19.29505
G1 X128 Y99.867 E19.31292
G1 X108.875 Y80.742 E20.29307
G1 X108.382 Y80.742 E20.31094
G1 X128 Y100.36 E21.31635
G1 X128 Y100.853 E21.33422
G1 X107.889 Y80.742 E22.3649
G1 X107.396 Y80.742 E22.38277
G1 X128 Y101.346 E23.43872
G1 X128 Y101.839 E23.45659
G1 X106.903 Y80.742 E24.5378
G1 X106.41 Y80.742 E24.55567
G1 X128 Y102.332 E25.66215
G1 X128 Y102.825 E25.68002
G1 X105.916 Y80.742 E26.81179
G1 X105.423 Y80.742 E26.82966
G1 X127.999 Y103.318 E27.98667
G1 X127.999 Y103.785 E28.00359
G1 X127.973 Y103.785 E28.00453
G1 X104.93 Y80.742 E29.18547
G1 X104.437 Y80.742 E29.20334
G1 X127.48 Y103.785 E30.38428
G1 X126.987 Y103.785 E30.40215
G1 X103.944 Y80.742 E31.58309
G1 X103.451 Y80.742 E31.60096
G1 X126.494 Y103.785 E32.7819
G1 X126.001 Y103.785 E32.79977
G1 X102.958 Y80.742 E33.98071
G1 X102.465 Y80.742 E33.99858
G1 X125.508 Y103.784 E35.1795
G1 X125.014 Y103.784 E35.1974
G1 X101.972 Y80.742 E36.37829
G1 X101.479 Y80.742 E36.39616
G1 X124.521 Y103.784 E37.57705
G1 X124.028 Y103.784 E37.59492
G1 X100.986 Y80.742 E38.77581
G1 X100.493 Y80.742 E38.79368
G1 X123.535 Y103.784 E39.97457
G1 X123.042 Y103.784 E39.99244
G1 X100 Y80.742 E41.17333
G1 X99.956 Y80.742 E41.17492
G1 X99.956 Y81.191 E41.19119
G1 X122.548 Y103.784 E42.34905
G1 X122.055 Y103.784 E42.36692
G1 X99.956 Y81.685 E43.49948
G1 X99.956 Y82.178 E43.51735
G1 X121.562 Y103.784 E44.62465
G1 X121.069 Y103.784 E44.64252
G1 X99.956 Y82.671 E45.72455
G1 X99.957 Y83.164 E45.74242
G1 X120.576 Y103.783 E46.79913
G1 X120.083 Y103.783 E46.817
G1 X99.957 Y83.657 E47.84845
G1 X99.957 Y84.151 E47.86635
G1 X119.589 Y103.783 E48.87248
G1 X119.096 Y103.783 E48.89035
G1 X99.957 Y84.644 E49.87121
G1 X99.957 Y85.137 E49.88908
G1 X118.603 Y103.783 E50.84468
G1 X118.11 Y103.783 E50.86255
G1 X99.957 Y85.63 E51.79288
G1 X99.957 Y86.123 E51.81075
G1 X117.617 Y103.783 E52.71582
G1 X117.123 Y103.783 E52.73372
G1 X99.957 Y86.617 E53.61347
G1 X99.958 Y87.11 E53.63134
G1 X116.63 Y103.783 E54.4858
G1 X116.137 Y103.782 E54.50367
G1 X99.958 Y87.603 E55.33284
G1 X99.958 Y88.096 E55.35071
G1 X115.644 Y103.782 E56.15461
G1 X115.151 Y103.782 E56.17248
G1 X99.958 Y88.589 E56.95111
G1 X99.958 Y89.083 E56.96901
G1 X114.658 Y103.782 E57.72235
G1 X114.164 Y103.782 E57.74025
G1 X99.958 Y89.576 E58.4683
G1 X99.958 Y90.069 E58.48617
G1 X113.671 Y103.782 E59.18895
G1 X113.178 Y103.782 E59.20682
G1 X99.958 Y90.562 E59.88434
G1 X99.959 Y91.055 E59.90221
G1 X112.685 Y103.782 E60.55444
G1 X112.192 Y103.782 E60.57231
G1 X99.959 Y91.549 E61.19925
G1 X99.959 Y92.042 E61.21712
G1 X111.698 Y103.782 E61.81876
G1 X111.205 Y103.781 E61.83663
G1 X99.959 Y92.535 E62.41298
G1 X99.959 Y93.028 E62.43085
G1 X110.712 Y103.781 E62.98194
G1 X110.219 Y103.781 E62.99981
G1 X99.959 Y93.521 E63.52563
G1 X99.959 Y94.015 E63.54353
G1 X109.726 Y103.781 E64.04406
G1 X109.233 Y103.781 E64.06193
G1 X99.959 Y94.508 E64.53719
G1 X99.96 Y95.001 E64.55506
G1 X108.739 Y103.781 E65.00501
G1 X108.246 Y103.781 E65.02288
G1 X99.96 Y95.494 E65.44756
G1 X99.96 Y95.987 E65.46543
G1 X107.753 Y103.781 E65.86484
G1 X107.26 Y103.781 E65.88271
G1 X99.96 Y96.481 E66.25683
G1 X99.96 Y96.974 E66.2747
G1 X106.767 Y103.78 E66.62353
G1 X106.273 Y103.78 E66.64143
G1 X99.96 Y97.467 E66.96497
G1 X99.96 Y97.96 E66.98284
G1 X105.78 Y103.78 E67.28111
G1 X105.287 Y103.78 E67.29898
G1 X99.96 Y98.453 E67.57199
G1 X99.961 Y98.947 E67.58989
G1 X104.794 Y103.78 E67.83758
G1 X104.301 Y103.78 E67.85545
G1 X99.961 Y99.44 E68.07787
G1 X99.961 Y99.933 E68.09574
G1 X103.808 Y103.78 E68.2929
G1 X103.314 Y103.78 E68.3108
G1 X99.961 Y100.426 E68.48267
G1 X99.961 Y100.92 E68.50057
G1 X102.821 Y103.78 E68.64714
G1 X102.328 Y103.78 E68.66501
G1 X99.961 Y101.413 E68.78632
G1 X99.961 Y101.906 E68.80419
G1 X101.835 Y103.779 E68.90021
G1 X101.342 Y103.779 E68.91808
G1 X99.961 Y102.399 E68.98883
G1 X99.962 Y102.892 E69.0067
G1 X100.848 Y103.779 E69.05213
G1 X100.355 Y103.779 E69.07
G1 X99.806 Y103.23 E69.09814
G1 E68.99814 F2400
G92 E0
G1 X117.753 Y157.727 F30000
G1 E.1 F2400
;TYPE:Perimeter
;WIDTH:0.399999
G1 F3000
G1 X98.909 Y157.723 E.77836
G1 X98.903 Y134.166 E1.62638
G1 X127.472 Y134.166 E2.65483
G1 X127.466 Y157.729 E3.50307
G1 X117.813 Y157.727 E3.85057
G1 X117.753 Y158.073 F30000
G1 F3000
G1 X98.563 Y158.069 E4.54139
G1 X98.556 Y133.82 E5.41432
G1 X127.818 Y133.82 E6.46772
G1 X127.812 Y158.076 E7.34091
G1 X117.813 Y158.073 E7.70086
G1 X117.753 Y158.42 F30000
G1 F3000
G1 X98.216 Y158.416 E8.40417
G1 X98.21 Y133.474 E9.30205
G1 X128.165 Y133.474 E10.38039
G1 X128.158 Y158.422 E11.27849
G1 X117.813 Y158.42 E11.6509
G1 X117.753 Y158.766 F30000
G1 F3000
G1 X98.081 Y158.762 E12.35907
G1 X97.919 Y158.705 E12.36525
G1 X97.87 Y158.57 E12.37042
G1 X97.864 Y133.344 E13.27853
G1 X97.927 Y133.182 E13.28479
G1 X98.055 Y133.127 E13.28981
G1 X128.273 Y133.127 E14.37762
G1 X128.458 Y133.189 E14.38464
G1 X128.511 Y133.338 E14.39033
G1 X128.505 Y158.531 E15.29725
G1 X128.453 Y158.702 E15.30368
G1 X128.312 Y158.768 E15.30928
G1 X117.813 Y158.766 E15.68723
G1 X117.753 Y159.112 F30000
;TYPE:External perimeter
G1 F1500
G1 X98.081 Y159.108 E16.3954
G1 X97.954 Y159.094 E16.4
G1 X97.753 Y159.011 E16.40783
G1 X97.599 Y158.859 E16.41562
G1 X97.524 Y158.601 E16.42529
G1 X97.517 Y133.344 E17.33451
G1 X97.545 Y133.135 E17.3421
G1 X97.636 Y132.994 E17.34814
G1 X97.779 Y132.854 E17.35534
G1 X98.028 Y132.781 E17.36468
G1 X128.273 Y132.781 E18.45346
G1 X128.573 Y132.835 E18.46443
G1 X128.666 Y132.911 E18.46875
G1 X128.794 Y133.063 E18.4759
G1 X128.857 Y133.338 E18.48606
G1 X128.851 Y158.531 E19.39298
G1 X128.797 Y158.829 E19.40388
G1 X128.721 Y158.922 E19.4082
G1 X128.568 Y159.051 E19.4154
G1 X128.344 Y159.115 E19.42379
G1 X117.813 Y159.112 E19.80289
G1 X117.552 Y158.766 F30000
G1 E19.70289 F2400
G92 E0
G1 X127.368 Y134.975 F30000
G1 E.1 F2400
;TYPE:Solid infill
;WIDTH:0.402309
G1 F2250
G1 X126.819 Y134.426 E.12814
G1 X126.326 Y134.426 E.14601
G1 X127.212 Y135.312 E.19142
G1 X127.212 Y135.805 E.20929
G1 X125.832 Y134.426 E.27999
G1 X125.339 Y134.426 E.29786
G1 X127.211 Y136.298 E.3938
G1 X127.211 Y136.791 E.41167
G1 X124.846 Y134.426 E.53288
G1 X124.353 Y134.426 E.55075
G1 X127.211 Y137.284 E.69722
G1 X127.211 Y137.777 E.71509
G1 X123.86 Y134.426 E.88683
G1 X123.367 Y134.426 E.9047
G1 X127.211 Y138.27 E1.1017
G1 X127.211 Y138.763 E1.11957
G1 X122.874 Y134.426 E1.34184
G1 X122.381 Y134.426 E1.35971
G1 X127.211 Y139.256 E1.60725
G1 X127.211 Y139.749 E1.62512
G1 X121.888 Y134.426 E1.89792
G1 X121.395 Y134.426 E1.91579
G1 X127.21 Y140.242 E2.21383
G1 X127.21 Y140.735 E2.2317
G1 X120.902 Y134.426 E2.55501
G1 X120.409 Y134.426 E2.57288
G1 X127.21 Y141.228 E2.92145
G1 X127.21 Y141.721 E2.93932
G1 X119.916 Y134.426 E3.31316
G1 X119.422 Y134.426 E3.33106
G1 X127.21 Y142.214 E3.73019
G1 X127.21 Y142.707 E3.74806
G1 X118.929 Y134.426 E4.17246
G1 X118.436 Y134.426 E4.19033
G1 X127.21 Y143.199 E4.63997
G1 X127.21 Y143.692 E4.65784
G1 X117.943 Y134.426 E5.13274
G1 X117.45 Y134.426 E5.15061
G1 X127.209 Y144.185 E5.65075
G1 X127.209 Y144.678 E5.66862
G1 X116.957 Y134.426 E6.19403
G1 X116.464 Y134.426 E6.2119
G1 X127.209 Y145.171 E6.76258
G1 X127.209 Y145.664 E6.78045
G1 X115.971 Y134.426 E7.35639
G1 X115.478 Y134.426 E7.37426
G1 X127.209 Y146.157 E7.97547
G1 X127.209 Y146.65 E7.99334
G1 X114.985 Y134.426 E8.61981
G1 X114.492 Y134.426 E8.63768
G1 X127.209 Y147.143 E9.28942
G1 X127.209 Y147.636 E9.30729
G1 X113.999 Y134.426 E9.9843
G1 X113.506 Y134.426 E10.00217
G1 X127.208 Y148.129 E10.70442
G1 X127.208 Y148.622 E10.72229
G1 X113.012 Y134.426 E11.44983
G1 X112.519 Y134.426 E11.4677
G1 X127.208 Y149.115 E12.2205
G1 X127.208 Y149.608 E12.23837
G1 X112.026 Y134.426 E13.01644
G1 X111.533 Y134.426 E13.03431
G1 X127.208 Y150.101 E13.83765
G1 X127.208 Y150.594 E13.85552
G1 X111.04 Y134.426 E14.68412
G1 X110.547 Y134.426 E14.70199
G1 X127.208 Y151.087 E15.55586
G1 X127.208 Y151.58 E15.57373
G1 X110.054 Y134.426 E16.45286
G1 X109.561 Y134.426 E16.47073
G1 X127.207 Y152.073 E17.3751
G1 X127.207 Y152.566 E17.39297
G1 X109.068 Y134.426 E18.32261
G1 X108.575 Y134.426 E18.34048
G1 X127.207 Y153.059 E19.29539
G1 X127.207 Y153.552 E19.31326
G1 X108.082 Y134.426 E20.29343
G1 X107.589 Y134.426 E20.3113
G1 X127.207 Y154.044 E21.31671
G1 X127.207 Y154.537 E21.33458
G1 X107.095 Y134.426 E22.36528
G1 X106.602 Y134.426 E22.38315
G1 X127.207 Y155.03 E23.43912
G1 X127.207 Y155.523 E23.45699
G1 X106.109 Y134.426 E24.53823
G1 X105.616 Y134.426 E24.5561
G1 X127.206 Y156.016 E25.66258
G1 X127.206 Y156.509 E25.68045
