; generated by PrusaSlicer 2.6.1+linux-x64-GTK3 on 2023-10-04 at 18:13:38 UTC

; 

; external perimeters extrusion width = 0.45mm
; perimeters extrusion width = 0.60mm
; infill extrusion width = 0.60mm
; solid infill extrusion width = 0.60mm
; top infill extrusion width = 0.60mm
; first layer extrusion width = 0.40mm

M190 S65 ; set bed temperature and wait for it to be reached
M104 S220 ; set temperature
;TYPE:Custom
G28 ; home all axes
G1 Z5 F5000 ; lift nozzle
M109 S220 ; set temperature and wait for it to be reached
G21 ; set units to millimeters
G90 ; use absolute coordinates
M82 ; use absolute distances for extrusion
G92 E0
; Filament gcode
M107
;LAYER_CHANGE
;Z:0.25
;HEIGHT:0.25
G1 Z.25 F24000
G1 E-.1 F2400
G92 E0
G1 X32.13 Y87.068 F24000
G1 E.1 F2400
;TYPE:Skirt/Brim
;WIDTH:0.4
G1 F4500
G1 X35.074 Y86.482 E.20806
G1 X189.926 Y86.482 E5.78255
G1 X192.87 Y87.068 E5.89061
G1 X194.23 Y87.631 E5.9436
G1 X196.726 Y89.299 E6.05167
G1 X197.891 Y90.465 E6.11101
G1 X199.559 Y92.96 E6.21905
G1 X200.122 Y94.32 E6.27204
G1 X200.708 Y97.264 E6.3801
G1 X200.708 Y130.533 E7.57775
G1 X200.31 Y132.973 E7.66675
G1 X198.455 Y135.972 E7.79369
G1 X196.287 Y138.14 E7.90406
G1 X194.281 Y139.584 E7.99304
G1 X190.848 Y140.393 E8.12001
G1 X34.152 Y140.393 E13.76089
G1 X31.712 Y139.995 E13.84989
G1 X28.713 Y138.14 E13.97683
G1 X26.545 Y135.972 E14.0872
G1 X25.101 Y133.965 E14.17621
G1 X24.292 Y130.533 E14.30314
G1 X24.292 Y97.264 E15.50079
G1 X24.878 Y94.32 E15.60885
G1 X25.441 Y92.96 E15.66184
G1 X27.109 Y90.465 E15.76988
G1 X28.274 Y89.299 E15.82922
G1 X30.77 Y87.631 E15.93729
G1 X32.075 Y87.091 E15.98813
G1 X32.207 Y87.411 F24000
G1 F4500
G1 X35.074 Y86.829 E16.09344
G1 X189.926 Y86.829 E21.66793
G1 X192.737 Y87.388 E21.7711
G1 X194.097 Y87.951 E21.82409
G1 X196.481 Y89.544 E21.92731
G1 X197.646 Y90.709 E21.98662
G1 X199.239 Y93.093 E22.08984
G1 X199.802 Y94.453 E22.14283
G1 X200.361 Y97.264 E22.246
G1 X200.361 Y130.533 E23.44365
G1 X199.964 Y132.916 E23.53062
G1 X198.21 Y135.727 E23.6499
G1 X196.042 Y137.895 E23.76027
G1 X194.076 Y139.299 E23.84724
G1 X190.848 Y140.046 E23.96652
G1 X34.152 Y140.046 E29.6074
G1 X31.769 Y139.649 E29.69437
G1 X28.958 Y137.895 E29.81365
G1 X26.79 Y135.727 E29.92402
G1 X25.386 Y133.761 E30.01099
G1 X24.639 Y130.533 E30.13027
G1 X24.639 Y97.264 E31.32792
G1 X25.198 Y94.453 E31.43109
G1 X25.761 Y93.093 E31.48408
G1 X27.354 Y90.709 E31.5873
G1 X28.519 Y89.544 E31.64661
G1 X30.903 Y87.951 E31.74983
G1 X32.152 Y87.434 E31.79849
G1 E31.69849 F2400
G92 E0
G1 X35.077 Y94.641 F24000
G1 E.1 F2400
G1 F4500
G1 X35.553 Y94.577 E.11729
G1 X189.511 Y94.581 E5.6596
G1 X190.226 Y94.735 E5.68593
G1 X190.89 Y95.031 E5.7121
G1 X191.802 Y95.82 E5.75551
G1 X192.31 Y96.606 E5.7892
G1 X192.613 Y97.659 E5.82864
G1 X192.613 Y129.526 E6.97582
G1 X192.399 Y130.327 E7.00567
G1 X191.989 Y130.99 E7.03373
G1 X191.176 Y131.777 E7.07446
G1 X190.209 Y132.238 E7.11302
G1 X189.78 Y132.298 E7.12861
G1 X35.159 Y132.298 E12.69479
G1 X34.358 Y132.084 E12.72464
G1 X33.695 Y131.674 E12.7527
G1 X32.908 Y130.861 E12.79343
G1 X32.447 Y129.894 E12.83199
G1 X32.387 Y129.465 E12.84758
G1 X32.387 Y97.718 E13.99044
G1 X32.584 Y96.863 E14.02203
G1 X33.137 Y95.881 E14.0626
G1 X34.007 Y95.1 E14.10469
G1 X35.022 Y94.665 E14.14444
G1 X35.149 Y94.981 F24000
G1 F4500
G1 X35.565 Y94.924 E14.15956
G1 X189.492 Y94.927 E19.70076
G1 X190.101 Y95.058 E19.72318
G1 X190.725 Y95.337 E19.74779
G1 X191.555 Y96.064 E19.78751
G1 X191.985 Y96.728 E19.81599
G1 X192.266 Y97.684 E19.85186
G1 X192.266 Y129.502 E20.99727
G1 X192.072 Y130.21 E21.0237
G1 X191.731 Y130.757 E21.0469
G1 X190.998 Y131.478 E21.08391
G1 X190.133 Y131.899 E21.11854
G1 X189.767 Y131.951 E21.13185
G1 X35.183 Y131.951 E26.6967
G1 X34.474 Y131.757 E26.72316
G1 X33.927 Y131.416 E26.74636
G1 X33.207 Y130.683 E26.78335
G1 X32.786 Y129.818 E26.81798
G1 X32.734 Y129.452 E26.83129
G1 X32.734 Y97.737 E27.97299
G1 X32.899 Y97.009 E27.99986
G1 X33.393 Y96.116 E28.0366
G1 X34.172 Y95.406 E28.07454
G1 X35.094 Y95.005 E28.11073
G1 X35.222 Y95.321 F24000
G1 F4500
G1 X35.577 Y95.27 E28.12364
G1 X189.473 Y95.273 E33.66372
G1 X190.007 Y95.392 E33.68341
G1 X190.557 Y95.641 E33.70514
G1 X191.307 Y96.307 E33.74125
G1 X191.661 Y96.852 E33.76464
G1 X191.92 Y97.71 E33.7969
G1 X191.92 Y129.477 E34.94048
G1 X191.746 Y130.091 E34.96345
G1 X191.472 Y130.527 E34.98199
G1 X190.818 Y131.181 E35.01529
G1 X190.054 Y131.561 E35.04601
G1 X189.754 Y131.605 E35.05693
G1 X35.208 Y131.605 E40.62041
G1 X34.594 Y131.431 E40.64338
G1 X34.158 Y131.157 E40.66192
G1 X33.504 Y130.503 E40.69522
G1 X33.124 Y129.739 E40.72594
G1 X33.08 Y129.439 E40.73686
G1 X33.08 Y97.756 E41.87741
G1 X33.215 Y97.152 E41.89969
G1 X33.65 Y96.35 E41.93253
G1 X34.34 Y95.71 E41.96641
G1 X35.167 Y95.345 E41.99895
G1 X35.295 Y95.66 F24000
G1 F4500
G1 X35.59 Y95.616 E42.00969
G1 X189.453 Y95.62 E47.54858
G1 X189.881 Y95.715 E47.56436
G1 X190.389 Y95.945 E47.58443
G1 X191.058 Y96.549 E47.61688
G1 X191.338 Y96.979 E47.63535
G1 X191.574 Y97.737 E47.66393
G1 X191.574 Y129.451 E48.8056
G1 X191.421 Y129.969 E48.82504
G1 X191.214 Y130.295 E48.83894
G1 X190.593 Y130.916 E48.87056
G1 X189.975 Y131.223 E48.8954
G1 X189.741 Y131.259 E48.90392
G1 X35.234 Y131.259 E54.46599
G1 X34.716 Y131.106 E54.48543
G1 X34.39 Y130.899 E54.49933
G1 X33.768 Y130.278 E54.53097
G1 X33.462 Y129.66 E54.5558
G1 X33.426 Y129.426 E54.56432
G1 X33.426 Y97.774 E55.70376
G1 X33.532 Y97.292 E55.72153
G1 X33.907 Y96.583 E55.7504
G1 X34.554 Y95.984 E55.78214
G1 X35.24 Y95.684 E55.80909
G1 X35.372 Y95.998 F24000
G1 F4500
G1 X35.604 Y95.963 E55.81754
G1 X189.434 Y95.966 E61.35524
G1 X189.754 Y96.038 E61.36705
G1 X190.221 Y96.249 E61.3855
G1 X190.808 Y96.788 E61.41419
G1 X191.016 Y97.108 E61.42793
G1 X191.227 Y97.765 E61.45277
G1 X191.227 Y129.424 E62.59246
G1 X191.098 Y129.843 E62.60824
G1 X190.957 Y130.063 E62.61765
G1 X190.368 Y130.651 E62.64761
G1 X189.894 Y130.885 E62.66664
G1 X189.726 Y130.912 E62.67277
G1 X35.261 Y130.912 E68.23333
G1 X34.842 Y130.783 E68.24911
G1 X34.622 Y130.642 E68.25852
G1 X34.034 Y130.053 E68.28848
G1 X33.8 Y129.578 E68.30754
G1 X33.773 Y129.411 E68.31363
G1 X33.773 Y97.792 E69.45188
G1 X33.851 Y97.429 E69.46525
G1 X34.168 Y96.813 E69.49019
G1 X34.723 Y96.288 E69.51769
G1 X35.317 Y96.023 E69.5411
G1 X35.451 Y96.336 F24000
G1 F4500
G1 X35.618 Y96.309 E69.54719
G1 X189.415 Y96.312 E75.08371
G1 X189.627 Y96.361 E75.09154
G1 X190.051 Y96.553 E75.1083
G1 X190.555 Y97.026 E75.13318
G1 X190.695 Y97.24 E75.14239
G1 X190.881 Y97.794 E75.16343
G1 X190.881 Y129.395 E76.30103
G1 X190.777 Y129.711 E76.31301
G1 X190.7 Y129.83 E76.31811
G1 X190.144 Y130.386 E76.34642
G1 X189.81 Y130.549 E76.3598
G1 X189.71 Y130.566 E76.36345
G1 X35.29 Y130.566 E81.92239
G1 X34.974 Y130.462 E81.93437
G1 X34.855 Y130.384 E81.93949
G1 X34.299 Y129.829 E81.96777
G1 X34.136 Y129.494 E81.98118
G1 X34.119 Y129.395 E81.9848
G1 X34.119 Y97.81 E83.12182
G1 X34.171 Y97.562 E83.13094
G1 X34.432 Y97.039 E83.15198
G1 X34.895 Y96.59 E83.1752
G1 X35.397 Y96.361 E83.19506
G1 X35.535 Y96.673 F24000
G1 F4500
G1 X35.634 Y96.655 E83.19868
G1 X189.395 Y96.659 E88.7339
G1 X189.499 Y96.683 E88.73774
G1 X189.88 Y96.855 E88.75279
G1 X190.3 Y97.261 E88.77382
G1 X190.376 Y97.376 E88.77878
G1 X190.535 Y97.825 E88.79593
G1 X190.535 Y129.363 E89.93126
G1 X190.443 Y129.597 E89.94031
G1 X189.921 Y130.119 E89.96689
G1 X189.691 Y130.22 E89.97593
G1 X35.322 Y130.22 E95.53304
G1 X35.088 Y130.128 E95.54209
G1 X34.566 Y129.606 E95.56867
G1 X34.465 Y129.376 E95.57771
G1 X34.465 Y97.827 E96.71344
G1 X34.493 Y97.691 E96.71844
G1 X34.699 Y97.261 E96.7356
G1 X35.071 Y96.89 E96.75451
G1 X35.481 Y96.698 E96.77081
G1 X35.621 Y97.009 F24000
G1 F4500
G1 X189.377 Y97.008 E102.30585
G1 X189.707 Y97.157 E102.31888
G1 X190.043 Y97.493 E102.33599
G1 X190.188 Y97.858 E102.35013
G1 X190.188 Y129.324 E103.48287
G1 X190.162 Y129.388 E103.48536
G1 X189.703 Y129.847 E103.50873
G1 X189.639 Y129.873 E103.51122
G1 X35.36 Y129.873 E109.06509
G1 X35.297 Y129.847 E109.06754
G1 X34.838 Y129.388 E109.09091
G1 X34.812 Y129.324 E109.0934
G1 X34.812 Y97.844 E110.22664
G1 X34.967 Y97.483 E110.24078
G1 X35.293 Y97.157 E110.25738
G1 X35.566 Y97.033 E110.26817
G1 E110.16817 F2400
G92 E0
G1 X134.779 Y108.391 F24000
G1 E.1 F2400
G1 F4500
G1 X134.799 Y108.269 E.10445
G1 X134.868 Y108.167 E.10888
G1 X134.964 Y108.108 E.11294
G1 X135.163 Y108.076 E.1202
G1 X180.087 Y108.088 E1.73741
G1 X180.204 Y108.125 E1.74183
G1 X180.284 Y108.189 E1.74552
G1 X180.341 Y108.298 E1.74995
G1 X180.349 Y108.399 E1.7536
G1 X180.302 Y108.536 E1.75881
G1 X180.213 Y108.621 E1.76324
G1 X179.967 Y108.674 E1.7723
G1 X135.163 Y108.674 E3.38519
G1 X134.917 Y108.621 E3.39425
G1 X134.812 Y108.509 E3.39978
G1 X134.795 Y108.448 E3.40206
G1 X134.447 Y108.505 F24000
G1 F4500
G1 X134.438 Y108.272 E3.41045
G1 X134.475 Y108.14 E3.41538
G1 X134.539 Y108.019 E3.42031
G1 X134.628 Y107.914 E3.42527
G1 X134.738 Y107.831 E3.43023
G1 X134.862 Y107.773 E3.43516
G1 X135.136 Y107.73 E3.44514
G1 X180.124 Y107.742 E5.06466
G1 X180.268 Y107.773 E5.06996
G1 X180.388 Y107.829 E5.07473
G1 X180.541 Y107.952 E5.0818
G1 X180.626 Y108.077 E5.08724
G1 X180.682 Y108.218 E5.0927
G1 X180.699 Y108.428 E5.10028
G1 X180.653 Y108.614 E5.10718
G1 X180.591 Y108.731 E5.11195
G1 X180.502 Y108.836 E5.11691
G1 X180.393 Y108.919 E5.12184
G1 X180.268 Y108.977 E5.1268
G1 X179.995 Y109.02 E5.13675
G1 X135.136 Y109.02 E6.75162
G1 X134.862 Y108.977 E6.7616
G1 X134.738 Y108.919 E6.76653
G1 X134.632 Y108.839 E6.77131
G1 X134.509 Y108.686 E6.77838
G1 X134.461 Y108.563 E6.78313
G1 X134.139 Y108.692 F24000
G1 F4500
G1 X134.083 Y108.428 E6.79285
G1 X134.095 Y108.216 E6.80049
G1 X134.151 Y108.011 E6.80814
G1 X134.251 Y107.823 E6.81581
G1 X134.389 Y107.661 E6.82347
G1 X134.558 Y107.532 E6.83112
G1 X134.751 Y107.443 E6.83877
G1 X134.986 Y107.391 E6.84743
G1 X135.126 Y107.384 E6.85248
G1 X180.162 Y107.395 E8.47372
G1 X180.379 Y107.443 E8.48172
G1 X180.572 Y107.532 E8.48937
G1 X180.799 Y107.715 E8.49987
G1 X180.934 Y107.914 E8.50853
G1 X181.023 Y108.138 E8.51721
G1 X181.049 Y108.457 E8.52873
G1 X180.979 Y108.739 E8.53919
G1 X180.879 Y108.927 E8.54686
G1 X180.741 Y109.089 E8.55452
G1 X180.572 Y109.218 E8.56217
G1 X180.379 Y109.307 E8.56982
G1 X180.144 Y109.359 E8.57848
G1 X180.004 Y109.366 E8.58353
G1 X135.126 Y109.366 E10.19909
G1 X134.987 Y109.359 E10.2041
G1 X134.751 Y109.307 E10.2128
G1 X134.558 Y109.218 E10.22045
G1 X134.389 Y109.089 E10.2281
G1 X134.207 Y108.862 E10.23857
G1 X134.161 Y108.747 E10.24303
G1 X133.839 Y108.876 F24000
G1 F4500
G1 X133.782 Y108.731 E10.24864
G1 X133.735 Y108.447 E10.259
G1 X133.751 Y108.16 E10.26935
G1 X133.828 Y107.882 E10.27973
G1 X133.963 Y107.628 E10.29008
G1 X134.149 Y107.408 E10.30045
G1 X134.378 Y107.234 E10.3108
G1 X134.64 Y107.113 E10.32119
G1 X134.94 Y107.047 E10.33225
G1 X135.117 Y107.037 E10.33863
G1 X180.2 Y107.049 E11.96157
G1 X180.49 Y107.113 E11.97226
G1 X180.752 Y107.234 E11.98265
G1 X180.996 Y107.419 E11.99367
G1 X181.07 Y107.497 E11.99754
G1 X181.242 Y107.751 E12.00858
G1 X181.355 Y108.036 E12.01962
G1 X181.378 Y108.141 E12.02349
G1 X181.396 Y108.466 E12.03521
G1 X181.385 Y108.572 E12.03905
G1 X181.302 Y108.868 E12.05012
G1 X181.168 Y109.122 E12.06046
G1 X180.981 Y109.342 E12.07085
G1 X180.752 Y109.516 E12.0812
G1 X180.49 Y109.637 E12.09159
G1 X180.191 Y109.703 E12.10261
G1 X180.013 Y109.713 E12.10903
G1 X135.117 Y109.713 E13.72523
G1 X134.94 Y109.703 E13.73161
G1 X134.64 Y109.637 E13.74267
G1 X134.378 Y109.516 E13.75306
G1 X134.149 Y109.342 E13.76341
G1 X133.95 Y109.108 E13.77447
G1 X133.861 Y108.931 E13.7816
G1 X133.54 Y109.06 F24000
G1 F4500
G1 X133.446 Y108.825 E13.79071
G1 X133.387 Y108.466 E13.80381
G1 X133.407 Y108.103 E13.8169
G1 X133.504 Y107.753 E13.82997
G1 X133.674 Y107.432 E13.84305
G1 X133.91 Y107.155 E13.85615
G1 X134.199 Y106.935 E13.86923
G1 X134.529 Y106.783 E13.88231
G1 X134.893 Y106.703 E13.89573
G1 X135.107 Y106.691 E13.90345
G1 X180.238 Y106.703 E15.52811
G1 X180.602 Y106.783 E15.54153
G1 X180.931 Y106.935 E15.55458
G1 X181.228 Y107.161 E15.56802
G1 X181.34 Y107.279 E15.57388
G1 X181.55 Y107.588 E15.58733
G1 X181.688 Y107.934 E15.60074
G1 X181.723 Y108.094 E15.60664
G1 X181.743 Y108.475 E15.62037
G1 X181.726 Y108.638 E15.62627
G1 X181.626 Y108.997 E15.63969
G1 X181.456 Y109.318 E15.65277
G1 X181.221 Y109.595 E15.66585
G1 X180.931 Y109.815 E15.67895
G1 X180.602 Y109.967 E15.692
G1 X180.238 Y110.047 E15.70542
G1 X180.023 Y110.059 E15.71317
G1 X135.108 Y110.059 E17.33006
G1 X134.893 Y110.047 E17.33781
G1 X134.529 Y109.967 E17.35123
G1 X134.199 Y109.815 E17.36431
G1 X133.91 Y109.595 E17.37739
G1 X133.668 Y109.311 E17.39082
G1 X133.562 Y109.115 E17.39884
G1 X133.24 Y109.243 F24000
G1 F4500
G1 X133.11 Y108.918 E17.41144
G1 X133.039 Y108.485 E17.42724
G1 X133.063 Y108.047 E17.44303
G1 X133.181 Y107.624 E17.45884
G1 X133.386 Y107.237 E17.47461
G1 X133.67 Y106.902 E17.49042
G1 X134.019 Y106.637 E17.50619
G1 X134.417 Y106.453 E17.52197
G1 X134.846 Y106.358 E17.53779
G1 X135.098 Y106.345 E17.54687
G1 X180.032 Y106.345 E19.16444
G1 X180.284 Y106.358 E19.17352
G1 X180.713 Y106.453 E19.18934
G1 X181.111 Y106.637 E19.20512
G1 X181.46 Y106.902 E19.22089
G1 X181.611 Y107.062 E19.22881
G1 X181.857 Y107.425 E19.2446
G1 X182.02 Y107.832 E19.26038
G1 X182.067 Y108.047 E19.2683
G1 X182.091 Y108.485 E19.28409
G1 X182.067 Y108.703 E19.29199
G1 X181.95 Y109.126 E19.30779
G1 X181.744 Y109.513 E19.32357
G1 X181.46 Y109.848 E19.33938
G1 X181.111 Y110.113 E19.35515
G1 X180.713 Y110.297 E19.37093
G1 X180.284 Y110.392 E19.38675
G1 X180.032 Y110.405 E19.39583
G1 X135.098 Y110.405 E21.0134
G1 X134.846 Y110.392 E21.02248
G1 X134.417 Y110.297 E21.0383
G1 X134.019 Y110.113 E21.05408
G1 X133.67 Y109.848 E21.06985
G1 X133.386 Y109.513 E21.08566
G1 X133.262 Y109.299 E21.09456
G1 X132.947 Y109.445 F24000
G1 F4500
G1 X132.858 Y109.254 E21.10215
G1 X132.776 Y109.011 E21.11138
G1 X132.721 Y108.759 E21.12067
G1 X132.693 Y108.504 E21.1299
G1 X132.693 Y108.246 E21.13919
G1 X132.721 Y107.991 E21.14842
G1 X132.776 Y107.739 E21.15771
G1 X132.858 Y107.496 E21.16694
G1 X132.966 Y107.262 E21.17622
G1 X133.099 Y107.042 E21.18547
G1 X133.255 Y106.837 E21.19474
G1 X133.431 Y106.65 E21.20398
G1 X133.627 Y106.484 E21.21323
G1 X133.84 Y106.34 E21.22249
G1 X134.068 Y106.219 E21.23178
G1 X134.307 Y106.124 E21.24104
G1 X134.554 Y106.055 E21.25027
G1 X134.808 Y106.013 E21.25954
G1 X135.089 Y105.998 E21.26967
G1 X180.041 Y105.998 E22.88789
G1 X180.322 Y106.013 E22.89802
G1 X180.576 Y106.055 E22.90729
G1 X180.824 Y106.124 E22.91656
G1 X181.063 Y106.219 E22.92582
G1 X181.29 Y106.339 E22.93506
G1 X181.503 Y106.484 E22.94434
G1 X181.699 Y106.65 E22.95359
G1 X181.876 Y106.837 E22.96286
G1 X182.031 Y107.042 E22.97211
G1 X182.164 Y107.262 E22.98136
G1 X182.272 Y107.496 E22.99064
G1 X182.354 Y107.739 E22.99987
G1 X182.409 Y107.991 E23.00916
G1 X182.437 Y108.246 E23.01839
G1 X182.437 Y108.504 E23.02768
G1 X182.409 Y108.759 E23.03691
G1 X182.354 Y109.011 E23.0462
G1 X182.272 Y109.254 E23.05543
G1 X182.164 Y109.488 E23.06471
G1 X182.031 Y109.708 E23.07396
G1 X181.876 Y109.913 E23.08321
G1 X181.699 Y110.1 E23.09248
G1 X181.503 Y110.266 E23.10173
G1 X181.29 Y110.411 E23.11101
G1 X181.063 Y110.531 E23.12025
G1 X180.824 Y110.626 E23.12951
G1 X180.576 Y110.695 E23.13878
G1 X180.322 Y110.737 E23.14805
G1 X180.041 Y110.752 E23.15818
G1 X135.089 Y110.752 E24.7764
G1 X134.808 Y110.737 E24.78653
G1 X134.554 Y110.695 E24.7958
G1 X134.307 Y110.626 E24.80503
G1 X134.068 Y110.531 E24.81429
G1 X133.84 Y110.411 E24.82357
G1 X133.627 Y110.266 E24.83285
G1 X133.431 Y110.1 E24.8421
G1 X133.255 Y109.913 E24.85134
G1 X133.099 Y109.708 E24.86061
G1 X132.973 Y109.499 E24.8694
G1 E24.7694 F2400
G92 E0
G1 X186.75 Y127.415 F24000
G1 E.1 F2400
;TYPE:Perimeter
;WIDTH:0.399999
G1 F3000
G1 X37.27 Y127.415 E5.4811
G1 X37.27 Y99.46 E6.48745
G1 X187.73 Y99.46 E11.90383
G1 X187.73 Y127.415 E12.91018
G1 X186.81 Y127.415 E12.9433
G1 X187.341 Y127.761 F24000
G1 F3000
G1 X36.924 Y127.761 E18.35813
G1 X36.924 Y99.114 E19.38939
G1 X188.076 Y99.114 E24.83068
G1 X188.076 Y127.761 E25.86194
