; generated by PrusaSlicer 2.6.1+linux-x64-GTK3 on 2023-09-24 at 13:33:53 UTC

; 

; external perimeters extrusion width = 0.45mm
; perimeters extrusion width = 0.60mm
; infill extrusion width = 0.60mm
; solid infill extrusion width = 0.60mm
; top infill extrusion width = 0.60mm
; first layer extrusion width = 0.40mm

; external perimeters extrusion width = 0.45mm
; perimeters extrusion width = 0.60mm
; infill extrusion width = 0.60mm
; solid infill extrusion width = 0.60mm
; top infill extrusion width = 0.60mm
; first layer extrusion width = 0.40mm

M190 S65 ; set bed temperature and wait for it to be reached
M104 S220 ; set temperature
;TYPE:Custom
G28 ; home all axes
G1 Z5 F5000 ; lift nozzle
M109 S220 ; set temperature and wait for it to be reached
G21 ; set units to millimeters
G90 ; use absolute coordinates
M82 ; use absolute distances for extrusion
G92 E0
; Filament gcode
M107
;LAYER_CHANGE
;Z:0.25
;HEIGHT:0.25
G1 Z.25 F30000
G1 E-.1 F2400
G92 E0
G1 X92.821 Y85.668 F30000
G1 E.1 F2400
;TYPE:Skirt/Brim
;WIDTH:0.4
G1 F4500
G1 X93.657 Y84.942 E.13986
G1 X94.422 Y84.414 E.17332
G1 X95.397 Y83.89 E.21317
G1 X96.428 Y83.487 E.25302
G1 X97.677 Y83.18 E.29932
G1 X99.242 Y83.043 E.35587
G1 X120.206 Y83.057 E1.11055
G1 X121.483 Y83.212 E1.15686
G1 X122.385 Y83.434 E1.1903
G1 X123.424 Y83.817 E1.23016
G1 X124.562 Y84.414 E1.27642
G1 X125.468 Y85.052 E1.31631
G1 X126.289 Y85.795 E1.35617
G1 X161.168 Y127.633 E3.31702
G1 X161.943 Y128.687 E3.36412
G1 X162.449 Y129.583 E3.40116
G1 X163.095 Y131.261 E3.46589
G1 X163.324 Y132.274 E3.50328
G1 X163.439 Y133.257 E3.53891
G1 X163.462 Y149.394 E4.11982
G1 X163.36 Y150.78 E4.16985
G1 X163.108 Y151.982 E4.21406
G1 X162.457 Y153.687 E4.27976
G1 X161.844 Y154.752 E4.324
G1 X161.237 Y155.57 E4.36067
G1 X160.547 Y156.32 E4.39736
G1 X159.155 Y157.45 E4.4619
G1 X158.28 Y157.971 E4.49856
G1 X157.159 Y158.472 E4.54276
G1 X156.187 Y158.778 E4.57944
G1 X155.188 Y158.98 E4.61613
G1 X154.174 Y159.076 E4.6528
G1 X72.77 Y159.086 E7.58325
G1 X71.383 Y158.984 E7.63332
G1 X70.181 Y158.732 E7.67753
G1 X68.476 Y158.081 E7.74323
G1 X67.411 Y157.468 E7.78747
G1 X66.593 Y156.861 E7.82414
G1 X65.844 Y156.171 E7.8608
G1 X65.176 Y155.414 E7.89714
G1 X64.599 Y154.603 E7.93297
G1 X64.097 Y153.717 E7.96963
G1 X63.691 Y152.783 E8.00629
G1 X63.385 Y151.81 E8.04301
G1 X63.184 Y150.812 E8.07966
G1 X63.077 Y149.394 E8.13085
G1 X63.077 Y133.894 E8.68883
G1 X63.211 Y132.3 E8.74641
G1 X63.677 Y130.543 E8.81185
G1 X64.078 Y129.61 E8.84841
G1 X64.586 Y128.704 E8.8858
G1 X91.574 Y87.182 E10.66854
G1 X92.079 Y86.49 E10.69938
G1 X92.781 Y85.713 E10.73708
G1 X93.049 Y85.934 F30000
G1 F4500
G1 X93.871 Y85.215 E10.77639
G1 X94.601 Y84.711 E10.80832
G1 X95.539 Y84.206 E10.84667
G1 X96.532 Y83.818 E10.88505
G1 X97.739 Y83.52 E10.92981
G1 X99.242 Y83.389 E10.98412
G1 X120.185 Y83.403 E11.73804
G1 X121.245 Y83.52 E11.77643
G1 X122.282 Y83.765 E11.81479
G1 X123.445 Y84.206 E11.85957
G1 X124.383 Y84.711 E11.89792
G1 X125.113 Y85.215 E11.92985
G1 X125.918 Y85.913 E11.96821
G1 X126.495 Y86.533 E11.9987
G1 X160.901 Y127.855 E13.93438
G1 X161.653 Y128.877 E13.98006
G1 X162.14 Y129.74 E14.01573
G1 X162.761 Y131.351 E14.07788
G1 X162.982 Y132.329 E14.11397
G1 X163.093 Y133.276 E14.14829
G1 X163.116 Y149.394 E14.72852
G1 X163.018 Y150.727 E14.77664
G1 X162.773 Y151.893 E14.81953
G1 X162.148 Y153.53 E14.88261
G1 X161.553 Y154.564 E14.92556
G1 X160.967 Y155.352 E14.96091
G1 X160.302 Y156.075 E14.99627
G1 X158.966 Y157.16 E15.05823
G1 X158.122 Y157.662 E15.09358
G1 X157.034 Y158.149 E15.13649
G1 X156.097 Y158.443 E15.17184
G1 X155.134 Y158.638 E15.20721
G1 X154.156 Y158.73 E15.24257
G1 X72.77 Y158.74 E18.17237
G1 X71.437 Y158.642 E18.22049
G1 X70.27 Y158.397 E18.26342
G1 X68.633 Y157.772 E18.3265
G1 X67.6 Y157.177 E18.36941
G1 X66.811 Y156.592 E18.40477
G1 X66.088 Y155.926 E18.44016
G1 X65.445 Y155.196 E18.47518
G1 X64.889 Y154.414 E18.50972
G1 X64.405 Y153.559 E18.54509
G1 X64.014 Y152.658 E18.58045
G1 X63.72 Y151.72 E18.61584
G1 X63.526 Y150.758 E18.65117
G1 X63.423 Y149.394 E18.70041
G1 X63.423 Y133.894 E19.25839
G1 X63.554 Y132.353 E19.31406
G1 X64.001 Y130.666 E19.37689
G1 X64.387 Y129.767 E19.41211
G1 X64.876 Y128.893 E19.44816
G1 X91.864 Y87.371 E21.2309
G1 X93.011 Y85.98 E21.2958
G1 E21.1958 F2400
G92 E0
G1 X119.032 Y92.313 F30000
G1 E.1 F2400
;TYPE:Perimeter
;WIDTH:0.382556
G1 F1500
G1 X119.645 Y92.313 E.12096
G1 X119.645 Y92.931 E.14209
G1 X119.367 Y92.597 E.15695
G1 X119.078 Y92.352 E.1699
G1 X118.297 Y92.272 F30000
;WIDTH:0.447191
G1 F1500
G1 X118.171 Y92.213 E.17559
;WIDTH:0.494383
G1 X117.996 Y92.129 E.18448
;WIDTH:0.541574
G1 X117.82 Y92.046 E.19435
G1 X118.022 Y92.023 E.20466
;WIDTH:0.494383
G1 X118.225 Y91.999 E.21402
;WIDTH:0.447191
G1 X118.427 Y91.976 E.22234
;WIDTH:0.399999
G1 X119.759 Y91.985 E.27029
G1 X119.928 Y92.098 E.27761
G1 X119.983 Y92.311 E.28553
G1 X119.983 Y93.685 E.33499
;WIDTH:0.438314
G1 X119.964 Y93.885 E.34302
;WIDTH:0.476628
G1 X119.944 Y94.085 E.35186
;WIDTH:0.514942
G1 X119.925 Y94.285 E.36149
G1 X119.869 Y94.137 E.36908
;WIDTH:0.46967
G1 X119.814 Y93.989 E.37591
;WIDTH:0.424397
G1 X119.586 Y93.458 E.39818
;WIDTH:0.399999
G1 X119.261 Y92.983 E.4189
G1 X118.842 Y92.59 E.43958
G1 X118.351 Y92.298 E.46014
G1 E.36014 F2400
G92 E0
G1 X115.417 Y92.324 F30000
G1 E.1 F2400
G1 F3000
G1 X114.897 Y92.843 E.12645
G1 X114.634 Y93.232 E.14335
G1 X114.447 Y93.609 E.1585
G1 X114.274 Y94.235 E.18188
G1 X114.24 Y94.884 E.20528
G1 X114.316 Y95.422 E.22484
G1 X114.551 Y96.042 E.24871
G1 X114.757 Y96.408 E.26383
G1 X115.179 Y96.902 E.28722
G1 X115.697 Y97.294 E.31061
G1 X116.288 Y97.566 E.33403
G1 X116.923 Y97.705 E.35743
G1 X117.573 Y97.703 E.38083
G1 X118.207 Y97.562 E.40421
G1 X118.866 Y97.239 E.43063
G1 X119.239 Y96.954 E.44753
G1 X119.636 Y96.514 E.46886
G1 X119.63 Y107.61 E.8683
G1 X99.347 Y107.603 E1.59846
G1 X99.347 Y96.526 E1.99722
G1 X99.679 Y96.902 E2.01528
G1 X100.197 Y97.294 E2.03867
G1 X100.788 Y97.566 E2.06209
G1 X101.423 Y97.705 E2.08549
G1 X102.073 Y97.703 E2.10889
G1 X102.707 Y97.562 E2.13227
G1 X103.193 Y97.353 E2.15131
G1 X103.739 Y96.954 E2.17565
G1 X104.039 Y96.654 E2.19092
G1 X104.349 Y96.2 E2.21071
G1 X104.537 Y95.823 E2.22588
G1 X104.709 Y95.196 E2.24929
G1 X104.743 Y94.547 E2.27269
G1 X104.637 Y93.906 E2.29608
G1 X104.349 Y93.231 E2.3225
G1 X104.085 Y92.841 E2.33945
G1 X103.567 Y92.324 E2.3658
G1 X115.357 Y92.324 E2.79023
G1 X116.946 Y92.024 F30000
;WIDTH:0.49684
G1 F3000
G1 X116.895 Y92.041 E2.79271
;WIDTH:0.483738
G1 X116.516 Y92.168 E2.81058
;WIDTH:0.441869
G1 X116.137 Y92.296 E2.82672
;WIDTH:0.399999
G1 X115.642 Y92.59 E2.84745
G1 X115.184 Y93.037 E2.87049
G1 X114.92 Y93.427 E2.88744
G1 X114.775 Y93.719 E2.89918
G1 X114.619 Y94.272 E2.91986
G1 X114.585 Y94.846 E2.94056
G1 X114.651 Y95.334 E2.95829
G1 X114.872 Y95.914 E2.98063
G1 X115.033 Y96.198 E2.99238
G1 X115.403 Y96.638 E3.01308
G1 X115.859 Y96.988 E3.03377
G1 X116.38 Y97.232 E3.05448
G1 X116.941 Y97.359 E3.07519
G1 X117.517 Y97.362 E3.09593
G1 X118.079 Y97.241 E3.11662
G1 X118.656 Y96.963 E3.13968
G1 X119.03 Y96.679 E3.15659
G1 X119.299 Y96.394 E3.1707
G1 X119.563 Y96.006 E3.18759
G1 X119.708 Y95.712 E3.19939
;WIDTH:0.443247
G1 X119.778 Y95.558 E3.20624
;WIDTH:0.486495
G1 X119.848 Y95.403 E3.21389
;WIDTH:0.529742
G1 X119.918 Y95.248 E3.22231
G1 X119.939 Y95.418 E3.23079
;WIDTH:0.486495
G1 X119.961 Y95.588 E3.2385
;WIDTH:0.443247
G1 X119.983 Y95.757 E3.2454
;WIDTH:0.399999
G1 X119.983 Y107.569 E3.67062
G1 X119.955 Y107.755 E3.67739
G1 X119.867 Y107.897 E3.6834
G1 X119.667 Y107.956 E3.69091
G1 X99.388 Y107.956 E4.42093
G1 X99.139 Y107.917 E4.43
G1 X99.056 Y107.833 E4.43425
G1 X99.001 Y107.64 E4.44147
G1 X99.001 Y96.377 E4.84692
;WIDTH:0.422852
G1 X99.013 Y95.747 E4.8711
;WIDTH:0.472714
G1 X99.037 Y95.633 E4.87617
;WIDTH:0.522576
G1 X99.062 Y95.518 E4.88191
;WIDTH:0.572438
G1 X99.087 Y95.404 E4.8882
G1 X99.143 Y95.501 E4.89424
;WIDTH:0.522576
G1 X99.2 Y95.597 E4.89968
;WIDTH:0.472714
G1 X99.256 Y95.694 E4.90456
;WIDTH:0.422852
G1 X99.533 Y96.198 E4.92663
;WIDTH:0.399999
G1 X99.903 Y96.638 E4.94733
G1 X100.359 Y96.988 E4.96802
G1 X100.88 Y97.232 E4.98873
G1 X101.441 Y97.359 E5.00944
G1 X102.017 Y97.362 E5.03018
G1 X102.563 Y97.247 E5.05027
G1 X103.021 Y97.052 E5.06819
G1 X103.53 Y96.679 E5.09091
G1 X103.763 Y96.445 E5.1028
G1 X104.063 Y96.006 E5.12194
G1 X104.208 Y95.712 E5.13374
G1 X104.365 Y95.159 E5.15443
G1 X104.399 Y94.584 E5.17517
G1 X104.309 Y94.016 E5.19587
G1 X104.063 Y93.425 E5.21891
G1 X103.799 Y93.036 E5.23583
G1 X103.342 Y92.59 E5.25882
G1 X102.847 Y92.296 E5.27955
;WIDTH:0.447449
G1 X102.672 Y92.212 E5.2875
;WIDTH:0.494899
G1 X102.496 Y92.129 E5.29642
;WIDTH:0.542348
G1 X102.32 Y92.046 E5.3063
G1 X102.522 Y92.022 E5.31663
;WIDTH:0.494899
G1 X102.725 Y91.999 E5.326
;WIDTH:0.447449
G1 X102.927 Y91.975 E5.33433
;WIDTH:0.399999
G1 X116.422 Y91.975 E5.82013
;WIDTH:0.44842
G1 X116.684 Y92 E5.83093
;WIDTH:0.49684
G1 X116.887 Y92.018 E5.84032
G1 X118.149 Y92.598 F30000
;WIDTH:0.399999
G1 F1500
G1 X118.462 Y92.749 E5.85283
G1 X118.857 Y93.057 E5.87086
G1 X119.175 Y93.443 E5.88886
G1 X119.404 Y93.888 E5.90688
G1 X119.531 Y94.372 E5.92489
G1 X119.525 Y95.074 E5.95016
G1 X119.38 Y95.602 E5.96987
G1 X119.013 Y96.2 E5.99513
G1 X118.82 Y96.403 E6.00521
G1 X118.243 Y96.803 E6.03048
G1 X117.77 Y96.969 E6.04853
G1 X117.274 Y97.03 E6.06652
G1 X116.775 Y96.983 E6.08456
G1 X116.299 Y96.829 E6.10257
G1 X115.867 Y96.577 E6.12057
G1 X115.498 Y96.238 E6.13861
G1 X115.194 Y95.785 E6.15825
G1 X114.986 Y95.247 E6.17901
G1 X114.929 Y94.622 E6.2016
G1 X115.003 Y94.127 E6.21962
G1 X115.207 Y93.621 E6.23926
G1 X115.627 Y93.057 E6.26457
G1 X115.867 Y92.854 E6.27589
G1 X116.299 Y92.602 E6.29389
G1 X116.978 Y92.42 E6.3192
G1 X117.524 Y92.418 E6.33886
G1 X118.011 Y92.532 E6.35687
G1 X118.095 Y92.572 E6.36022
G1 X117.966 Y92.89 F30000
G1 F1500
G1 X118.393 Y93.118 E6.37765
G1 X118.71 Y93.403 E6.393
G1 X118.958 Y93.749 E6.40832
G1 X119.125 Y94.14 E6.42363
G1 X119.204 Y94.586 E6.43994
G1 X119.172 Y95.117 E6.45909
G1 X118.99 Y95.617 E6.47824
G1 X118.61 Y96.127 E6.50114
G1 X118.114 Y96.481 E6.52308
G1 X117.714 Y96.627 E6.53841
G1 X117.292 Y96.684 E6.55374
G1 X116.868 Y96.649 E6.56906
G1 X116.461 Y96.523 E6.5844
G1 X116.091 Y96.313 E6.59972
G1 X115.76 Y96.01 E6.61587
G1 X115.516 Y95.657 E6.63132
G1 X115.321 Y95.159 E6.65057
G1 X115.273 Y94.659 E6.66865
G1 X115.332 Y94.237 E6.68399
G1 X115.494 Y93.815 E6.70026
G1 X115.851 Y93.321 E6.7222
G1 X116.091 Y93.118 E6.73352
G1 X116.593 Y92.859 E6.75385
G1 X117.164 Y92.746 E6.7748
G1 X117.616 Y92.782 E6.79112
G1 X117.908 Y92.872 E6.80212
G1 X117.942 Y93.258 F30000
;TYPE:External perimeter
G1 F1500
G1 X118.169 Y93.382 E6.81143
G1 X118.434 Y93.612 E6.82406
G1 X118.643 Y93.894 E6.8367
G1 X118.787 Y94.215 E6.84937
G1 X118.858 Y94.567 E6.8623
G1 X118.824 Y95.083 E6.88092
G1 X118.703 Y95.422 E6.89388
G1 X118.401 Y95.852 E6.9128
G1 X117.986 Y96.159 E6.93138
G1 X117.658 Y96.285 E6.94403
G1 X117.311 Y96.338 E6.95667
G1 X116.961 Y96.315 E6.9693
G1 X116.623 Y96.217 E6.98197
G1 X116.315 Y96.049 E6.9946
G1 X116.036 Y95.8 E7.00806
G1 X115.837 Y95.529 E7.02016
G1 X115.652 Y95.046 E7.03878
G1 X115.618 Y94.697 E7.0514
G1 X115.66 Y94.348 E7.06405
G1 X115.781 Y94.009 E7.07701
G1 X116.076 Y93.585 E7.0956
G1 X116.315 Y93.382 E7.10689
G1 X116.667 Y93.197 E7.12121
G1 X117.164 Y93.092 E7.1395
G1 X117.523 Y93.116 E7.15245
G1 X117.889 Y93.229 E7.16624
G1 X118.149 Y93.103 F30000
G1 X116.946 Y92.024
;TYPE:Perimeter
;WIDTH:0.49684
G1 F3000
G1 X117.545 Y92.024 E7.19383
;WIDTH:0.541574
G1 X117.82 Y92.046 E7.20782
G1 E7.10782 F2400
G92 E0
G1 X119.925 Y94.285 F30000
G1 E.1 F2400
;WIDTH:0.514942
G1 F3000
G1 X119.927 Y95.096 E.13888
;WIDTH:0.529742
G1 X119.918 Y95.248 E.14641
G1 E.04641 F2400
G92 E0
G1 X99.956 Y92.316 F30000
G1 E.1 F2400
;WIDTH:0.389942
G1 F1500
G1 X99.858 Y92.386 E.10421
G1 X99.342 Y92.927 E.13034
G1 X99.35 Y92.316 E.1517
G1 X99.896 Y92.316 E.17078
G1 X101.385 Y92.043 F30000
;WIDTH:0.497606
G1 F1500
G1 X101.195 Y92.103 E.17997
;WIDTH:0.448803
G1 X100.944 Y92.183 E.19079
;WIDTH:0.399999
G1 X100.359 Y92.443 E.21384
G1 X99.861 Y92.854 E.23708
G1 X99.547 Y93.212 E.25422
G1 X99.275 Y93.719 E.27493
;WIDTH:0.439328
G1 X99.204 Y93.901 E.28276
;WIDTH:0.478656
G1 X99.132 Y94.083 E.29141
;WIDTH:0.517984
G1 X99.06 Y94.266 E.3009
G1 X99.04 Y94.069 E.31046
;WIDTH:0.478656
G1 X99.021 Y93.871 E.31925
;WIDTH:0.439328
G1 X99.001 Y93.674 E.32719
;WIDTH:0.399999
G1 X99.029 Y92.176 E.38113
G1 X99.116 Y92.034 E.38712
G1 X99.317 Y91.975 E.39466
G1 X100.922 Y91.975 E.45244
;WIDTH:0.448803
G1 X101.184 Y91.999 E.46325
;WIDTH:0.497606
G1 X101.446 Y92.024 E.47539
G1 X101.442 Y92.025 E.47558
G1 X101.653 Y92.419 F30000
;WIDTH:0.399999
G1 F1500
G1 X102.024 Y92.418 E.48894
G1 X102.511 Y92.532 E.50695
G1 X102.962 Y92.749 E.52497
G1 X103.356 Y93.057 E.54297
G1 X103.776 Y93.62 E.56826
G1 X103.98 Y94.127 E.58793
G1 X104.055 Y94.622 E.60595
G1 X104.021 Y95.121 E.62396
G1 X103.88 Y95.602 E.642
G1 X103.513 Y96.2 E.66726
G1 X103.32 Y96.403 E.67734
G1 X102.85 Y96.751 E.69839
G1 X102.27 Y96.969 E.7207
G1 X101.774 Y97.03 E.73869
G1 X101.275 Y96.983 E.75673
G1 X100.799 Y96.829 E.77474
G1 X100.367 Y96.577 E.79274
G1 X99.998 Y96.238 E.81078
G1 X99.712 Y95.828 E.82878
G1 X99.513 Y95.329 E.84812
G1 X99.424 Y94.715 E.87045
G1 X99.503 Y94.127 E.89181
G1 X99.682 Y93.659 E.90985
G1 X99.844 Y93.391 E.92112
G1 X100.331 Y92.885 E.9464
G1 X100.799 Y92.602 E.96609
G1 X101.478 Y92.42 E.9914
G1 X101.593 Y92.42 E.99554
G1 X101.663 Y92.76 F30000
G1 F1500
G1 X102.005 Y92.764 E1.00785
G1 X102.523 Y92.908 E1.0272
G1 X102.893 Y93.118 E1.04252
G1 X103.225 Y93.425 E1.0588
G1 X103.552 Y93.94 E1.08076
G1 X103.676 Y94.347 E1.09608
G1 X103.71 Y94.772 E1.11143
G1 X103.652 Y95.193 E1.12673
G1 X103.49 Y95.617 E1.14307
G1 X103.181 Y96.062 E1.16257
G1 X102.737 Y96.412 E1.18292
G1 X102.316 Y96.6 E1.19952
G1 X101.792 Y96.684 E1.21862
G1 X101.368 Y96.649 E1.23394
G1 X100.961 Y96.523 E1.24928
G1 X100.591 Y96.313 E1.2646
G1 X100.274 Y96.028 E1.27995
G1 X100.026 Y95.682 E1.29527
G1 X99.854 Y95.264 E1.31154
G1 X99.77 Y94.715 E1.33153
G1 X99.832 Y94.237 E1.34888
G1 X99.979 Y93.838 E1.36419
G1 X100.14 Y93.57 E1.37544
G1 X100.57 Y93.137 E1.39741
G1 X100.961 Y92.908 E1.41372
G1 X101.603 Y92.759 E1.43745
G1 X101.748 Y93.098 F30000
;TYPE:External perimeter
G1 F1500
G1 X102.023 Y93.116 E1.44737
G1 X102.36 Y93.214 E1.46
G1 X102.669 Y93.382 E1.47266
G1 X102.939 Y93.619 E1.48559
G1 X103.224 Y94.05 E1.50419
G1 X103.332 Y94.385 E1.51686
G1 X103.366 Y94.734 E1.52948
G1 X103.324 Y95.083 E1.54213
G1 X103.203 Y95.422 E1.55509
G1 X102.913 Y95.841 E1.57343
G1 X102.508 Y96.149 E1.59175
G1 X102.158 Y96.285 E1.60527
G1 X101.811 Y96.338 E1.61791
G1 X101.461 Y96.315 E1.63054
G1 X101.123 Y96.217 E1.64321
G1 X100.815 Y96.049 E1.65584
G1 X100.55 Y95.819 E1.66847
G1 X100.341 Y95.537 E1.68111
G1 X100.195 Y95.208 E1.69407
G1 X100.118 Y94.697 E1.71267
G1 X100.16 Y94.348 E1.72532
G1 X100.276 Y94.017 E1.73795
G1 X100.437 Y93.748 E1.74924
G1 X100.808 Y93.388 E1.76785
G1 X101.167 Y93.197 E1.78249
G1 X101.688 Y93.094 E1.80161
G1 X101.872 Y92.852 F30000
G1 X101.446 Y92.024
;TYPE:Perimeter
;WIDTH:0.497606
G1 F3000
G1 X102.045 Y92.024 E1.82925
;WIDTH:0.542348
G1 X102.32 Y92.046 E1.84326
G1 E1.74326 F2400
G92 E0
G1 X99.087 Y95.404 F30000
G1 E.1 F2400
;WIDTH:0.572438
G1 F3000
G1 X99.063 Y95.06 E.11859
;WIDTH:0.524514
G1 X99.039 Y94.715 E.13552
;WIDTH:0.517984
G1 X99.06 Y94.266 E.15721
G1 E.05721 F2400
G92 E0
G1 X115.897 Y108.303 F30000
G1 E.1 F2400
;WIDTH:0.399999
G1 F3000
G1 X99.388 Y108.303 E.6943
G1 X99.053 Y108.253 E.70649
G1 X98.909 Y108.177 E.71235
G1 X98.722 Y107.934 E.72339
G1 X98.655 Y107.661 E.73351
G1 X98.655 Y92.484 E1.27986
G1 X98.704 Y92.029 E1.29633
G1 X98.783 Y91.878 E1.30246
G1 X99.01 Y91.702 E1.3128
G1 X99.296 Y91.628 E1.32343
G1 X119.662 Y91.629 E2.05658
G1 X119.942 Y91.688 E2.06688
G1 X120.143 Y91.822 E2.07558
G1 X120.269 Y92.013 E2.08382
G1 X120.329 Y92.311 E2.09476
G1 X120.329 Y107.569 E2.64403
G1 X120.28 Y107.902 E2.65615
G1 X120.201 Y108.053 E2.66228
G1 X119.974 Y108.229 E2.67262
G1 X119.688 Y108.303 E2.68325
