; generated by PrusaSlicer 2.6.1+linux-x64-GTK3 on 2023-09-23 at 22:24:32 UTC

; 

; external perimeters extrusion width = 0.45mm
; perimeters extrusion width = 0.60mm
; infill extrusion width = 0.60mm
; solid infill extrusion width = 0.60mm
; top infill extrusion width = 0.60mm
; first layer extrusion width = 0.40mm

M190 S65 ; set bed temperature and wait for it to be reached
M104 S220 ; set temperature
;TYPE:Custom
G28 ; home all axes
G1 Z5 F5000 ; lift nozzle
M109 S220 ; set temperature and wait for it to be reached
G21 ; set units to millimeters
G90 ; use absolute coordinates
M82 ; use absolute distances for extrusion
G92 E0
; Filament gcode
M107
;LAYER_CHANGE
;Z:0.25
;HEIGHT:0.25
G1 Z.25 F30000
G1 E-.1 F2400
G92 E0
G1 X95.703 Y98.329 F30000
G1 E.1 F2400
;TYPE:Skirt/Brim
;WIDTH:0.4
G1 F4500
G1 X96.524 Y97.587 E.13984
G1 X97.583 Y96.856 E.18616
G1 X98.405 Y96.425 E.21957
G1 X99.437 Y96.022 E.25945
G1 X100.685 Y95.714 E.30572
G1 X102.25 Y95.577 E.36227
G1 X123.214 Y95.591 E1.11695
G1 X124.491 Y95.746 E1.16326
G1 X125.393 Y95.969 E1.19671
G1 X126.432 Y96.351 E1.23656
G1 X127.57 Y96.949 E1.28284
G1 X128.476 Y97.587 E1.32273
G1 X129.297 Y98.329 E1.36257
G1 X129.913 Y99.024 E1.396
G1 X130.551 Y99.93 E1.43589
G1 X131.149 Y101.068 E1.48217
G1 X131.478 Y101.937 E1.51562
G1 X131.754 Y103.009 E1.55547
G1 X131.923 Y104.75 E1.61844
G1 X131.898 Y120.893 E2.19957
G1 X131.786 Y121.815 E2.233
G1 X131.531 Y122.893 E2.27288
G1 X131.149 Y123.932 E2.31273
G1 X130.551 Y125.07 E2.35901
G1 X129.913 Y125.976 E2.3989
G1 X129.171 Y126.797 E2.43874
G1 X128.335 Y127.523 E2.4786
G1 X127.57 Y128.051 E2.51206
G1 X126.595 Y128.575 E2.55191
G1 X125.563 Y128.978 E2.59179
G1 X124.491 Y129.254 E2.63164
G1 X123.214 Y129.409 E2.67795
G1 X101.607 Y129.398 E3.45578
G1 X100.685 Y129.286 E3.48921
G1 X99.607 Y129.031 E3.52909
G1 X98.568 Y128.649 E3.56894
G1 X97.43 Y128.051 E3.61522
G1 X96.524 Y127.413 E3.65511
G1 X95.703 Y126.671 E3.69495
G1 X95.087 Y125.976 E3.72838
G1 X94.449 Y125.07 E3.76827
G1 X93.925 Y124.095 E3.80812
G1 X93.469 Y122.893 E3.8544
G1 X93.214 Y121.815 E3.89428
G1 X93.091 Y120.714 E3.93416
G1 X93.102 Y104.107 E4.53199
G1 X93.214 Y103.185 E4.56542
G1 X93.469 Y102.107 E4.6053
G1 X93.851 Y101.068 E4.64515
G1 X94.449 Y99.93 E4.69143
G1 X95.087 Y99.024 E4.73132
G1 X95.663 Y98.374 E4.76258
G1 X95.922 Y98.603 F30000
G1 F4500
G1 X96.738 Y97.859 E4.80233
G1 X97.762 Y97.153 E4.8471
G1 X98.71 Y96.667 E4.88545
G1 X99.71 Y96.299 E4.92381
G1 X100.572 Y96.087 E4.95577
G1 X101.628 Y95.948 E4.99411
G1 X123.194 Y95.937 E5.77046
G1 X124.428 Y96.087 E5.81521
G1 X125.46 Y96.353 E5.85358
G1 X126.29 Y96.667 E5.88553
G1 X127.391 Y97.245 E5.93029
G1 X128.262 Y97.859 E5.96865
G1 X129.052 Y98.574 E6.00701
G1 X129.641 Y99.238 E6.03896
G1 X130.255 Y100.109 E6.07732
G1 X130.833 Y101.21 E6.12208
G1 X131.147 Y102.04 E6.15403
G1 X131.413 Y103.072 E6.1924
G1 X131.576 Y104.75 E6.25309
G1 X131.552 Y120.872 E6.83346
G1 X131.445 Y121.753 E6.86541
G1 X131.201 Y122.79 E6.90376
G1 X130.833 Y123.79 E6.94212
G1 X130.255 Y124.891 E6.98688
G1 X129.641 Y125.762 E7.02524
G1 X128.926 Y126.552 E7.0636
G1 X128.121 Y127.251 E7.10198
G1 X127.391 Y127.755 E7.13391
G1 X126.453 Y128.259 E7.17224
G1 X125.46 Y128.647 E7.21062
G1 X124.428 Y128.913 E7.24899
G1 X123.194 Y129.063 E7.29374
G1 X101.628 Y129.052 E8.07009
G1 X100.747 Y128.945 E8.10204
G1 X99.71 Y128.701 E8.14039
G1 X98.71 Y128.333 E8.17875
G1 X97.609 Y127.755 E8.22351
G1 X96.738 Y127.141 E8.26187
G1 X95.948 Y126.426 E8.30023
G1 X95.359 Y125.762 E8.33218
G1 X94.745 Y124.891 E8.37054
G1 X94.241 Y123.953 E8.40887
G1 X93.799 Y122.79 E8.45366
G1 X93.555 Y121.753 E8.49201
G1 X93.437 Y120.694 E8.53037
G1 X93.448 Y104.128 E9.12673
G1 X93.555 Y103.247 E9.15868
G1 X93.799 Y102.21 E9.19703
G1 X94.167 Y101.21 E9.23539
G1 X94.745 Y100.109 E9.28015
G1 X95.359 Y99.238 E9.31851
G1 X95.882 Y98.648 E9.34689
G1 E9.24689 F2400
G92 E0
G1 X122.04 Y104.848 F30000
G1 E.1 F2400
;TYPE:Perimeter
;WIDTH:0.382556
G1 F1500
G1 X122.653 Y104.848 E.12096
G1 X122.653 Y105.465 E.14205
G1 X122.375 Y105.131 E.15691
G1 X122.086 Y104.887 E.16984
G1 X121.305 Y104.806 F30000
;WIDTH:0.447191
G1 F1500
G1 X121.18 Y104.747 E.17549
;WIDTH:0.494383
G1 X121.004 Y104.664 E.1844
;WIDTH:0.541574
G1 X120.828 Y104.581 E.19427
G1 X121.03 Y104.557 E.20459
;WIDTH:0.494383
G1 X121.233 Y104.534 E.21395
;WIDTH:0.447191
G1 X121.435 Y104.51 E.22227
;WIDTH:0.399999
G1 X122.767 Y104.52 E.27022
G1 X122.936 Y104.633 E.27754
G1 X122.991 Y104.845 E.28542
G1 X122.991 Y106.219 E.33488
;WIDTH:0.438314
G1 X122.972 Y106.419 E.34291
;WIDTH:0.476628
G1 X122.952 Y106.619 E.35175
;WIDTH:0.514942
G1 X122.933 Y106.819 E.36138
G1 X122.878 Y106.671 E.36895
;WIDTH:0.46967
G1 X122.822 Y106.523 E.37579
;WIDTH:0.424397
G1 X122.594 Y105.992 E.39806
;WIDTH:0.399999
G1 X122.269 Y105.518 E.41875
G1 X121.85 Y105.124 E.43945
G1 X121.359 Y104.832 E.46001
G1 E.36001 F2400
G92 E0
G1 X118.425 Y104.859 F30000
G1 E.1 F2400
G1 F3000
G1 X117.905 Y105.377 E.12642
G1 X117.642 Y105.767 E.14335
G1 X117.455 Y106.143 E.15847
G1 X117.283 Y106.769 E.18184
G1 X117.249 Y107.418 E.20524
G1 X117.324 Y107.956 E.22479
G1 X117.559 Y108.577 E.24869
G1 X117.766 Y108.942 E.2638
G1 X118.187 Y109.436 E.28717
G1 X118.705 Y109.829 E.31058
G1 X119.296 Y110.101 E.334
G1 X119.931 Y110.239 E.35739
G1 X120.581 Y110.238 E.38079
G1 X121.215 Y110.097 E.40417
G1 X121.874 Y109.773 E.43061
G1 X122.248 Y109.489 E.44752
G1 X122.644 Y109.049 E.46883
G1 X122.638 Y120.144 E.86824
G1 X102.356 Y120.138 E1.59837
G1 X102.356 Y109.061 E1.99713
G1 X102.687 Y109.436 E2.01514
G1 X103.205 Y109.829 E2.03855
G1 X103.796 Y110.101 E2.06197
G1 X104.431 Y110.239 E2.08536
G1 X105.081 Y110.238 E2.10876
G1 X105.715 Y110.097 E2.13214
G1 X106.201 Y109.888 E2.15118
G1 X106.748 Y109.489 E2.17555
G1 X107.047 Y109.188 E2.19082
G1 X107.358 Y108.735 E2.2106
G1 X107.545 Y108.357 E2.22578
G1 X107.717 Y107.731 E2.24915
G1 X107.751 Y107.082 E2.27255
G1 X107.645 Y106.44 E2.29597
G1 X107.357 Y105.765 E2.32239
G1 X107.093 Y105.376 E2.33931
G1 X106.576 Y104.858 E2.36566
G1 X118.365 Y104.858 E2.79005
G1 X119.954 Y104.558 F30000
;WIDTH:0.49684
G1 F3000
G1 X119.903 Y104.575 E2.79253
;WIDTH:0.483738
G1 X119.524 Y104.703 E2.81041
;WIDTH:0.441869
G1 X119.145 Y104.83 E2.82654
;WIDTH:0.399999
G1 X118.65 Y105.124 E2.84727
G1 X118.192 Y105.572 E2.87033
G1 X117.928 Y105.961 E2.88725
G1 X117.783 Y106.254 E2.89902
G1 X117.627 Y106.807 E2.9197
G1 X117.593 Y107.381 E2.9404
G1 X117.659 Y107.869 E2.95813
G1 X117.88 Y108.448 E2.98044
G1 X118.041 Y108.733 E2.99222
G1 X118.411 Y109.172 E3.01289
G1 X118.867 Y109.523 E3.03361
G1 X119.388 Y109.767 E3.05432
G1 X119.949 Y109.893 E3.07502
G1 X120.525 Y109.896 E3.09576
G1 X121.087 Y109.775 E3.11645
G1 X121.664 Y109.498 E3.13949
G1 X122.038 Y109.213 E3.15642
G1 X122.307 Y108.929 E3.1705
G1 X122.571 Y108.54 E3.18742
G1 X122.717 Y108.247 E3.1992
;WIDTH:0.443247
G1 X122.786 Y108.092 E3.20607
;WIDTH:0.486495
G1 X122.856 Y107.937 E3.21372
;WIDTH:0.529742
G1 X122.926 Y107.783 E3.22209
G1 X122.948 Y107.952 E3.23052
;WIDTH:0.486495
G1 X122.969 Y108.122 E3.23823
;WIDTH:0.443247
G1 X122.991 Y108.292 E3.24517
;WIDTH:0.399999
G1 X122.991 Y120.104 E3.67039
G1 X122.963 Y120.289 E3.67713
G1 X122.875 Y120.431 E3.68314
G1 X122.675 Y120.491 E3.69066
G1 X102.396 Y120.491 E4.42068
G1 X102.147 Y120.452 E4.42975
G1 X102.064 Y120.367 E4.43403
G1 X102.009 Y120.175 E4.44122
G1 X102.009 Y108.911 E4.84671
;WIDTH:0.422852
G1 X102.021 Y108.282 E4.87085
;WIDTH:0.472714
G1 X102.046 Y108.167 E4.87598
;WIDTH:0.522576
G1 X102.07 Y108.053 E4.88166
;WIDTH:0.572438
G1 X102.095 Y107.939 E4.88795
G1 X102.152 Y108.035 E4.89397
;WIDTH:0.522576
G1 X102.208 Y108.132 E4.89943
;WIDTH:0.472714
G1 X102.264 Y108.228 E4.90427
;WIDTH:0.422852
G1 X102.541 Y108.732 E4.92634
;WIDTH:0.399999
G1 X102.911 Y109.172 E4.94704
G1 X103.367 Y109.523 E4.96776
G1 X103.888 Y109.767 E4.98847
G1 X104.449 Y109.893 E5.00917
G1 X105.025 Y109.896 E5.02991
G1 X105.571 Y109.782 E5.04999
G1 X106.029 Y109.587 E5.06791
G1 X106.538 Y109.213 E5.09065
G1 X106.771 Y108.979 E5.10254
G1 X107.071 Y108.54 E5.12168
G1 X107.217 Y108.247 E5.13346
G1 X107.373 Y107.693 E5.15418
G1 X107.407 Y107.119 E5.17488
G1 X107.317 Y106.551 E5.19558
G1 X107.071 Y105.96 E5.21862
G1 X106.807 Y105.57 E5.23557
G1 X106.35 Y105.124 E5.25856
G1 X105.855 Y104.83 E5.27929
;WIDTH:0.447449
G1 X105.68 Y104.747 E5.28722
;WIDTH:0.494899
G1 X105.504 Y104.664 E5.29614
;WIDTH:0.542348
G1 X105.328 Y104.581 E5.30602
G1 X105.531 Y104.557 E5.3164
;WIDTH:0.494899
G1 X105.733 Y104.533 E5.32573
;WIDTH:0.447449
G1 X105.935 Y104.509 E5.33406
;WIDTH:0.399999
G1 X119.43 Y104.51 E5.81986
;WIDTH:0.44842
G1 X119.692 Y104.534 E5.83066
;WIDTH:0.49684
G1 X119.895 Y104.553 E5.84005
G1 X121.157 Y105.133 F30000
;WIDTH:0.399999
G1 F1500
G1 X121.47 Y105.283 E5.85254
G1 X121.865 Y105.592 E5.87059
G1 X122.183 Y105.977 E5.88857
G1 X122.412 Y106.423 E5.90662
G1 X122.539 Y106.906 E5.9246
G1 X122.533 Y107.609 E5.94991
G1 X122.388 Y108.136 E5.96959
G1 X122.021 Y108.735 E5.99488
G1 X121.828 Y108.938 E6.00496
G1 X121.251 Y109.337 E6.03021
G1 X120.779 Y109.504 E6.04823
G1 X120.282 Y109.564 E6.06625
G1 X119.783 Y109.517 E6.08429
G1 X119.307 Y109.364 E6.10229
G1 X118.875 Y109.112 E6.12029
G1 X118.507 Y108.773 E6.1383
G1 X118.202 Y108.32 E6.15796
G1 X117.994 Y107.781 E6.17876
G1 X117.937 Y107.156 E6.20135
G1 X118.011 Y106.661 E6.21937
G1 X118.215 Y106.155 E6.23901
G1 X118.635 Y105.592 E6.2643
G1 X118.875 Y105.388 E6.27564
G1 X119.307 Y105.136 E6.29364
G1 X119.986 Y104.954 E6.31895
G1 X120.532 Y104.953 E6.33861
G1 X121.019 Y105.067 E6.35662
G1 X121.103 Y105.107 E6.35997
G1 X120.974 Y105.424 F30000
G1 F1500
G1 X121.401 Y105.652 E6.3774
G1 X121.718 Y105.937 E6.39275
G1 X121.966 Y106.283 E6.40807
G1 X122.133 Y106.675 E6.42341
G1 X122.212 Y107.12 E6.43968
G1 X122.18 Y107.652 E6.45887
G1 X121.998 Y108.151 E6.47799
G1 X121.619 Y108.662 E6.50089
G1 X121.122 Y109.015 E6.52284
G1 X120.722 Y109.162 E6.53818
G1 X120.3 Y109.219 E6.55351
G1 X119.876 Y109.183 E6.56883
G1 X119.469 Y109.058 E6.58416
G1 X119.099 Y108.848 E6.59948
G1 X118.768 Y108.545 E6.61563
G1 X118.524 Y108.192 E6.63108
G1 X118.329 Y107.694 E6.65033
G1 X118.282 Y107.194 E6.66841
G1 X118.34 Y106.772 E6.68374
G1 X118.502 Y106.35 E6.70001
G1 X118.86 Y105.856 E6.72197
G1 X119.099 Y105.652 E6.73328
G1 X119.601 Y105.394 E6.7536
G1 X120.172 Y105.281 E6.77455
G1 X120.624 Y105.317 E6.79087
G1 X120.916 Y105.407 E6.80187
G1 X120.95 Y105.793 F30000
;TYPE:External perimeter
G1 F1500
G1 X121.177 Y105.916 E6.81116
G1 X121.442 Y106.147 E6.82382
G1 X121.651 Y106.429 E6.83646
G1 X121.795 Y106.749 E6.84909
G1 X121.866 Y107.102 E6.86205
G1 X121.832 Y107.617 E6.88063
G1 X121.711 Y107.957 E6.89362
G1 X121.409 Y108.386 E6.91251
G1 X120.994 Y108.694 E6.93111
G1 X120.666 Y108.82 E6.94376
G1 X120.319 Y108.873 E6.9564
G1 X119.969 Y108.85 E6.96903
G1 X119.631 Y108.752 E6.9817
G1 X119.323 Y108.584 E6.99433
G1 X119.044 Y108.335 E7.00779
G1 X118.845 Y108.063 E7.01992
G1 X118.66 Y107.581 E7.03851
G1 X118.626 Y107.231 E7.05117
G1 X118.668 Y106.883 E7.06379
G1 X118.789 Y106.544 E7.07675
G1 X119.084 Y106.119 E7.09537
G1 X119.323 Y105.916 E7.10666
G1 X119.675 Y105.732 E7.12096
G1 X120.172 Y105.627 E7.13925
G1 X120.531 Y105.65 E7.1522
G1 X120.897 Y105.764 E7.166
G1 X121.157 Y105.637 F30000
G1 X119.954 Y104.558
;TYPE:Perimeter
;WIDTH:0.49684
G1 F3000
G1 X120.553 Y104.558 E7.19359
;WIDTH:0.541574
G1 X120.828 Y104.581 E7.20758
G1 E7.10758 F2400
G92 E0
G1 X122.933 Y106.819 F30000
G1 E.1 F2400
;WIDTH:0.514942
G1 F3000
G1 X122.935 Y107.63 E.13888
;WIDTH:0.529742
G1 X122.926 Y107.783 E.14646
G1 E.04646 F2400
G92 E0
G1 X102.964 Y104.851 F30000
G1 E.1 F2400
;WIDTH:0.389942
G1 F1500
G1 X102.866 Y104.921 E.10421
G1 X102.351 Y105.461 E.13029
G1 X102.358 Y104.851 E.15161
G1 X102.904 Y104.851 E.17069
G1 X104.393 Y104.578 F30000
;WIDTH:0.497606
G1 F1500
G1 X104.203 Y104.638 E.17988
;WIDTH:0.448803
G1 X103.952 Y104.717 E.19069
;WIDTH:0.399999
G1 X103.367 Y104.977 E.21374
G1 X102.869 Y105.388 E.23698
G1 X102.555 Y105.747 E.25415
G1 X102.283 Y106.253 E.27483
;WIDTH:0.439328
G1 X102.212 Y106.436 E.2827
;WIDTH:0.478656
G1 X102.14 Y106.618 E.29135
;WIDTH:0.517984
G1 X102.068 Y106.8 E.3008
G1 X102.049 Y106.603 E.31035
;WIDTH:0.478656
G1 X102.029 Y106.406 E.3191
;WIDTH:0.439328
G1 X102.009 Y106.208 E.32708
;WIDTH:0.399999
G1 X102.037 Y104.711 E.38098
G1 X102.125 Y104.569 E.38699
G1 X102.325 Y104.509 E.39451
G1 X103.93 Y104.509 E.45229
;WIDTH:0.448803
G1 X104.192 Y104.534 E.4631
;WIDTH:0.497606
G1 X104.454 Y104.558 E.47524
G1 X104.45 Y104.559 E.47543
G1 X104.661 Y104.954 F30000
;WIDTH:0.399999
G1 F1500
G1 X105.032 Y104.953 E.48879
G1 X105.519 Y105.067 E.5068
G1 X105.97 Y105.283 E.5248
G1 X106.364 Y105.591 E.5428
G1 X106.784 Y106.154 E.56809
G1 X106.989 Y106.661 E.58778
G1 X107.063 Y107.156 E.6058
G1 X107.029 Y107.656 E.62384
G1 X106.888 Y108.136 E.64185
G1 X106.521 Y108.735 E.66714
G1 X106.328 Y108.938 E.67722
G1 X105.858 Y109.286 E.69827
G1 X105.279 Y109.504 E.72054
G1 X104.782 Y109.564 E.73856
G1 X104.283 Y109.517 E.7566
G1 X103.807 Y109.364 E.7746
G1 X103.375 Y109.112 E.7926
G1 X103.007 Y108.773 E.81061
G1 X102.72 Y108.362 E.82866
G1 X102.521 Y107.864 E.84797
G1 X102.432 Y107.25 E.8703
G1 X102.511 Y106.661 E.89169
G1 X102.69 Y106.194 E.90969
G1 X102.852 Y105.926 E.92096
G1 X103.339 Y105.42 E.94624
G1 X103.807 Y105.136 E.96595
G1 X104.486 Y104.954 E.99126
G1 X104.601 Y104.954 E.9954
G1 X104.671 Y105.294 F30000
G1 F1500
G1 X105.013 Y105.298 E1.00771
G1 X105.531 Y105.442 E1.02706
G1 X105.901 Y105.652 E1.04238
G1 X106.233 Y105.959 E1.05866
G1 X106.56 Y106.474 E1.08062
G1 X106.685 Y106.882 E1.09598
G1 X106.718 Y107.306 E1.11129
G1 X106.66 Y107.728 E1.12662
G1 X106.498 Y108.151 E1.14293
G1 X106.189 Y108.597 E1.16246
G1 X105.745 Y108.946 E1.18279
G1 X105.324 Y109.134 E1.19939
G1 X104.8 Y109.219 E1.2185
G1 X104.376 Y109.183 E1.23382
G1 X103.969 Y109.058 E1.24915
G1 X103.599 Y108.848 E1.26447
G1 X103.282 Y108.563 E1.27982
G1 X103.034 Y108.217 E1.29514
G1 X102.862 Y107.799 E1.31141
G1 X102.778 Y107.25 E1.3314
G1 X102.84 Y106.772 E1.34875
G1 X102.987 Y106.372 E1.36409
G1 X103.149 Y106.104 E1.37536
G1 X103.578 Y105.671 E1.3973
G1 X103.969 Y105.442 E1.41361
G1 X104.611 Y105.293 E1.43734
G1 X104.756 Y105.632 F30000
;TYPE:External perimeter
G1 F1500
G1 X105.031 Y105.65 E1.44726
G1 X105.369 Y105.748 E1.45993
G1 X105.677 Y105.916 E1.47256
G1 X105.947 Y106.154 E1.48552
G1 X106.232 Y106.585 E1.50412
G1 X106.34 Y106.919 E1.51676
G1 X106.374 Y107.269 E1.52942
G1 X106.332 Y107.617 E1.54204
G1 X106.211 Y107.957 E1.55503
G1 X105.921 Y108.376 E1.57337
G1 X105.516 Y108.683 E1.59166
G1 X105.166 Y108.82 E1.60519
G1 X104.819 Y108.873 E1.61783
G1 X104.469 Y108.85 E1.63046
G1 X104.131 Y108.752 E1.64313
G1 X103.823 Y108.584 E1.65576
G1 X103.558 Y108.353 E1.66842
G1 X103.349 Y108.071 E1.68106
G1 X103.203 Y107.742 E1.69402
G1 X103.126 Y107.231 E1.71262
G1 X103.168 Y106.883 E1.72524
G1 X103.284 Y106.551 E1.7379
G1 X103.445 Y106.283 E1.74915
G1 X103.816 Y105.923 E1.76776
G1 X104.175 Y105.732 E1.7824
G1 X104.696 Y105.629 E1.80152
G1 X104.88 Y105.386 F30000
G1 X104.454 Y104.558
;TYPE:Perimeter
;WIDTH:0.497606
G1 F3000
G1 X105.053 Y104.558 E1.82916
;WIDTH:0.542348
G1 X105.328 Y104.581 E1.84318
G1 E1.74318 F2400
G92 E0
G1 X102.095 Y107.939 F30000
G1 E.1 F2400
;WIDTH:0.572438
G1 F3000
G1 X102.071 Y107.594 E.11865
;WIDTH:0.524514
G1 X102.047 Y107.25 E.13553
;WIDTH:0.517984
G1 X102.068 Y106.8 E.15727
G1 E.05727 F2400
G92 E0
G1 X118.905 Y120.837 F30000
G1 E.1 F2400
;WIDTH:0.399999
G1 F3000
G1 X102.396 Y120.837 E.6943
G1 X102.061 Y120.788 E.70649
G1 X101.917 Y120.711 E.71237
G1 X101.73 Y120.469 E.72338
G1 X101.663 Y120.196 E.7335
G1 X101.663 Y105.019 E1.27985
G1 X101.712 Y104.563 E1.29636
G1 X101.791 Y104.413 E1.30246
G1 X102.018 Y104.237 E1.3128
G1 X102.304 Y104.163 E1.32343
G1 X122.67 Y104.164 E2.05658
G1 X122.951 Y104.223 E2.06692
G1 X123.151 Y104.357 E2.07559
G1 X123.277 Y104.547 E2.0838
G1 X123.337 Y104.845 E2.09474
G1 X123.337 Y120.104 E2.64405
G1 X123.288 Y120.437 E2.65617
G1 X123.209 Y120.587 E2.66227
G1 X122.982 Y120.763 E2.67261
