; generated by PrusaSlicer 2.6.1+linux-x64-GTK3 on 2023-09-12 at 03:10:22 UTC

; 

; external perimeters extrusion width = 0.45mm
; perimeters extrusion width = 0.45mm
; infill extrusion width = 0.45mm
; solid infill extrusion width = 0.45mm
; top infill extrusion width = 0.40mm
; first layer extrusion width = 0.42mm

M190 S60 ; set bed temperature and wait for it to be reached
M104 S215 ; set temperature
;TYPE:Custom
G28 ; home all axes
G1 Z5 F5000 ; lift nozzle
M109 S215 ; set temperature and wait for it to be reached
G21 ; set units to millimeters
G90 ; use absolute coordinates
M82 ; use absolute distances for extrusion
G92 E0
; Filament gcode
M107
;LAYER_CHANGE
;Z:0.2
;HEIGHT:0.2
G1 Z.2 F30000
G1 E-2 F2400
G92 E0
G1 X79.289 Y82.183 F30000
G1 E2 F2400
;TYPE:Skirt/Brim
;WIDTH:0.42
G1 F3000
G1 X80.859 Y80.684 E2.06806
G1 X83.601 Y78.48 E2.17836
G1 X86.56 Y76.576 E2.28868
G1 X89.701 Y74.991 E2.39899
G1 X92.737 Y73.825 E2.50096
G1 X94.821 Y73.216 E2.56904
G1 X97.718 Y72.6 E2.6619
G1 X100.158 Y72.281 E2.73906
G1 X103.184 Y72.13 E2.83406
G1 X122.49 Y72.139 E3.43939
G1 X125.011 Y72.298 E3.51859
G1 X127.282 Y72.6 E3.59042
G1 X130.179 Y73.216 E3.68328
G1 X132.01 Y73.743 E3.74302
G1 X135.542 Y75.099 E3.86164
G1 X137.255 Y75.932 E3.92136
G1 X139.82 Y77.413 E4.01423
G1 X141.613 Y78.636 E4.08228
G1 X143.116 Y79.808 E4.14204
G1 X145.317 Y81.79 E4.23491
G1 X146.639 Y83.161 E4.29463
G1 X149.02 Y86.102 E4.41327
G1 X150.087 Y87.68 E4.473
G1 X151.567 Y90.244 E4.56582
G1 X152.401 Y91.958 E4.62559
G1 X153.224 Y93.966 E4.69363
G1 X154.284 Y97.321 E4.80395
G1 X154.654 Y98.892 E4.85456
G1 X155.083 Y101.445 E4.93573
G1 X155.358 Y104.877 E5.04368
G1 X155.37 Y119.316 E5.4964
G1 X155.243 Y122.064 E5.58265
G1 X154.977 Y124.291 E5.65297
G1 X154.599 Y126.368 E5.71916
G1 X153.757 Y129.51 E5.82115
G1 X153.025 Y131.554 E5.88922
G1 X151.82 Y134.259 E5.98207
G1 X150.924 Y135.94 E6.0418
G1 X149.02 Y138.898 E6.1521
G1 X146.817 Y141.641 E6.26241
G1 X144.339 Y144.139 E6.37273
G1 X141.614 Y146.363 E6.48301
G1 X138.67 Y148.291 E6.59335
G1 X135.299 Y150.009 E6.71198
G1 X132.01 Y151.257 E6.82228
G1 X130.179 Y151.784 E6.88202
G1 X127.282 Y152.4 E6.97488
G1 X125.171 Y152.686 E7.04167
G1 X123.509 Y152.819 E7.09395
G1 X102.51 Y152.861 E7.75236
G1 X99.09 Y152.602 E7.8599
G1 X96.392 Y152.154 E7.94565
G1 X92.99 Y151.257 E8.05596
G1 X90.946 Y150.525 E8.12403
G1 X88.241 Y149.32 E8.21688
G1 X86.56 Y148.424 E8.27661
G1 X83.602 Y146.52 E8.38691
G1 X80.859 Y144.316 E8.49724
G1 X78.361 Y141.839 E8.60754
G1 X76.137 Y139.113 E8.71785
G1 X74.209 Y136.17 E8.82816
G1 X72.599 Y133.042 E8.93847
G1 X71.325 Y129.763 E9.04877
G1 X70.346 Y126.108 E9.16741
G1 X69.917 Y123.555 E9.24858
G1 X69.701 Y121.348 E9.31811
G1 X69.63 Y119.316 E9.38186
G1 X69.639 Y105.01 E9.83041
G1 X69.898 Y101.59 E9.93795
G1 X70.346 Y98.892 E10.0237
G1 X71.243 Y95.49 E10.13401
G1 X71.975 Y93.446 E10.20208
G1 X73.432 Y90.245 E10.31235
G1 X75.068 Y87.441 E10.41414
G1 X76.957 Y84.817 E10.51552
G1 X79.25 Y82.228 E10.62396
G1 X79.531 Y82.478 F30000
G1 F3000
G1 X81.111 Y80.964 E10.69257
G1 X83.823 Y78.785 E10.80165
G1 X86.749 Y76.902 E10.91075
G1 X89.854 Y75.336 E11.01979
G1 X92.854 Y74.184 E11.12055
G1 X94.918 Y73.58 E11.18798
G1 X97.777 Y72.973 E11.27962
G1 X100.195 Y72.656 E11.35608
G1 X103.184 Y72.507 E11.44991
G1 X122.481 Y72.516 E12.05495
G1 X124.976 Y72.674 E12.13334
G1 X127.223 Y72.973 E12.20441
G1 X130.082 Y73.58 E12.29605
G1 X131.893 Y74.102 E12.35514
G1 X135.389 Y75.444 E12.47255
G1 X137.084 Y76.268 E12.53164
G1 X139.615 Y77.73 E12.62329
G1 X141.392 Y78.941 E12.69071
G1 X142.879 Y80.101 E12.74984
G1 X145.05 Y82.056 E12.84144
G1 X146.358 Y83.414 E12.90056
G1 X148.715 Y86.323 E13.01795
G1 X149.771 Y87.885 E13.07707
G1 X151.231 Y90.416 E13.16868
G1 X152.056 Y92.111 E13.22779
G1 X152.872 Y94.101 E13.29523
G1 X153.92 Y97.419 E13.40433
G1 X154.285 Y98.97 E13.45429
G1 X154.709 Y101.493 E13.53451
G1 X154.981 Y104.887 E13.64127
G1 X154.993 Y119.316 E14.09368
G1 X154.868 Y122.029 E14.17883
G1 X154.605 Y124.232 E14.24839
G1 X154.23 Y126.29 E14.31398
G1 X153.398 Y129.393 E14.41471
G1 X152.673 Y131.419 E14.48218
G1 X151.484 Y134.088 E14.57379
G1 X150.598 Y135.752 E14.6329
G1 X148.715 Y138.677 E14.74197
G1 X146.536 Y141.389 E14.85105
G1 X144.086 Y143.858 E14.96011
G1 X141.392 Y146.058 E15.06917
G1 X138.482 Y147.965 E15.17826
G1 X135.146 Y149.664 E15.29564
G1 X131.893 Y150.898 E15.40473
G1 X130.082 Y151.42 E15.46382
G1 X127.223 Y152.027 E15.55546
G1 X125.134 Y152.311 E15.62156
G1 X123.486 Y152.443 E15.6734
G1 X102.519 Y152.484 E16.33081
G1 X99.139 Y152.228 E16.43709
G1 X96.47 Y151.785 E16.52192
G1 X93.107 Y150.898 E16.63097
G1 X91.081 Y150.173 E16.69844
G1 X88.412 Y148.984 E16.79005
G1 X86.748 Y148.098 E16.84916
G1 X83.823 Y146.215 E16.95823
G1 X81.111 Y144.036 E17.06731
G1 X78.642 Y141.586 E17.17637
G1 X76.442 Y138.892 E17.28543
G1 X74.535 Y135.982 E17.39452
G1 X72.944 Y132.889 E17.50358
G1 X71.684 Y129.646 E17.61267
G1 X70.715 Y126.03 E17.73005
G1 X70.291 Y123.507 E17.81027
G1 X70.078 Y121.325 E17.87901
G1 X70.007 Y119.316 E17.94204
G1 X70.016 Y105.019 E18.39031
G1 X70.272 Y101.639 E18.49659
G1 X70.715 Y98.97 E18.58142
G1 X71.602 Y95.607 E18.69047
G1 X72.327 Y93.581 E18.75794
G1 X73.768 Y90.416 E18.86698
G1 X75.23 Y87.885 E18.95863
G1 X77.25 Y85.054 E19.06767
G1 X79.492 Y82.523 E19.17369
G1 E17.17369 F2400
G92 E0
G1 X97.723 Y100.588 F30000
G1 E2 F2400
G1 F3000
G1 X98.162 Y100.145 E2.01955
G1 X98.822 Y99.61 E2.04619
G1 X99.508 Y99.17 E2.07174
G1 X100.209 Y98.818 E2.09633
G1 X100.865 Y98.566 E2.11836
G1 X101.561 Y98.369 E2.14104
G1 X102.911 Y98.183 E2.18377
G1 X122.058 Y98.181 E2.78411
G1 X123.368 Y98.354 E2.82554
G1 X124.055 Y98.54 E2.84786
G1 X124.734 Y98.793 E2.87058
G1 X125.636 Y99.253 E2.90233
G1 X126.232 Y99.65 E2.92478
G1 X126.79 Y100.102 E2.9473
G1 X127.325 Y100.63 E2.97087
G1 X127.808 Y101.211 E2.99456
G1 X128.304 Y101.963 E3.02281
G1 X128.626 Y102.583 E3.04472
G1 X128.892 Y103.239 E3.06692
G1 X129.168 Y104.243 E3.09957
G1 X129.317 Y105.392 E3.1359
G1 X129.307 Y119.732 E3.58552
G1 X129.126 Y120.961 E3.62447
G1 X128.923 Y121.668 E3.64753
G1 X128.646 Y122.372 E3.67125
G1 X128.312 Y123.024 E3.69422
G1 X127.907 Y123.654 E3.7177
G1 X127.386 Y124.304 E3.74382
G1 X126.857 Y124.838 E3.76739
G1 X126.248 Y125.338 E3.7921
G1 X125.566 Y125.787 E3.8177
G1 X124.809 Y126.174 E3.84436
G1 X124.132 Y126.435 E3.86711
G1 X123.439 Y126.632 E3.8897
G1 X121.939 Y126.826 E3.93712
G1 X102.962 Y126.82 E4.53213
G1 X101.553 Y126.63 E4.57671
G1 X100.876 Y126.438 E4.59877
G1 X100.21 Y126.183 E4.62113
G1 X99.423 Y125.782 E4.64882
G1 X98.793 Y125.369 E4.67244
G1 X98.219 Y124.906 E4.69556
G1 X97.664 Y124.358 E4.72001
G1 X97.162 Y123.748 E4.74478
G1 X96.713 Y123.068 E4.77033
G1 X96.329 Y122.316 E4.7968
G1 X96.067 Y121.637 E4.81962
G1 X95.87 Y120.943 E4.84224
G1 X95.678 Y119.516 E4.88739
G1 X95.68 Y105.46 E5.32811
G1 X95.871 Y104.052 E5.37266
G1 X96.062 Y103.376 E5.39469
G1 X96.317 Y102.71 E5.41705
G1 X96.719 Y101.923 E5.44476
G1 X97.133 Y101.291 E5.46845
G1 X97.681 Y100.63 E5.49537
G1 X97.948 Y100.895 F30000
G1 F3000
G1 X98.408 Y100.431 E5.51586
G1 X99.051 Y99.91 E5.54181
G1 X99.703 Y99.493 E5.56608
G1 X100.369 Y99.159 E5.58944
G1 X100.992 Y98.921 E5.61035
G1 X101.65 Y98.735 E5.63179
G1 X102.949 Y98.559 E5.67289
G1 X122.021 Y98.557 E6.27088
G1 X123.282 Y98.721 E6.31075
G1 X123.948 Y98.901 E6.33238
G1 X124.591 Y99.142 E6.35391
G1 X125.436 Y99.573 E6.38365
G1 X126.016 Y99.959 E6.40549
G1 X126.545 Y100.389 E6.42686
G1 X127.053 Y100.891 E6.44925
G1 X127.511 Y101.444 E6.47176
G1 X127.974 Y102.145 E6.4981
G1 X128.287 Y102.749 E6.51943
G1 X128.538 Y103.37 E6.54043
G1 X128.801 Y104.33 E6.57164
G1 X128.94 Y105.404 E6.6056
G1 X128.932 Y119.691 E7.05356
G1 X128.76 Y120.87 E7.09092
G1 X128.563 Y121.555 E7.11327
G1 X128.299 Y122.225 E7.13585
G1 X127.981 Y122.843 E7.15764
G1 X127.595 Y123.441 E7.17996
G1 X127.098 Y124.06 E7.20485
G1 X126.609 Y124.553 E7.22662
G1 X126.032 Y125.029 E7.25007
G1 X125.385 Y125.456 E7.27438
G1 X124.647 Y125.834 E7.30038
G1 X124.005 Y126.08 E7.32194
G1 X123.35 Y126.265 E7.34328
G1 X121.927 Y126.449 E7.38827
G1 X102.999 Y126.444 E7.98174
G1 X101.642 Y126.263 E8.02466
G1 X100.987 Y126.078 E8.046
G1 X100.354 Y125.834 E8.06727
G1 X99.621 Y125.46 E8.09307
G1 X99.022 Y125.069 E8.1155
G1 X98.463 Y124.618 E8.13802
G1 X97.948 Y124.111 E8.16068
G1 X97.471 Y123.532 E8.1842
G1 X97.044 Y122.886 E8.20848
G1 X96.669 Y122.153 E8.2343
G1 X96.422 Y121.51 E8.2559
G1 X96.236 Y120.853 E8.27731
G1 X96.055 Y119.503 E8.32002
G1 X96.056 Y105.497 E8.75917
G1 X96.237 Y104.142 E8.80203
G1 X96.422 Y103.487 E8.82337
G1 X96.666 Y102.854 E8.84464
G1 X97.04 Y102.121 E8.87044
G1 X97.432 Y101.521 E8.89291
G1 X97.906 Y100.938 E8.91647
G1 X98.174 Y101.203 F30000
G1 F3000
G1 X98.653 Y100.718 E8.93784
G1 X99.28 Y100.21 E8.96314
G1 X99.897 Y99.816 E8.98609
G1 X100.529 Y99.501 E9.00823
G1 X101.118 Y99.276 E9.028
G1 X101.739 Y99.102 E9.04822
G1 X102.987 Y98.934 E9.0877
G1 X121.985 Y98.932 E9.68337
G1 X123.197 Y99.089 E9.72169
G1 X123.824 Y99.258 E9.74205
G1 X124.449 Y99.491 E9.76296
G1 X125.236 Y99.893 E9.79067
G1 X125.785 Y100.257 E9.81132
G1 X126.3 Y100.676 E9.83214
G1 X126.781 Y101.152 E9.85336
G1 X127.214 Y101.676 E9.87467
G1 X127.644 Y102.327 E9.89913
G1 X127.94 Y102.898 E9.9193
G1 X128.184 Y103.501 E9.9397
G1 X128.429 Y104.392 E9.96867
G1 X128.563 Y105.416 E10.00105
G1 X128.557 Y119.65 E10.44735
G1 X128.394 Y120.778 E10.48309
G1 X128.203 Y121.443 E10.50478
G1 X127.952 Y122.077 E10.52616
G1 X127.65 Y122.662 E10.5468
G1 X127.284 Y123.228 E10.56793
G1 X126.823 Y123.802 E10.59101
G1 X126.361 Y124.269 E10.61161
G1 X125.815 Y124.721 E10.63383
G1 X125.204 Y125.125 E10.6568
G1 X124.484 Y125.493 E10.68215
G1 X123.879 Y125.725 E10.70247
G1 X123.261 Y125.898 E10.72259
G1 X121.915 Y126.072 E10.76514
G1 X103.036 Y126.069 E11.35708
G1 X101.731 Y125.896 E11.39836
G1 X101.114 Y125.722 E11.41846
G1 X100.499 Y125.486 E11.43911
G1 X99.818 Y125.139 E11.46307
G1 X99.251 Y124.769 E11.4843
G1 X98.72 Y124.343 E11.50564
G1 X98.233 Y123.863 E11.52708
G1 X97.779 Y123.315 E11.54939
G1 X97.375 Y122.705 E11.57233
G1 X97.009 Y121.99 E11.59751
G1 X96.777 Y121.384 E11.61786
G1 X96.603 Y120.764 E11.63805
G1 X96.432 Y119.491 E11.67832
G1 X96.431 Y105.534 E12.11593
G1 X96.604 Y104.231 E12.15714
G1 X96.778 Y103.614 E12.17724
G1 X97.014 Y102.999 E12.19789
G1 X97.361 Y102.318 E12.22185
G1 X97.732 Y101.749 E12.24315
G1 X98.135 Y101.248 E12.26331
G1 X98.429 Y101.483 F30000
G1 F3000
G1 X98.899 Y101.004 E12.28435
G1 X99.509 Y100.51 E12.30896
G1 X100.091 Y100.14 E12.33058
G1 X100.688 Y99.843 E12.35149
G1 X101.244 Y99.632 E12.37014
G1 X101.828 Y99.469 E12.38915
G1 X103.024 Y99.31 E12.42698
G1 X121.949 Y99.308 E13.02036
G1 X123.111 Y99.456 E13.05709
G1 X123.718 Y99.619 E13.0768
G1 X124.307 Y99.841 E13.09654
G1 X125.037 Y100.213 E13.12223
G1 X125.569 Y100.566 E13.14225
G1 X126.055 Y100.962 E13.16191
G1 X126.509 Y101.413 E13.18197
G1 X126.917 Y101.908 E13.20208
G1 X127.314 Y102.51 E13.22469
G1 X127.602 Y103.064 E13.24427
G1 X127.83 Y103.632 E13.26346
G1 X128.057 Y104.455 E13.29023
G1 X128.186 Y105.428 E13.321
G1 X128.182 Y119.61 E13.76567
G1 X128.027 Y120.688 E13.79982
G1 X127.849 Y121.312 E13.82017
G1 X127.605 Y121.929 E13.84097
G1 X127.319 Y122.481 E13.86046
G1 X126.973 Y123.015 E13.88041
G1 X126.548 Y123.544 E13.90169
G1 X126.113 Y123.985 E13.92111
G1 X125.598 Y124.413 E13.94211
G1 X125.023 Y124.795 E13.96375
G1 X124.322 Y125.153 E13.98843
G1 X123.753 Y125.369 E14.00751
G1 X123.173 Y125.531 E14.02639
G1 X121.903 Y125.695 E14.06654
G1 X103.073 Y125.693 E14.65694
G1 X101.82 Y125.53 E14.69656
G1 X101.225 Y125.362 E14.71595
G1 X100.644 Y125.138 E14.73547
G1 X100.016 Y124.817 E14.75758
G1 X99.479 Y124.469 E14.77764
G1 X98.977 Y124.067 E14.7978
G1 X98.516 Y123.615 E14.81804
G1 X98.088 Y123.098 E14.83908
G1 X97.706 Y122.524 E14.8607
G1 X97.35 Y121.828 E14.88521
G1 X97.132 Y121.257 E14.90437
G1 X96.969 Y120.675 E14.92332
G1 X96.81 Y119.478 E14.96118
G1 X96.807 Y105.571 E15.39722
G1 X96.97 Y104.32 E15.43678
G1 X97.138 Y103.725 E15.45617
G1 X97.362 Y103.144 E15.47569
G1 X97.683 Y102.515 E15.49783
G1 X98.032 Y101.978 E15.51791
G1 X98.391 Y101.53 E15.53591
G1 X98.685 Y101.765 F30000
G1 F3000
G1 X99.145 Y101.29 E15.55664
G1 X99.738 Y100.81 E15.58056
G1 X100.284 Y100.464 E15.60083
G1 X100.847 Y100.185 E15.62053
G1 X101.369 Y99.988 E15.63802
G1 X101.916 Y99.836 E15.65582
G1 X103.061 Y99.685 E15.69203
G1 X121.914 Y99.683 E16.28315
G1 X123.026 Y99.824 E16.3183
G1 X123.611 Y99.981 E16.33729
G1 X124.164 Y100.19 E16.35583
G1 X124.837 Y100.534 E16.37953
G1 X125.353 Y100.875 E16.39892
G1 X125.809 Y101.248 E16.41739
G1 X126.236 Y101.673 E16.43628
G1 X126.619 Y102.14 E16.45522
G1 X126.984 Y102.693 E16.476
G1 X127.255 Y103.213 E16.49439
G1 X127.477 Y103.763 E16.51299
G1 X127.685 Y104.518 E16.53754
G1 X127.809 Y105.441 E16.56674
G1 X127.807 Y119.571 E17.00978
G1 X127.661 Y120.597 E17.04227
G1 X127.489 Y121.2 E17.06193
G1 X127.258 Y121.78 E17.0815
G1 X126.989 Y122.299 E17.09983
G1 X126.662 Y122.801 E17.11861
G1 X126.272 Y123.286 E17.13812
G1 X125.865 Y123.701 E17.15635
G1 X125.38 Y124.105 E17.17614
G1 X124.842 Y124.464 E17.19642
G1 X124.16 Y124.812 E17.22043
G1 X123.628 Y125.013 E17.23826
G1 X123.085 Y125.164 E17.25593
G1 X121.891 Y125.318 E17.29368
G1 X103.109 Y125.318 E17.88258
G1 X101.909 Y125.163 E17.92052
G1 X101.336 Y125.001 E17.93919
G1 X100.789 Y124.79 E17.95757
G1 X100.212 Y124.495 E17.97789
G1 X99.707 Y124.168 E17.99675
G1 X99.234 Y123.79 E18.01573
G1 X98.8 Y123.366 E18.03475
G1 X98.396 Y122.88 E18.05457
G1 X98.036 Y122.342 E18.07487
G1 X97.69 Y121.665 E18.09871
G1 X97.488 Y121.132 E18.11658
G1 X97.336 Y120.587 E18.13432
G1 X97.187 Y119.465 E18.16981
G1 X97.182 Y105.607 E18.60432
G1 X97.337 Y104.409 E18.6422
G1 X97.499 Y103.836 E18.66087
G1 X97.71 Y103.289 E18.67925
G1 X98.005 Y102.712 E18.69957
G1 X98.333 Y102.206 E18.71848
G1 X98.647 Y101.812 E18.73428
G1 X98.942 Y102.047 F30000
G1 F3000
G1 X99.391 Y101.576 E18.75468
G1 X99.967 Y101.11 E18.77791
G1 X100.477 Y100.788 E18.79682
G1 X101.005 Y100.528 E18.81527
G1 X101.494 Y100.344 E18.83165
G1 X102.003 Y100.203 E18.84821
G1 X103.097 Y100.061 E18.8828
G1 X121.879 Y100.059 E19.4717
G1 X122.941 Y100.191 E19.50525
G1 X123.503 Y100.343 E19.5235
G1 X124.02 Y100.539 E19.54084
G1 X124.638 Y100.854 E19.56259
G1 X125.136 Y101.184 E19.58132
G1 X125.563 Y101.534 E19.59863
G1 X125.962 Y101.933 E19.61632
G1 X126.321 Y102.371 E19.63408
G1 X126.654 Y102.876 E19.65305
G1 X126.917 Y103.379 E19.67085
G1 X127.123 Y103.894 E19.68824
G1 X127.313 Y104.581 E19.71059
G1 X127.432 Y105.454 E19.73822
G1 X127.431 Y119.532 E20.17963
G1 X127.295 Y120.506 E20.21047
G1 X127.129 Y121.087 E20.22942
G1 X126.912 Y121.631 E20.24778
G1 X126.659 Y122.116 E20.26493
G1 X126.352 Y122.587 E20.28256
G1 X125.996 Y123.029 E20.30035
G1 X125.615 Y123.418 E20.31742
G1 X125.161 Y123.797 E20.33596
G1 X124.66 Y124.133 E20.35487
G1 X123.998 Y124.471 E20.37818
G1 X123.503 Y124.657 E20.39476
G1 X122.997 Y124.797 E20.41122
G1 X121.879 Y124.941 E20.44656
G1 X103.145 Y124.942 E21.03395
G1 X101.997 Y124.796 E21.07023
G1 X101.464 Y124.646 E21.08759
G1 X100.934 Y124.441 E21.10541
G1 X100.408 Y124.173 E21.12392
G1 X99.934 Y123.867 E21.14161
G1 X99.49 Y123.514 E21.15939
G1 X99.083 Y123.116 E21.17724
G1 X98.703 Y122.661 E21.19583
G1 X98.367 Y122.16 E21.21474
G1 X98.031 Y121.503 E21.23788
G1 X97.844 Y121.007 E21.2545
G1 X97.703 Y120.499 E21.27103
G1 X97.564 Y119.453 E21.30411
G1 X97.558 Y105.643 E21.73711
G1 X97.704 Y104.497 E21.77333
G1 X97.854 Y103.964 E21.79069
G1 X98.059 Y103.434 E21.80851
G1 X98.327 Y102.908 E21.82702
G1 X98.634 Y102.433 E21.84475
G1 X98.904 Y102.094 E21.85834
G1 X99.199 Y102.328 F30000
G1 F3000
G1 X99.637 Y101.862 E21.87839
G1 X100.195 Y101.41 E21.90091
G1 X100.668 Y101.113 E21.91842
G1 X101.162 Y100.87 E21.93568
G1 X101.618 Y100.7 E21.95094
G1 X102.09 Y100.57 E21.96629
G1 X103.133 Y100.436 E21.99926
G1 X121.845 Y100.435 E22.58596
G1 X122.856 Y100.559 E22.6179
G1 X123.396 Y100.704 E22.63543
G1 X123.876 Y100.887 E22.65154
G1 X124.438 Y101.174 E22.67133
G1 X124.92 Y101.493 E22.68945
