; generated by PrusaSlicer 2.6.1+linux-x64-GTK3 on 2023-09-22 at 03:12:20 UTC

; 

; external perimeters extrusion width = 0.45mm
; perimeters extrusion width = 0.60mm
; infill extrusion width = 0.60mm
; solid infill extrusion width = 0.60mm
; top infill extrusion width = 0.60mm
; support material extrusion width = 0.35mm
; first layer extrusion width = 0.40mm

; external perimeters extrusion width = 0.45mm
; perimeters extrusion width = 0.60mm
; infill extrusion width = 0.60mm
; solid infill extrusion width = 0.60mm
; top infill extrusion width = 0.60mm
; support material extrusion width = 0.35mm
; first layer extrusion width = 0.40mm

; external perimeters extrusion width = 0.45mm
; perimeters extrusion width = 0.60mm
; infill extrusion width = 0.60mm
; solid infill extrusion width = 0.60mm
; top infill extrusion width = 0.60mm
; support material extrusion width = 0.35mm
; first layer extrusion width = 0.40mm

; external perimeters extrusion width = 0.45mm
; perimeters extrusion width = 0.60mm
; infill extrusion width = 0.60mm
; solid infill extrusion width = 0.60mm
; top infill extrusion width = 0.60mm
; support material extrusion width = 0.35mm
; first layer extrusion width = 0.40mm

M190 S65 ; set bed temperature and wait for it to be reached
M104 S220 ; set temperature
;TYPE:Custom
G28 ; home all axes
G1 Z5 F5000 ; lift nozzle
M109 S220 ; set temperature and wait for it to be reached
G21 ; set units to millimeters
G90 ; use absolute coordinates
M82 ; use absolute distances for extrusion
G92 E0
; Filament gcode
M107
;LAYER_CHANGE
;Z:0.25
;HEIGHT:0.25
G1 Z.25 F30000
G1 E-.1 F2400
G92 E0
G1 X94.879 Y87.252 F30000
G1 E.1 F2400
;TYPE:Skirt/Brim
;WIDTH:0.4
G1 F4500
G1 X108.747 Y72.172 E.83752
G1 X109.79 Y71.179 E.88936
G1 X110.686 Y70.508 E.92966
G1 X111.856 Y69.827 E.97839
G1 X112.955 Y69.352 E1.02149
G1 X114.686 Y68.878 E1.0861
G1 X115.795 Y68.731 E1.12637
G1 X135.541 Y68.704 E1.8372
G1 X136.643 Y68.803 E1.87703
G1 X137.741 Y69.019 E1.91731
G1 X138.808 Y69.346 E1.95748
G1 X139.837 Y69.785 E1.99775
G1 X140.737 Y70.282 E2.03476
G1 X141.733 Y70.974 E2.07842
G1 X142.808 Y71.94 E2.13045
G1 X177.464 Y112.778 E4.05858
G1 X178.394 Y114.039 E4.11498
G1 X178.93 Y114.999 E4.15456
G1 X179.364 Y116.01 E4.19417
G1 X179.689 Y117.06 E4.23374
G1 X179.987 Y118.862 E4.29949
G1 X180.026 Y133.136 E4.81334
G1 X179.856 Y134.926 E4.87807
G1 X179.364 Y136.764 E4.94657
G1 X178.93 Y137.774 E4.98614
G1 X178.394 Y138.734 E5.02572
G1 X177.575 Y139.862 E5.0759
G1 X176.827 Y140.669 E5.11551
G1 X176 Y141.393 E5.15508
G1 X174.404 Y142.43 E5.2236
G1 X173.131 Y142.997 E5.27377
G1 X172.08 Y143.322 E5.31337
G1 X171.001 Y143.535 E5.35296
G1 X169.515 Y143.658 E5.40664
G1 X151.004 Y143.659 E6.07301
G1 X116.907 Y143.301 E7.30053
G1 X80.771 Y141.781 E8.60253
G1 X79.306 Y141.618 E8.65559
G1 X77.467 Y141.126 E8.72412
G1 X76.457 Y140.692 E8.76369
G1 X75.497 Y140.156 E8.80327
G1 X74.369 Y139.337 E8.85345
G1 X73.562 Y138.59 E8.89304
G1 X72.838 Y137.762 E8.93263
G1 X72.204 Y136.863 E8.97223
G1 X71.668 Y135.903 E9.01181
G1 X71.235 Y134.893 E9.05137
G1 X70.91 Y133.842 E9.09097
G1 X70.696 Y132.763 E9.13057
G1 X70.573 Y131.277 E9.18425
G1 X70.572 Y117.766 E9.67063
G1 X70.696 Y116.268 E9.72474
G1 X70.986 Y114.905 E9.7749
G1 X71.668 Y113.128 E9.84342
G1 X72.365 Y111.921 E9.89359
G1 X73.339 Y110.674 E9.95055
G1 X94.838 Y87.296 E11.0939
G1 X95.093 Y87.531 F30000
G1 F4500
G1 X109.002 Y72.406 E11.83361
G1 X110.008 Y71.448 E11.88362
G1 X110.874 Y70.798 E11.9226
G1 X112.014 Y70.136 E11.97006
G1 X113.079 Y69.675 E12.01184
G1 X114.744 Y69.219 E12.07399
G1 X115.817 Y69.077 E12.11295
G1 X135.523 Y69.05 E12.82234
G1 X136.589 Y69.146 E12.86087
G1 X137.652 Y69.353 E12.89986
G1 X138.684 Y69.67 E12.93872
G1 X139.681 Y70.094 E12.97772
G1 X140.551 Y70.574 E13.01349
G1 X141.516 Y71.243 E13.05576
G1 X142.563 Y72.184 E13.10644
G1 X177.2 Y113.002 E15.03358
G1 X178.104 Y114.228 E15.08842
G1 X178.622 Y115.156 E15.12668
G1 X179.04 Y116.134 E15.16497
G1 X179.354 Y117.15 E15.20325
G1 X179.643 Y118.897 E15.26699
G1 X179.679 Y133.136 E15.77958
G1 X179.514 Y134.871 E15.84232
G1 X179.04 Y136.64 E15.90825
G1 X178.622 Y137.617 E15.9465
G1 X178.104 Y138.546 E15.98479
G1 X177.306 Y139.644 E16.03365
G1 X176.583 Y140.424 E16.07194
G1 X175.782 Y141.124 E16.11023
G1 X174.247 Y142.121 E16.17612
G1 X173.282 Y142.568 E16.2144
G1 X172.275 Y142.911 E16.2527
G1 X170.947 Y143.193 E16.30157
G1 X169.515 Y143.312 E16.3533
G1 X150.927 Y143.312 E17.02245
G1 X116.922 Y142.955 E18.24666
G1 X80.786 Y141.435 E19.54866
G1 X79.36 Y141.276 E19.60031
G1 X77.592 Y140.802 E19.6662
G1 X76.614 Y140.384 E19.70449
G1 X75.685 Y139.866 E19.74278
G1 X74.587 Y139.068 E19.79164
G1 X73.807 Y138.345 E19.82993
G1 X73.107 Y137.544 E19.86822
G1 X72.495 Y136.675 E19.90648
G1 X71.976 Y135.746 E19.94479
G1 X71.558 Y134.769 E19.98304
G1 X71.244 Y133.753 E20.02132
G1 X71.038 Y132.709 E20.05963
G1 X70.919 Y131.277 E20.11136
G1 X70.919 Y117.766 E20.59774
G1 X71.038 Y116.322 E20.6499
G1 X71.32 Y114.994 E20.69877
G1 X71.976 Y113.285 E20.76467
G1 X72.655 Y112.109 E20.81355
G1 X73.594 Y110.909 E20.8684
G1 X95.053 Y87.575 E22.00961
G1 E21.90961 F2400
G92 E0
G1 X115.277 Y91.722 F30000
G1 E.1 F2400
;TYPE:Perimeter
;WIDTH:0.533623
G1 F1500
G1 X115.332 Y92.013 E.11477
;WIDTH:0.560822
G1 X115.386 Y92.305 E.13042
G1 X115.574 Y92.765 E.15662
G1 X115.718 Y93.004 E.17133
;WIDTH:0.578509
G1 X116.034 Y93.397 E.19884
G1 X116.518 Y93.818 E.23383
;WIDTH:0.577569
G1 X116.906 Y94.034 E.25801
G1 X117.494 Y94.223 E.29164
;WIDTH:0.570874
G1 X117.218 Y94.216 E.30648
;WIDTH:0.577569
G1 X116.386 Y94.177 E.35184
G1 X116.127 Y94.097 E.3666
G1 X115.889 Y93.966 E.38139
G1 X115.591 Y93.678 E.40396
;WIDTH:0.570243
G1 X115.389 Y93.32 E.42603
;WIDTH:0.560822
G1 X115.305 Y92.843 E.45156
G1 X115.291 Y92.018 E.49506
;WIDTH:0.533623
G1 X115.28 Y91.782 E.50685
G1 E.40685 F2400
G92 E0
G1 X134.159 Y94.237 F30000
G1 E.1 F2400
;WIDTH:0.563326
G1 F1500
G1 X134.562 Y94.15 E.12184
G1 X135.13 Y93.889 E.15495
;WIDTH:0.569316
G1 X135.63 Y93.517 E.18835
G1 X135.927 Y93.175 E.21263
;WIDTH:0.551487
G1 X136.216 Y92.731 E.24004
;WIDTH:0.570618
G1 X136.468 Y92.078 E.27765
G1 X136.478 Y92.513 E.30103
;WIDTH:0.551487
G1 X136.442 Y93.141 E.33358
G1 X136.341 Y93.45 E.3504
;WIDTH:0.572319
G1 X136.022 Y93.867 E.3787
G1 X135.668 Y94.092 E.40131
;WIDTH:0.563326
G1 X135.247 Y94.209 E.42446
G1 X134.219 Y94.236 E.47894
G1 E.37894 F2400
G92 E0
G1 X130.841 Y91.664 F30000
G1 E.1 F2400
;WIDTH:0.399999
G1 F3000
G1 X130.964 Y92.286 E.12282
G1 X131.144 Y92.726 E.13993
G1 X131.287 Y92.963 E.14989
G1 X131.681 Y93.432 E.17194
G1 X132.166 Y93.805 E.19397
;WIDTH:0.44036
G1 X132.377 Y93.909 E.20343
;WIDTH:0.480721
G1 X132.589 Y94.013 E.21391
;WIDTH:0.521082
G1 X132.8 Y94.116 E.22532
;WIDTH:0.561442
G1 X133.011 Y94.22 E.23774
G1 X132.893 Y94.241 E.24407
;WIDTH:0.521082
G1 X132.775 Y94.261 E.24988
;WIDTH:0.480721
G1 X132.657 Y94.281 E.25519
;WIDTH:0.44036
G1 X132.539 Y94.301 E.26
;WIDTH:0.399999
G1 X119.067 Y94.301 E.74498
;WIDTH:0.435051
G1 X118.874 Y94.284 E.75266
;WIDTH:0.470103
G1 X118.68 Y94.266 E.76109
;WIDTH:0.505154
G1 X118.486 Y94.249 E.77023
G1 X118.67 Y94.186 E.77936
;WIDTH:0.470103
G1 X118.854 Y94.124 E.78776
;WIDTH:0.435051
G1 X119.038 Y94.062 E.79546
;WIDTH:0.399999
G1 X119.562 Y93.822 E.81621
G1 X119.964 Y93.538 E.83393
G1 X120.307 Y93.208 E.85106
G1 X120.474 Y92.988 E.861
G1 X120.763 Y92.449 E.88302
G1 X120.893 Y92.006 E.89964
G1 X120.968 Y91.224 E.92792
G1 X120.813 Y90.487 E.95503
G1 X120.633 Y90.047 E.97214
G1 X120.29 Y89.545 E.99403
G1 X119.878 Y89.163 E1.01426
G1 X119.545 Y88.929 E1.02891
G1 X119.028 Y88.698 E1.04929
G1 X118.43 Y88.57 E1.0713
G1 X117.735 Y88.589 E1.09633
G1 X117.331 Y88.678 E1.11122
G1 X116.936 Y88.823 E1.12637
G1 X116.413 Y89.142 E1.14842
G1 X115.971 Y89.565 E1.17044
G1 X115.63 Y90.074 E1.1925
;WIDTH:0.440272
G1 X115.549 Y90.244 E1.20007
;WIDTH:0.480545
G1 X115.467 Y90.415 E1.20848
;WIDTH:0.520818
G1 X115.386 Y90.586 E1.21767
;WIDTH:0.56109
G1 X115.305 Y90.756 E1.2276
G1 X115.285 Y90.632 E1.23422
;WIDTH:0.520818
G1 X115.264 Y90.508 E1.24033
;WIDTH:0.480545
G1 X115.244 Y90.384 E1.2459
;WIDTH:0.440272
G1 X115.224 Y90.261 E1.25091
;WIDTH:0.399999
G1 X115.224 Y79.469 E1.63941
G1 X115.308 Y78.956 E1.65812
G1 X115.501 Y78.56 E1.67398
G1 X115.795 Y78.269 E1.68887
G1 X116.218 Y78.046 E1.70608
G1 X116.68 Y77.972 E1.72292
G1 X135.222 Y77.984 E2.39041
G1 X135.719 Y78.114 E2.4089
G1 X136.08 Y78.342 E2.42427
G1 X136.349 Y78.685 E2.43996
G1 X136.514 Y79.094 E2.45584
G1 X136.553 Y79.551 E2.47235
G1 X136.553 Y90.459 E2.86502
;WIDTH:0.44229
G1 X136.532 Y90.623 E2.8717
;WIDTH:0.48458
G1 X136.511 Y90.787 E2.87911
;WIDTH:0.52687
G1 X136.49 Y90.951 E2.88724
G1 X136.371 Y90.65 E2.90316
;WIDTH:0.48458
G1 X136.252 Y90.348 E2.9177
;WIDTH:0.44229
G1 X136.133 Y90.047 E2.93077
;WIDTH:0.399999
G1 X135.787 Y89.542 E2.95281
G1 X135.247 Y89.065 E2.97875
G1 X134.86 Y88.841 E2.99485
G1 X134.251 Y88.621 E3.01816
G1 X133.654 Y88.555 E3.03978
G1 X133.045 Y88.618 E3.06182
G1 X132.642 Y88.742 E3.077
G1 X132.02 Y89.058 E3.10212
G1 X131.588 Y89.428 E3.1226
G1 X131.263 Y89.841 E3.14152
G1 X131.014 Y90.324 E3.16108
G1 X130.884 Y90.767 E3.1777
G1 X130.807 Y91.495 E3.20405
G1 X130.829 Y91.605 E3.20809
G1 E3.10809 F2400
G92 E0
G1 X114.923 Y79.022 F30000
G1 E.1 F2400
G1 F3000
G1 X115.036 Y78.673 E.11321
G1 X115.22 Y78.355 E.12644
G1 X115.589 Y77.99 E.14512
G1 X116.107 Y77.716 E.16622
G1 X116.671 Y77.626 E.18678
G1 X134.988 Y77.638 E.84617
G1 X135.425 Y77.671 E.86195
G1 X135.86 Y77.798 E.87826
G1 X136.313 Y78.083 E.89753
G1 X136.558 Y78.355 E.91071
G1 X136.741 Y78.673 E.92392
G1 X136.855 Y79.022 E.93714
G1 X136.9 Y79.551 E.95625
G1 X136.9 Y92.513 E1.42287
G1 X136.855 Y93.251 E1.44949
G1 X136.657 Y93.747 E1.46872
G1 X136.361 Y94.136 E1.48632
G1 X136.016 Y94.406 E1.50209
G1 X135.617 Y94.568 E1.51759
G1 X135.106 Y94.647 E1.5362
G1 X116.862 Y94.647 E2.19296
G1 X116.34 Y94.609 E2.2118
G1 X115.992 Y94.511 E2.22481
G1 X115.671 Y94.342 E2.23787
G1 X115.39 Y94.109 E2.25101
G1 X115.119 Y93.763 E2.26683
G1 X114.957 Y93.364 E2.28233
G1 X114.878 Y92.854 E2.30091
G1 X114.878 Y79.552 E2.77977
G1 X114.918 Y79.082 E2.79675
G1 X114.626 Y78.856 F30000
G1 F3000
G1 X114.65 Y78.742 E2.80094
G1 X114.827 Y78.343 E2.81665
G1 X115.11 Y77.96 E2.83379
G1 X115.531 Y77.602 E2.85368
G1 X115.997 Y77.385 E2.87219
G1 X116.662 Y77.279 E2.89643
G1 X135.288 Y77.291 E3.56694
G1 X135.795 Y77.39 E3.58554
G1 X136.19 Y77.566 E3.60111
G1 X136.546 Y77.824 E3.61694
G1 X136.84 Y78.151 E3.63277
G1 X137.059 Y78.531 E3.64856
G1 X137.195 Y78.949 E3.66438
G1 X137.246 Y79.551 E3.68613
G1 X137.246 Y92.513 E4.15275
G1 X137.206 Y93.221 E4.17828
G1 X137.093 Y93.64 E4.1939
G1 X136.912 Y93.997 E4.20831
G1 X136.619 Y94.368 E4.22533
G1 X136.19 Y94.707 E4.24501
G1 X135.689 Y94.907 E4.26443
G1 X135.115 Y94.994 E4.28533
G1 X116.862 Y94.994 E4.94242
G1 X116.304 Y94.954 E4.96256
G1 X115.885 Y94.84 E4.97819
G1 X115.498 Y94.642 E4.99384
G1 X115.158 Y94.367 E5.00958
G1 X114.818 Y93.938 E5.02929
G1 X114.618 Y93.437 E5.04871
G1 X114.531 Y92.863 E5.06961
G1 X114.531 Y79.552 E5.54879
G1 X114.556 Y79.199 E5.56153
G1 X114.614 Y78.915 E5.57196
G1 X114.26 Y78.821 F30000
G1 F3000
G1 X114.4 Y78.39 E5.58827
G1 X114.656 Y77.946 E5.60672
G1 X115 Y77.564 E5.62523
G1 X115.353 Y77.303 E5.64103
G1 X115.886 Y77.055 E5.66219
G1 X116.162 Y76.996 E5.67235
G1 X116.653 Y76.933 E5.69017
G1 X135.322 Y76.945 E6.36223
G1 X135.9 Y77.058 E6.38343
G1 X136.364 Y77.264 E6.40171
G1 X136.779 Y77.565 E6.42017
G1 X137.121 Y77.946 E6.4386
G1 X137.378 Y78.39 E6.45707
G1 X137.536 Y78.877 E6.4755
G1 X137.592 Y79.551 E6.49985
G1 X137.586 Y92.924 E6.98126
G1 X137.493 Y93.529 E7.0033
G1 X137.306 Y94.007 E7.02178
G1 X137.024 Y94.435 E7.04023
G1 X136.661 Y94.793 E7.05858
G1 X136.232 Y95.068 E7.07692
G1 X135.761 Y95.246 E7.09505
G1 X135.124 Y95.34 E7.11823
G1 X116.862 Y95.34 E7.77564
G1 X116.268 Y95.298 E7.79708
G1 X115.778 Y95.17 E7.81531
G1 X115.325 Y94.942 E7.83357
G1 X114.926 Y94.624 E7.85194
G1 X114.601 Y94.228 E7.87038
G1 X114.366 Y93.776 E7.88872
G1 X114.253 Y93.384 E7.90341
G1 X114.185 Y92.872 E7.922
G1 X114.185 Y79.414 E8.40647
G1 X114.241 Y78.878 E8.42587
G1 X113.93 Y78.713 F30000
;TYPE:External perimeter
G1 F1500
G1 X114.082 Y78.248 E8.44348
G1 X114.374 Y77.741 E8.46454
G1 X114.766 Y77.306 E8.48562
G1 X115.176 Y77.004 E8.50395
G1 X115.775 Y76.724 E8.52775
G1 X116.136 Y76.648 E8.54103
G1 X116.644 Y76.587 E8.55945
G1 X135.355 Y76.599 E9.23302
G1 X136.005 Y76.725 E9.25685
G1 X136.538 Y76.963 E9.27786
G1 X137.012 Y77.306 E9.29892
G1 X137.403 Y77.741 E9.31998
G1 X137.696 Y78.248 E9.34106
G1 X137.877 Y78.805 E9.36214
G1 X137.939 Y79.551 E9.38909
G1 X137.939 Y92.877 E9.86881
G1 X137.877 Y93.468 E9.8902
G1 X137.696 Y94.025 E9.91128
G1 X137.403 Y94.532 E9.93236
G1 X137.012 Y94.967 E9.95342
G1 X136.538 Y95.311 E9.9745
G1 X136.007 Y95.547 E9.99542
G1 X135.554 Y95.644 E10.0121
G1 X135.133 Y95.687 E10.02733
G1 X116.649 Y95.687 E10.69273
G1 X116.057 Y95.624 E10.71416
G1 X115.5 Y95.444 E10.73523
G1 X114.994 Y95.151 E10.75628
G1 X114.559 Y94.759 E10.77736
G1 X114.215 Y94.286 E10.79841
G1 X114.05 Y93.917 E10.81296
G1 X113.914 Y93.456 E10.83026
G1 X113.839 Y92.881 E10.85113
G1 X113.839 Y79.396 E11.33657
G1 X113.912 Y78.771 E11.35922
G1 X114.311 Y78.591 F30000
G1 E11.25922 F2400
G92 E0
G1 X131.18 Y91.615 F30000
G1 E.1 F2400
;TYPE:Perimeter
G1 F1500
G1 X131.153 Y91.483 E.10485
G1 X131.228 Y90.814 E.12908
G1 X131.328 Y90.47 E.14198
G1 X131.58 Y89.995 E.16134
G1 X131.927 Y89.584 E.1807
G1 X132.313 Y89.282 E.19834
G1 X132.788 Y89.056 E.21728
G1 X133.101 Y88.96 E.22907
G1 X133.635 Y88.901 E.24841
G1 X134.161 Y88.956 E.26745
G1 X134.686 Y89.14 E.28748
G1 X135.073 Y89.364 E.30358
G1 X135.535 Y89.78 E.32596
G1 X135.836 Y90.225 E.3453
G1 X135.977 Y90.568 E.35865
G1 X136.125 Y91.33 E.38659
G1 X136.05 Y91.959 E.40939
G1 X135.949 Y92.303 E.4223
G1 X135.718 Y92.751 E.44045
G1 X135.382 Y93.161 E.45953
G1 X134.928 Y93.512 E.48019
G1 X134.445 Y93.738 E.49939
G1 X133.923 Y93.851 E.51862
G1 X133.492 Y93.865 E.53414
G1 X133.137 Y93.812 E.54706
G1 X132.685 Y93.674 E.56407
G1 X132.132 Y93.363 E.58691
G1 X131.742 Y92.993 E.60626
G1 X131.441 Y92.548 E.6256
G1 X131.301 Y92.205 E.63894
G1 X131.192 Y91.673 E.65849
G1 X131.519 Y91.563 F30000
G1 F1500
G1 X131.499 Y91.472 E.66184
G1 X131.571 Y90.861 E.68399
G1 X131.759 Y90.365 E.70308
G1 X132.088 Y89.908 E.72335
G1 X132.487 Y89.581 E.74192
G1 X133.023 Y89.335 E.76315
G1 X133.616 Y89.247 E.78473
G1 X134.071 Y89.29 E.80118
G1 X134.513 Y89.44 E.81798
G1 X135.094 Y89.818 E.84293
G1 X135.397 Y90.167 E.85957
G1 X135.64 Y90.648 E.87897
G1 X135.778 Y91.33 E.90402
G1 X135.707 Y91.912 E.92513
G1 X135.519 Y92.408 E.94422
G1 X135.23 Y92.821 E.96237
G1 X134.764 Y93.207 E.98415
G1 X134.35 Y93.405 E1.00067
G1 X133.91 Y93.505 E1.01691
G1 X133.492 Y93.519 E1.03197
G1 X132.787 Y93.343 E1.05813
G1 X132.326 Y93.076 E1.07731
G1 X131.994 Y92.755 E1.09393
G1 X131.738 Y92.369 E1.1106
G1 X131.638 Y92.125 E1.12009
G1 X131.531 Y91.622 E1.1386
G1 X131.856 Y91.508 F30000
G1 F1500
G1 X131.846 Y91.461 E1.14033
G1 X131.914 Y90.908 E1.16039
G1 X132.117 Y90.432 E1.17902
G1 X132.375 Y90.112 E1.19382
G1 X132.703 Y89.859 E1.20873
G1 X133.213 Y89.643 E1.22867
G1 X133.598 Y89.593 E1.24265
G1 X133.98 Y89.625 E1.25645
G1 X134.339 Y89.74 E1.27002
G1 X134.843 Y90.056 E1.29143
G1 X135.101 Y90.346 E1.3054
G1 X135.303 Y90.729 E1.32099
G1 X135.432 Y91.33 E1.34312
G1 X135.364 Y91.865 E1.36253
G1 X135.155 Y92.347 E1.38144
G1 X134.902 Y92.661 E1.39596
G1 X134.498 Y92.956 E1.41397
G1 X134.022 Y93.139 E1.43233
G1 X133.511 Y93.172 E1.45076
G1 X132.888 Y93.011 E1.47392
G1 X132.52 Y92.79 E1.48937
G1 X132.177 Y92.427 E1.50735
G1 X131.975 Y92.044 E1.52294
G1 X131.869 Y91.567 E1.54053
G1 X132.22 Y91.236 F30000
;TYPE:External perimeter
G1 F1500
G1 X132.257 Y90.955 E1.55073
G1 X132.407 Y90.623 E1.56384
G1 X132.6 Y90.376 E1.57512
G1 X132.849 Y90.173 E1.58669
G1 X133.269 Y89.985 E1.60326
G1 X133.579 Y89.938 E1.61455
G1 X133.89 Y89.959 E1.62577
G1 X134.165 Y90.039 E1.63608
G1 X134.591 Y90.294 E1.65395
G1 X134.804 Y90.524 E1.66523
G1 X134.966 Y90.81 E1.67706
