; generated by PrusaSlicer 2.6.1+linux-x64-GTK3 on 2023-09-12 at 01:09:59 UTC

; 

; external perimeters extrusion width = 0.45mm
; perimeters extrusion width = 0.45mm
; infill extrusion width = 0.45mm
; solid infill extrusion width = 0.45mm
; top infill extrusion width = 0.40mm
; first layer extrusion width = 0.42mm

M190 S60 ; set bed temperature and wait for it to be reached
M104 S215 ; set temperature
;TYPE:Custom
G28 ; home all axes
G1 Z5 F5000 ; lift nozzle
M109 S215 ; set temperature and wait for it to be reached
G21 ; set units to millimeters
G90 ; use absolute coordinates
M82 ; use absolute distances for extrusion
G92 E0
; Filament gcode
M107
;LAYER_CHANGE
;Z:0.2
;HEIGHT:0.2
G1 Z.2 F30000
G1 E-2 F2400
G92 E0
G1 X79.289 Y82.183 F30000
G1 E2 F2400
;TYPE:Skirt/Brim
;WIDTH:0.42
G1 F1800
G1 X80.859 Y80.684 E2.06806
G1 X83.602 Y78.48 E2.17839
G1 X86.56 Y76.576 E2.28869
G1 X89.701 Y74.991 E2.399
G1 X92.737 Y73.825 E2.50097
G1 X94.821 Y73.216 E2.56905
G1 X97.718 Y72.6 E2.66191
G1 X100.158 Y72.281 E2.73907
G1 X103.184 Y72.13 E2.83407
G1 X122.49 Y72.139 E3.4394
G1 X125.011 Y72.298 E3.5186
G1 X127.282 Y72.6 E3.59043
G1 X130.179 Y73.216 E3.68329
G1 X132.01 Y73.743 E3.74303
G1 X135.542 Y75.099 E3.86165
G1 X137.255 Y75.932 E3.92137
G1 X139.82 Y77.413 E4.01424
G1 X141.398 Y78.48 E4.07397
G1 X143.116 Y79.808 E4.14205
G1 X145.317 Y81.789 E4.2349
G1 X146.639 Y83.161 E4.29464
G1 X149.02 Y86.102 E4.41328
G1 X150.087 Y87.68 E4.47301
G1 X151.568 Y90.245 E4.56588
G1 X152.401 Y91.958 E4.6256
G1 X153.224 Y93.966 E4.69364
G1 X154.284 Y97.321 E4.80396
G1 X154.654 Y98.892 E4.85457
G1 X155.083 Y101.445 E4.93574
G1 X155.358 Y104.877 E5.04369
G1 X155.37 Y119.316 E5.49641
G1 X155.243 Y122.064 E5.58266
G1 X154.977 Y124.291 E5.65298
G1 X154.599 Y126.368 E5.71917
G1 X153.757 Y129.51 E5.82116
G1 X153.025 Y131.554 E5.88923
G1 X151.82 Y134.259 E5.98208
G1 X150.924 Y135.94 E6.04181
G1 X149.02 Y138.898 E6.15211
G1 X146.817 Y141.641 E6.26242
G1 X144.339 Y144.139 E6.37274
G1 X141.613 Y146.363 E6.48305
G1 X138.67 Y148.291 E6.59336
G1 X135.542 Y149.901 E6.70367
G1 X132.01 Y151.257 E6.82229
G1 X130.179 Y151.784 E6.88203
G1 X127.282 Y152.4 E6.97489
G1 X125.171 Y152.686 E7.04168
G1 X123.509 Y152.819 E7.09396
G1 X102.51 Y152.861 E7.75237
G1 X99.09 Y152.602 E7.85991
G1 X96.392 Y152.154 E7.94566
G1 X92.99 Y151.257 E8.05597
G1 X90.946 Y150.525 E8.12404
G1 X88.241 Y149.32 E8.21689
G1 X86.56 Y148.424 E8.27662
G1 X83.602 Y146.52 E8.38692
G1 X80.859 Y144.317 E8.49723
G1 X78.361 Y141.839 E8.60755
G1 X76.136 Y139.113 E8.71788
G1 X74.209 Y136.17 E8.82818
G1 X72.599 Y133.042 E8.93849
G1 X71.325 Y129.763 E9.04879
G1 X70.346 Y126.108 E9.16743
G1 X69.917 Y123.555 E9.2486
G1 X69.701 Y121.348 E9.31813
G1 X69.63 Y119.316 E9.38188
G1 X69.639 Y105.009 E9.83047
G1 X69.898 Y101.59 E9.93798
G1 X70.346 Y98.892 E10.02373
G1 X71.243 Y95.49 E10.13404
G1 X71.975 Y93.446 E10.20211
G1 X73.432 Y90.245 E10.31238
G1 X74.913 Y87.68 E10.40525
G1 X76.957 Y84.817 E10.51555
G1 X79.25 Y82.228 E10.62399
G1 X79.532 Y82.478 F30000
G1 F1800
G1 X81.111 Y80.964 E10.69258
G1 X83.823 Y78.785 E10.80166
G1 X86.748 Y76.902 E10.91073
G1 X89.854 Y75.336 E11.01979
G1 X92.854 Y74.184 E11.12055
G1 X94.918 Y73.58 E11.18798
G1 X97.777 Y72.973 E11.27962
G1 X100.195 Y72.656 E11.35608
G1 X103.184 Y72.507 E11.44991
G1 X122.481 Y72.516 E12.05495
G1 X124.976 Y72.674 E12.13334
G1 X127.223 Y72.973 E12.20441
G1 X130.082 Y73.58 E12.29605
G1 X131.893 Y74.102 E12.35514
G1 X135.389 Y75.444 E12.47255
G1 X137.084 Y76.268 E12.53164
G1 X139.615 Y77.73 E12.62329
G1 X141.177 Y78.785 E12.68239
G1 X142.879 Y80.101 E12.74985
G1 X145.05 Y82.056 E12.84145
G1 X146.358 Y83.414 E12.90057
G1 X148.715 Y86.323 E13.01796
G1 X149.77 Y87.885 E13.07706
G1 X151.232 Y90.416 E13.16871
G1 X152.056 Y92.111 E13.2278
G1 X152.872 Y94.101 E13.29524
G1 X153.92 Y97.418 E13.40431
G1 X154.285 Y98.97 E13.4543
G1 X154.709 Y101.493 E13.53452
G1 X154.981 Y104.886 E13.64125
G1 X154.993 Y119.316 E14.09369
G1 X154.868 Y122.029 E14.17884
G1 X154.605 Y124.232 E14.2484
G1 X154.23 Y126.29 E14.31399
G1 X153.398 Y129.393 E14.41472
G1 X152.673 Y131.419 E14.48219
G1 X151.484 Y134.088 E14.5738
G1 X150.598 Y135.752 E14.63291
G1 X148.715 Y138.677 E14.74198
G1 X146.536 Y141.389 E14.85106
G1 X144.086 Y143.858 E14.96012
G1 X141.392 Y146.058 E15.06918
G1 X138.482 Y147.965 E15.17827
G1 X135.389 Y149.556 E15.28733
G1 X131.893 Y150.898 E15.40474
G1 X130.082 Y151.42 E15.46383
G1 X127.223 Y152.027 E15.55547
G1 X125.133 Y152.311 E15.6216
G1 X123.486 Y152.443 E15.67341
G1 X102.519 Y152.484 E16.33082
G1 X99.138 Y152.228 E16.43713
G1 X96.47 Y151.785 E16.52193
G1 X93.107 Y150.898 E16.63098
G1 X91.081 Y150.173 E16.69845
G1 X88.412 Y148.984 E16.79006
G1 X86.748 Y148.098 E16.84917
G1 X83.823 Y146.215 E16.95824
G1 X81.111 Y144.036 E17.06732
G1 X78.642 Y141.586 E17.17638
G1 X76.441 Y138.892 E17.28546
G1 X74.535 Y135.982 E17.39453
G1 X72.944 Y132.889 E17.50359
G1 X71.684 Y129.646 E17.61268
G1 X70.715 Y126.03 E17.73006
G1 X70.291 Y123.507 E17.81028
G1 X70.078 Y121.325 E17.87902
G1 X70.007 Y119.316 E17.94205
G1 X70.016 Y105.019 E18.39032
G1 X70.272 Y101.639 E18.4966
G1 X70.715 Y98.97 E18.58143
G1 X71.602 Y95.607 E18.69048
G1 X72.327 Y93.581 E18.75795
G1 X73.768 Y90.416 E18.86699
G1 X75.23 Y87.885 E18.95864
G1 X77.25 Y85.054 E19.06768
G1 X79.492 Y82.523 E19.1737
G1 E17.1737 F2400
G92 E0
G1 X97.72 Y100.589 F30000
G1 E2 F2400
G1 F1800
G1 X98.149 Y100.157 E2.01909
G1 X98.753 Y99.66 E2.04362
G1 X99.434 Y99.212 E2.06918
G1 X100.191 Y98.826 E2.09582
G1 X100.866 Y98.566 E2.1185
G1 X101.56 Y98.369 E2.14112
G1 X102.909 Y98.184 E2.18381
G1 X122.092 Y98.183 E2.78528
G1 X123.438 Y98.368 E2.82788
G1 X124.075 Y98.546 E2.84862
G1 X124.686 Y98.772 E2.86905
G1 X125.68 Y99.279 E2.90404
G1 X126.253 Y99.665 E2.9257
G1 X126.794 Y100.105 E2.94756
G1 X127.411 Y100.725 E2.97499
G1 X127.884 Y101.313 E2.99865
G1 X128.294 Y101.945 E3.02227
G1 X128.652 Y102.642 E3.04684
G1 X128.956 Y103.432 E3.07338
G1 X129.164 Y104.223 E3.09902
G1 X129.271 Y104.894 E3.12032
G1 X129.329 Y105.661 E3.14444
G1 X129.302 Y119.811 E3.5881
G1 X129.121 Y120.979 E3.62516
G1 X128.916 Y121.69 E3.64836
G1 X128.642 Y122.381 E3.67167
G1 X128.307 Y123.033 E3.69465
G1 X127.914 Y123.645 E3.71745
G1 X127.382 Y124.308 E3.7441
G1 X126.85 Y124.844 E3.76778
G1 X126.247 Y125.34 E3.79226
G1 X125.566 Y125.788 E3.81782
G1 X124.809 Y126.174 E3.84446
G1 X124.134 Y126.434 E3.86714
G1 X123.438 Y126.632 E3.88983
G1 X121.942 Y126.826 E3.93713
G1 X102.962 Y126.82 E4.53223
G1 X101.551 Y126.629 E4.57687
G1 X100.87 Y126.436 E4.59906
G1 X100.204 Y126.18 E4.62143
G1 X99.529 Y125.842 E4.6451
G1 X98.888 Y125.437 E4.66887
G1 X98.198 Y124.888 E4.69652
G1 X97.658 Y124.352 E4.72038
G1 X97.161 Y123.747 E4.74493
G1 X96.712 Y123.066 E4.77051
G1 X96.326 Y122.309 E4.79715
G1 X96.066 Y121.634 E4.81983
G1 X95.869 Y120.942 E4.84239
G1 X95.678 Y119.518 E4.88744
G1 X95.68 Y105.462 E5.32816
G1 X95.871 Y104.052 E5.37277
G1 X96.064 Y103.371 E5.39496
G1 X96.319 Y102.705 E5.41732
G1 X96.658 Y102.029 E5.44103
G1 X97.062 Y101.39 E5.46473
G1 X97.678 Y100.632 E5.49535
G1 X97.946 Y100.897 F30000
G1 F1800
G1 X98.396 Y100.442 E5.51541
G1 X98.97 Y99.969 E5.53873
G1 X99.615 Y99.543 E5.56297
G1 X100.354 Y99.166 E5.58898
G1 X100.993 Y98.921 E5.61044
G1 X101.65 Y98.735 E5.63185
G1 X102.947 Y98.559 E5.67289
G1 X122.054 Y98.559 E6.27198
G1 X123.35 Y98.735 E6.31299
G1 X123.952 Y98.902 E6.33258
G1 X124.545 Y99.122 E6.35241
G1 X125.478 Y99.598 E6.38525
G1 X126.035 Y99.973 E6.4063
G1 X126.548 Y100.391 E6.42705
G1 X127.124 Y100.969 E6.45264
G1 X127.573 Y101.527 E6.4751
G1 X127.963 Y102.126 E6.49751
G1 X128.304 Y102.787 E6.52083
G1 X128.601 Y103.558 E6.54674
G1 X128.793 Y104.292 E6.57053
G1 X128.896 Y104.931 E6.59082
G1 X128.952 Y105.668 E6.61399
G1 X128.928 Y119.768 E7.05609
G1 X128.755 Y120.887 E7.09159
G1 X128.556 Y121.577 E7.11411
G1 X128.295 Y122.233 E7.13625
G1 X127.976 Y122.852 E7.15808
G1 X127.602 Y123.432 E7.17972
G1 X127.095 Y124.064 E7.20512
G1 X126.603 Y124.559 E7.227
G1 X126.03 Y125.031 E7.25028
G1 X125.385 Y125.457 E7.27452
G1 X124.646 Y125.834 E7.30053
G1 X124.007 Y126.079 E7.32199
G1 X123.35 Y126.265 E7.3434
G1 X121.93 Y126.449 E7.3883
G1 X102.999 Y126.444 E7.98187
G1 X101.641 Y126.263 E8.02483
G1 X100.981 Y126.076 E8.04634
G1 X100.349 Y125.832 E8.06758
G1 X99.707 Y125.51 E8.0901
G1 X99.098 Y125.124 E8.11271
G1 X98.456 Y124.612 E8.13846
G1 X97.943 Y124.105 E8.16107
G1 X97.47 Y123.53 E8.18441
G1 X97.043 Y122.885 E8.20866
G1 X96.666 Y122.146 E8.23467
G1 X96.421 Y121.507 E8.25613
G1 X96.236 Y120.853 E8.27744
G1 X96.055 Y119.506 E8.32005
G1 X96.056 Y105.5 E8.7592
G1 X96.237 Y104.141 E8.80219
G1 X96.424 Y103.483 E8.82364
G1 X96.668 Y102.85 E8.84491
G1 X96.99 Y102.207 E8.86746
G1 X97.375 Y101.6 E8.89
G1 X97.904 Y100.94 E8.91652
G1 X98.172 Y101.204 F30000
G1 F1800
G1 X98.644 Y100.727 E8.93756
G1 X99.186 Y100.278 E8.95963
G1 X99.796 Y99.874 E8.98257
G1 X100.516 Y99.507 E9.00791
G1 X101.119 Y99.276 E9.02816
G1 X101.739 Y99.102 E9.04835
G1 X102.985 Y98.934 E9.08777
G1 X122.016 Y98.934 E9.68447
G1 X123.261 Y99.102 E9.72386
G1 X123.843 Y99.264 E9.7428
G1 X124.403 Y99.471 E9.76152
G1 X125.278 Y99.918 E9.79233
G1 X125.804 Y100.271 E9.81219
G1 X126.302 Y100.677 E9.83234
G1 X126.837 Y101.213 E9.85608
G1 X127.263 Y101.742 E9.87738
G1 X127.633 Y102.309 E9.89861
G1 X127.956 Y102.932 E9.92061
G1 X128.245 Y103.684 E9.94587
G1 X128.423 Y104.361 E9.96782
G1 X128.52 Y104.968 E9.98709
G1 X128.575 Y105.675 E10.00932
G1 X128.553 Y119.725 E10.44985
G1 X128.39 Y120.794 E10.48376
G1 X128.202 Y121.446 E10.50504
G1 X127.948 Y122.085 E10.5266
G1 X127.645 Y122.67 E10.54726
G1 X127.291 Y123.219 E10.56774
G1 X126.82 Y123.805 E10.59131
G1 X126.355 Y124.274 E10.61202
G1 X125.814 Y124.722 E10.63404
G1 X125.204 Y125.126 E10.65698
G1 X124.484 Y125.493 E10.68232
G1 X123.881 Y125.724 E10.70257
G1 X123.261 Y125.898 E10.72276
G1 X121.917 Y126.072 E10.76525
G1 X103.036 Y126.069 E11.35725
G1 X101.73 Y125.896 E11.39856
G1 X101.109 Y125.721 E11.41879
G1 X100.493 Y125.483 E11.4395
G1 X99.885 Y125.177 E11.46084
G1 X99.309 Y124.811 E11.48224
G1 X98.714 Y124.337 E11.50609
G1 X98.227 Y123.857 E11.52753
G1 X97.778 Y123.314 E11.54962
G1 X97.374 Y122.704 E11.57256
G1 X97.007 Y121.984 E11.5979
G1 X96.776 Y121.381 E11.61815
G1 X96.603 Y120.764 E11.63824
G1 X96.433 Y119.493 E11.67845
G1 X96.431 Y105.537 E12.11603
G1 X96.604 Y104.231 E12.15734
G1 X96.779 Y103.61 E12.17757
G1 X97.016 Y102.994 E12.19826
G1 X97.323 Y102.385 E12.21964
G1 X97.688 Y101.811 E12.24097
G1 X98.134 Y101.25 E12.26344
G1 X98.428 Y101.485 F30000
G1 F1800
G1 X98.892 Y101.011 E12.28424
G1 X99.404 Y100.587 E12.30508
G1 X99.977 Y100.205 E12.32667
G1 X100.678 Y99.847 E12.35135
G1 X101.245 Y99.632 E12.37036
G1 X101.827 Y99.469 E12.38931
G1 X103.022 Y99.31 E12.42711
G1 X121.979 Y99.31 E13.02149
G1 X123.173 Y99.469 E13.05926
G1 X123.72 Y99.62 E13.07705
G1 X124.262 Y99.821 E13.09517
G1 X125.077 Y100.237 E13.12386
G1 X125.586 Y100.579 E13.14309
G1 X126.056 Y100.963 E13.16212
G1 X126.55 Y101.458 E13.18405
G1 X126.952 Y101.957 E13.20414
G1 X127.303 Y102.491 E13.22418
G1 X127.608 Y103.077 E13.24489
G1 X127.889 Y103.809 E13.26947
G1 X128.052 Y104.43 E13.2896
G1 X128.145 Y105.005 E13.30786
G1 X128.198 Y105.682 E13.32915
G1 X128.178 Y119.683 E13.76814
G1 X128.024 Y120.702 E13.80045
G1 X127.842 Y121.333 E13.82104
G1 X127.601 Y121.936 E13.8414
G1 X127.315 Y122.488 E13.86089
G1 X126.98 Y123.006 E13.88023
G1 X126.545 Y123.547 E13.902
G1 X126.107 Y123.99 E13.92153
G1 X125.596 Y124.413 E13.94233
G1 X125.023 Y124.795 E13.96392
G1 X124.322 Y125.153 E13.9886
G1 X123.755 Y125.368 E14.00761
G1 X123.173 Y125.531 E14.02656
G1 X121.905 Y125.695 E14.06665
G1 X103.073 Y125.693 E14.65711
G1 X101.819 Y125.529 E14.69676
G1 X101.22 Y125.36 E14.71627
G1 X100.638 Y125.135 E14.73583
G1 X100.064 Y124.845 E14.75599
G1 X99.52 Y124.498 E14.77622
G1 X98.971 Y124.061 E14.79822
G1 X98.511 Y123.609 E14.81844
G1 X98.087 Y123.096 E14.83931
G1 X97.705 Y122.523 E14.8609
G1 X97.347 Y121.822 E14.88558
G1 X97.132 Y121.255 E14.90459
G1 X96.969 Y120.675 E14.92348
G1 X96.81 Y119.48 E14.96128
G1 X96.806 Y105.573 E15.39732
G1 X96.97 Y104.32 E15.43694
G1 X97.139 Y103.721 E15.45645
G1 X97.365 Y103.139 E15.47603
G1 X97.655 Y102.564 E15.49622
G1 X98 Y102.022 E15.51636
G1 X98.391 Y101.531 E15.53604
G1 X98.685 Y101.766 F30000
G1 F1800
G1 X99.14 Y101.294 E15.5566
G1 X99.621 Y100.894 E15.57621
G1 X100.159 Y100.536 E15.59647
G1 X100.841 Y100.188 E15.62048
G1 X101.37 Y99.987 E15.63822
G1 X101.915 Y99.836 E15.65595
G1 X103.059 Y99.685 E15.69213
G1 X121.942 Y99.685 E16.28419
G1 X123.086 Y99.836 E16.32037
G1 X123.611 Y99.981 E16.33745
G1 X124.12 Y100.171 E16.35448
G1 X124.876 Y100.556 E16.38108
G1 X125.354 Y100.877 E16.39913
G1 X125.81 Y101.249 E16.41758
G1 X126.263 Y101.703 E16.43769
G1 X126.643 Y102.172 E16.45662
G1 X126.973 Y102.674 E16.47546
G1 X127.26 Y103.223 E16.49488
G1 X127.533 Y103.935 E16.51879
G1 X127.681 Y104.5 E16.5371
G1 X127.77 Y105.043 E16.55435
G1 X127.821 Y105.689 E16.57467
G1 X127.803 Y119.641 E17.01213
G1 X127.658 Y120.61 E17.04285
G1 X127.489 Y121.202 E17.06215
G1 X127.255 Y121.788 E17.08193
G1 X126.985 Y122.306 E17.10025
G1 X126.669 Y122.793 E17.11845
G1 X126.269 Y123.29 E17.13845
G1 X125.859 Y123.706 E17.15676
G1 X125.379 Y124.106 E17.17635
G1 X124.841 Y124.464 E17.19661
G1 X124.159 Y124.812 E17.22062
G1 X123.63 Y125.013 E17.23836
G1 X123.085 Y125.164 E17.25609
G1 X121.893 Y125.318 E17.29377
G1 X103.109 Y125.318 E17.88273
G1 X101.908 Y125.163 E17.9207
G1 X101.347 Y125.005 E17.93897
G1 X100.783 Y124.787 E17.95793
G1 X100.243 Y124.513 E17.97692
G1 X99.732 Y124.186 E17.99594
G1 X99.228 Y123.785 E18.01613
G1 X98.795 Y123.36 E18.03515
G1 X98.395 Y122.879 E18.05476
G1 X98.036 Y122.341 E18.07504
G1 X97.688 Y121.659 E18.09905
G1 X97.487 Y121.13 E18.11679
G1 X97.336 Y120.586 E18.13449
G1 X97.187 Y119.468 E18.16985
G1 X97.182 Y105.609 E18.60439
G1 X97.337 Y104.409 E18.64233
G1 X97.5 Y103.832 E18.66113
G1 X97.713 Y103.284 E18.67956
G1 X97.987 Y102.743 E18.69857
G1 X98.313 Y102.234 E18.71752
G1 X98.648 Y101.813 E18.73439
G1 X98.942 Y102.047 F30000
G1 F1800
G1 X99.389 Y101.578 E18.7547
G1 X99.84 Y101.202 E18.77311
G1 X100.34 Y100.867 E18.79198
G1 X101.002 Y100.529 E18.81529
G1 X101.495 Y100.343 E18.83181
G1 X102.003 Y100.203 E18.84833
G1 X103.095 Y100.061 E18.88286
G1 X121.906 Y100.061 E19.47267
G1 X122.999 Y100.203 E19.50723
G1 X123.488 Y100.338 E19.52314
G1 X123.979 Y100.52 E19.53956
G1 X124.676 Y100.876 E19.5641
G1 X125.137 Y101.185 E19.5815
G1 X125.563 Y101.534 E19.59877
G1 X125.976 Y101.949 E19.61713
G1 X126.333 Y102.388 E19.63487
G1 X126.644 Y102.858 E19.65254
G1 X126.912 Y103.369 E19.67063
G1 X127.178 Y104.06 E19.69385
G1 X127.311 Y104.57 E19.71038
G1 X127.395 Y105.081 E19.72662
G1 X127.444 Y105.697 E19.746
G1 X127.428 Y119.599 E20.18189
G1 X127.292 Y120.519 E20.21105
G1 X127.129 Y121.089 E20.22964
G1 X126.908 Y121.638 E20.2482
G1 X126.655 Y122.123 E20.26535
G1 X126.358 Y122.579 E20.28241
G1 X125.993 Y123.032 E20.30065
G1 X125.61 Y123.423 E20.31781
G1 X125.16 Y123.798 E20.33618
G1 X124.66 Y124.133 E20.35505
G1 X123.998 Y124.471 E20.37836
G1 X123.505 Y124.657 E20.39488
G1 X122.997 Y124.797 E20.4114
G1 X121.881 Y124.941 E20.44668
G1 X103.145 Y124.942 E21.03413
G1 X101.996 Y124.796 E21.07045
G1 X101.458 Y124.645 E21.08797
G1 X100.929 Y124.439 E21.10577
G1 X100.423 Y124.181 E21.12358
G1 X99.944 Y123.874 E21.14142
G1 X99.484 Y123.508 E21.15985
G1 X99.078 Y123.111 E21.17765
G1 X98.702 Y122.66 E21.19606
G1 X98.367 Y122.16 E21.21493
G1 X98.029 Y121.498 E21.23824
G1 X97.843 Y121.005 E21.25476
G1 X97.703 Y120.498 E21.27125
G1 X97.564 Y119.455 E21.30424
G1 X97.558 Y105.645 E21.73724
G1 X97.704 Y104.497 E21.77352
G1 X97.855 Y103.96 E21.79101
G1 X98.061 Y103.43 E21.80884
G1 X98.319 Y102.923 E21.82668
G1 X98.625 Y102.445 E21.84448
G1 X98.905 Y102.094 E21.85856
G1 X99.199 Y102.328 F30000
G1 F1800
G1 X99.639 Y101.86 E21.8787
G1 X100.059 Y101.509 E21.89586
G1 X100.522 Y101.197 E21.91337
G1 X101.164 Y100.869 E21.93597
G1 X101.619 Y100.7 E21.95119
G1 X102.09 Y100.57 E21.96651
G1 X103.131 Y100.436 E21.99942
G1 X121.87 Y100.436 E22.58697
