; generated by PrusaSlicer 2.6.1+linux-x64-GTK3 on 2023-10-18 at 18:56:00 UTC

; 

; external perimeters extrusion width = 0.45mm
; perimeters extrusion width = 0.45mm
; infill extrusion width = 0.45mm
; solid infill extrusion width = 0.45mm
; top infill extrusion width = 0.40mm
; first layer extrusion width = 0.70mm

;TYPE:Custom
; M190 R30 ; Because of probe temperature drift,
; M109 R30 ; Let the beds and hotend cool down before homing the axis

G28 ; home all axes
G1 Z100.0 F3000 ; Raise head above brush
M190 S100 ; set bed temperature and wait for it to be reached
M109 S255 ; set hot end temp and wait for it

; Brush any crap off the nozzle
G1 X232.0 Y0.0 F3000 ; Goto Start of movement
G1 Z19.0 F3000 ; Lower into brush
G1 X221.0 Y2.0 F3000 ; Goto Start of movement
G1 X229.0 Y4.0 F3000 ; 
G1 X221.0 Y6.0 F3000 ; 
G1 X229.0 Y8.0 F3000 ; 
G1 X221.0 Y10.0 F3000 ;
G1 X229.0 Y12.0 F3000 ;
G1 X221.0 Y14.0 F3000 ;
G1 X229.0 Y16.0 F3000 ;
G1 X221.0 Y18.0 F3000 ;
G1 X229.0 Y20.0 F3000 ;
G1 X221.0 Y22.0 F3000 ;
G1 X229.0 Y24.0 F3000 ;
G1 X221.0 Y26.0 F3000 ;
G1 X229.0 Y28.0 F3000 ;
G1 X221.0 Y30.0 F3000 ;
G1 X229.0 Y28.0 F3000 ;
G1 X221.0 Y26.0 F3000 ;
G1 X229.0 Y24.0 F3000 ;
G1 X221.0 Y22.0 F3000 ;
G1 X229.0 Y20.0 F3000 ;
G1 X221.0 Y18.0 F3000 ;
G1 X229.0 Y16.0 F3000 ;
G1 X221.0 Y14.0 F3000 ;
G1 X229.0 Y12.0 F3000 ;
G1 X221.0 Y10.0 F3000 ;
G1 X229.0 Y8.0 F3000 ; 
G1 X221.0 Y6.0 F3000 ; 
G1 X229.0 Y4.0 F3000 ; 
G1 X221.0 Y2.0 F3000 ; 
G1 X229.0 Y0.0 F3000 ; 
G1 X225.0 Y0.0 F3000 ; 
G1 X225.0 Y30.0 F5000 ; 
G1 X225.0 Y0.0 F5000 ; 
G1 X225.0 Y30.0 F5000 ; 
G1 X225.0 Y0.0 F5000 ; 
G1 X225.0 Y30.0 F5000 ; 

; Do a purge line to prime the extruder
G92 E0 ;Reset Extruder
G1 X227.0 Y80.0 F5000 ; Goto Start of purge
G1 Z0.28 F5000 ;Move Head to start height
G1 X227.0 Y230.0 Z0.28 F1500.0 E15; Draw first line
G1 X226.7 Y230.0 Z0.28 F5000.0 ;Move to side a little
G1 X226.7 Y80.0 Z0.28 F1500.0 E30; Draw the second line
G1 Z0.4 F5000; Move Z Axis Up
G1 Y120 F1500; Wipe to the back
G1 X117.5 Y117.5 Z27.0 F5000 ; Raise head above brush
G92 E0 ;Reset Extruder
G21 ; set units to millimeters
G90 ; use absolute coordinates
M82 ; use absolute distances for extrusion
G92 E0
; Filament gcode
; SET_PRESSURE_ADVANCE ADVANCE=0.063
M107
;LAYER_CHANGE
;Z:0.35
;HEIGHT:0.35
G1 Z.35 F30000
G1 E-2 F2400
G92 E0
G1 X96.544 Y101.998 F30000
G1 E2 F2400
;TYPE:Skirt/Brim
;WIDTH:0.7
G1 F1800
G1 X96.882 Y101.725 E2.03951
G1 X97.394 Y101.448 E2.09244
G1 X97.805 Y101.309 E2.13189
G1 X98.206 Y101.229 E2.16907
G1 X98.764 Y101.188 E2.21995
G1 X99.585 Y101.243 E2.29477
G1 X100.486 Y101.42 E2.37826
G1 X101.403 Y101.704 E2.46555
G1 X102.287 Y102.077 E2.55279
G1 X103.12 Y102.536 E2.63927
G1 X103.813 Y103.023 E2.71629
G1 X104.326 Y103.468 E2.77804
G1 X104.775 Y103.938 E2.83714
G1 X105.18 Y104.452 E2.89664
G1 X105.522 Y104.981 E2.95392
G1 X105.777 Y105.457 E3.00302
G1 X105.988 Y105.928 E3.04995
G1 X106.474 Y107.283 E3.18085
G1 X106.661 Y107.745 E3.22617
G1 X106.961 Y108.275 E3.28155
G1 X107.295 Y108.683 E3.32949
G1 X107.56 Y108.913 E3.3614
G1 X107.791 Y109.068 E3.3867
G1 X108.107 Y109.232 E3.41907
G1 X108.414 Y109.358 E3.44925
G1 X108.947 Y109.526 E3.50007
G1 X109.467 Y109.653 E3.54874
G1 X110.102 Y109.773 E3.6075
G1 X110.853 Y109.883 E3.67652
G1 X111.727 Y109.981 E3.75649
G1 X112.723 Y110.063 E3.84736
G1 X115.151 Y110.184 E4.06841
G1 X117.732 Y110.237 E4.30315
G1 X121.089 Y110.234 E4.6084
G1 X124.007 Y110.166 E4.8738
G1 X126.097 Y110.054 E5.06412
G1 X127.095 Y109.97 E5.15519
G1 X127.958 Y109.872 E5.23417
G1 X129.219 Y109.667 E5.35034
G1 X129.759 Y109.542 E5.40074
G1 X130.197 Y109.415 E5.44221
G1 X130.725 Y109.21 E5.49371
G1 X131.122 Y108.992 E5.53489
G1 X131.433 Y108.75 E5.57072
G1 X131.714 Y108.45 E5.6081
G1 X131.993 Y108.04 E5.65319
G1 X132.165 Y107.706 E5.68735
G1 X132.343 Y107.264 E5.73068
G1 X132.823 Y105.919 E5.86054
G1 X133.221 Y105.087 E5.9444
G1 X133.481 Y104.655 E5.99025
G1 X133.73 Y104.298 E6.02983
G1 X134.109 Y103.836 E6.08417
G1 X134.49 Y103.442 E6.13401
G1 X134.915 Y103.068 E6.18549
G1 X135.367 Y102.727 E6.23697
G1 X135.932 Y102.367 E6.29789
G1 X136.373 Y102.127 E6.34354
G1 X136.943 Y101.862 E6.4007
G1 X137.47 Y101.655 E6.45218
G1 X138.149 Y101.44 E6.51694
G1 X138.832 Y101.279 E6.58075
G1 X139.513 Y101.181 E6.64331
G1 X139.979 Y101.158 E6.68573
G1 X140.424 Y101.177 E6.72623
G1 X141.028 Y101.285 E6.78202
G1 X141.627 Y101.515 E6.84036
G1 X142.103 Y101.824 E6.89196
G1 X142.52 Y102.242 E6.94565
G1 X142.885 Y102.861 E7.01099
G1 X143.054 Y103.433 E7.06522
G1 X143.092 Y103.985 E7.11553
G1 X143.01 Y104.6 E7.17195
G1 X142.82 Y105.165 E7.22615
G1 X142.604 Y105.603 E7.27056
G1 X142.37 Y105.987 E7.31145
G1 X141.653 Y106.96 E7.42135
G1 X140.828 Y108.008 E7.54263
G1 X140.361 Y108.666 E7.616
G1 X139.99 Y109.337 E7.68572
G1 X139.891 Y109.724 E7.72204
G1 X139.887 Y109.939 E7.74159
G1 X139.934 Y110.37 E7.78101
G1 X140.132 Y111.642 E7.89807
G1 X140.186 Y112.277 E7.95602
G1 X140.194 Y112.811 E8.00458
G1 X140.163 Y113.346 E8.05331
G1 X140.075 Y113.958 E8.10953
G1 X139.953 Y114.478 E8.1581
G1 X139.814 Y114.922 E8.2004
G1 X139.588 Y115.486 E8.25565
G1 X139.393 Y115.886 E8.29611
G1 X139.105 Y116.395 E8.34929
G1 X138.836 Y116.808 E8.39411
G1 X138.309 Y117.493 E8.4727
G1 X138.846 Y118.191 E8.55278
G1 X139.199 Y118.746 E8.61259
G1 X139.488 Y119.283 E8.66804
G1 X139.672 Y119.688 E8.70849
G1 X139.874 Y120.232 E8.76126
G1 X140.007 Y120.701 E8.80559
G1 X140.117 Y121.245 E8.85606
G1 X140.181 Y121.794 E8.90632
G1 X140.201 Y122.332 E8.95527
G1 X140.137 Y123.358 E9.04875
G1 X139.898 Y124.992 E9.19891
G1 X139.895 Y125.212 E9.21892
G1 X139.964 Y125.55 E9.25029
G1 X140.058 Y125.773 E9.2723
G1 X140.372 Y126.321 E9.32973
G1 X140.841 Y126.979 E9.4032
G1 X142.132 Y128.634 E9.59406
G1 X142.539 Y129.244 E9.66074
G1 X142.844 Y129.843 E9.72186
G1 X143.028 Y130.4 E9.7752
G1 X143.098 Y130.83 E9.81481
G1 X143.1 Y131.306 E9.85809
G1 X143.02 Y131.775 E9.90135
G1 X142.874 Y132.187 E9.9411
G1 X142.496 Y132.791 E10.00589
G1 X142.188 Y133.103 E10.04575
G1 X141.842 Y133.356 E10.08473
G1 X141.391 Y133.584 E10.13068
G1 X140.997 Y133.711 E10.16832
G1 X140.561 Y133.794 E10.20868
G1 X140.091 Y133.826 E10.25152
G1 X139.247 Y133.772 E10.32842
G1 X138.368 Y133.6 E10.40986
G1 X137.428 Y133.311 E10.49928
G1 X136.544 Y132.938 E10.58652
G1 X135.741 Y132.498 E10.66978
G1 X135.018 Y131.992 E10.75002
G1 X134.504 Y131.547 E10.81184
G1 X134.054 Y131.077 E10.87101
G1 X133.666 Y130.586 E10.92791
G1 X133.321 Y130.056 E10.98541
G1 X133.062 Y129.576 E11.035
G1 X132.841 Y129.085 E11.08396
G1 X132.355 Y127.729 E11.21494
G1 X132.176 Y127.288 E11.25822
G1 X131.996 Y126.941 E11.29377
G1 X131.8 Y126.642 E11.32628
G1 X131.594 Y126.393 E11.35567
G1 X131.312 Y126.133 E11.39055
G1 X131.031 Y125.939 E11.4216
G1 X130.737 Y125.786 E11.45174
G1 X130.217 Y125.585 E11.50243
G1 X129.503 Y125.39 E11.56973
G1 X128.547 Y125.208 E11.65822
G1 X127.558 Y125.077 E11.74893
G1 X126.096 Y124.945 E11.88241
G1 X124.654 Y124.862 E12.01375
G1 X122.989 Y124.804 E12.16524
G1 X121.098 Y124.771 E12.33721
G1 X118.562 Y124.766 E12.56781
G1 X116.208 Y124.797 E12.78188
G1 X114.501 Y124.852 E12.93718
G1 X112.74 Y124.95 E13.09755
G1 X111.284 Y125.082 E13.23049
G1 X110.112 Y125.244 E13.33807
G1 X109.198 Y125.43 E13.42288
G1 X108.432 Y125.659 E13.49558
G1 X107.975 Y125.856 E13.54083
G1 X107.651 Y126.048 E13.57508
G1 X107.402 Y126.246 E13.60401
G1 X107.116 Y126.553 E13.64216
G1 X106.837 Y126.962 E13.68718
G1 X106.664 Y127.296 E13.72138
G1 X106.485 Y127.738 E13.76474
G1 X106.004 Y129.085 E13.8948
G1 X105.73 Y129.683 E13.95461
G1 X105.416 Y130.238 E14.01259
G1 X104.982 Y130.854 E14.08111
G1 X104.529 Y131.37 E14.14355
G1 X104.01 Y131.854 E14.20808
G1 X103.462 Y132.273 E14.27081
G1 X102.736 Y132.724 E14.34853
G1 X102.263 Y132.968 E14.39693
G1 X101.631 Y133.243 E14.4596
G1 X101.154 Y133.415 E14.50571
G1 X100.502 Y133.608 E14.56754
G1 X99.595 Y133.787 E14.6516
G1 X99.123 Y133.833 E14.69472
G1 X98.649 Y133.839 E14.73782
G1 X98.224 Y133.802 E14.77661
G1 X97.781 Y133.71 E14.81775
G1 X97.249 Y133.508 E14.86949
G1 X96.727 Y133.18 E14.92555
G1 X96.394 Y132.862 E14.96742
G1 X96.146 Y132.535 E15.00474
G1 X95.839 Y131.843 E15.07358
G1 X95.748 Y131.382 E15.11631
G1 X95.743 Y130.878 E15.16214
G1 X95.851 Y130.274 E15.21793
G1 X96.076 Y129.684 E15.27535
G1 X96.391 Y129.116 E15.33441
G1 X96.7 Y128.663 E15.38427
G1 X97.996 Y126.999 E15.57605
G1 X98.465 Y126.339 E15.64967
G1 X98.773 Y125.801 E15.70604
G1 X98.908 Y125.445 E15.74066
G1 X98.944 Y125.074 E15.77455
G1 X98.896 Y124.633 E15.81489
G1 X98.699 Y123.363 E15.93175
G1 X98.644 Y122.706 E15.9917
G1 X98.636 Y122.193 E16.03835
G1 X98.667 Y121.659 E16.08699
G1 X98.755 Y121.049 E16.14303
G1 X98.876 Y120.528 E16.19167
G1 X99.007 Y120.108 E16.23167
G1 X99.24 Y119.522 E16.28901
G1 X99.435 Y119.12 E16.32964
G1 X99.733 Y118.595 E16.38453
G1 X99.992 Y118.198 E16.42763
G1 X100.517 Y117.514 E16.50603
G1 X99.982 Y116.817 E16.58593
G1 X99.633 Y116.27 E16.64493
G1 X99.341 Y115.725 E16.70115
G1 X99.157 Y115.32 E16.7416
G1 X98.955 Y114.775 E16.79445
G1 X98.823 Y114.307 E16.83867
G1 X98.713 Y113.763 E16.88914
G1 X98.649 Y113.214 E16.9394
G1 X98.63 Y112.677 E16.98826
G1 X98.694 Y111.652 E17.08164
G1 X98.931 Y110.02 E17.23159
G1 X98.934 Y109.8 E17.2516
G1 X98.864 Y109.462 E17.28299
G1 X98.77 Y109.239 E17.305
G1 X98.455 Y108.691 E17.36248
G1 X97.985 Y108.032 E17.43608
G1 X96.694 Y106.377 E17.62694
G1 X96.293 Y105.776 E17.69264
G1 X96.019 Y105.255 E17.74617
G1 X95.834 Y104.745 E17.7955
G1 X95.729 Y104.179 E17.84784
G1 X95.734 Y103.641 E17.89676
G1 X95.828 Y103.168 E17.94061
G1 X95.989 Y102.753 E17.98109
G1 X96.218 Y102.37 E18.02167
G1 X96.505 Y102.043 E18.06123
G1 X96.97 Y102.458 F30000
G1 F1800
G1 X97.247 Y102.233 E18.09368
G1 X97.622 Y102.03 E18.13245
G1 X97.949 Y101.918 E18.16388
G1 X98.31 Y101.845 E18.19737
G1 X98.744 Y101.813 E18.23694
G1 X99.524 Y101.865 E18.30802
G1 X100.317 Y102.022 E18.38153
G1 X101.175 Y102.286 E18.46316
G1 X102.001 Y102.633 E18.54463
G1 X102.775 Y103.057 E18.62488
G1 X103.44 Y103.525 E18.69882
G1 X103.904 Y103.929 E18.75476
G1 X104.312 Y104.357 E18.80853
G1 X104.679 Y104.826 E18.86268
G1 X104.989 Y105.308 E18.91479
G1 X105.211 Y105.724 E18.95767
G1 X105.404 Y106.151 E19.00028
G1 X105.89 Y107.506 E19.13118
G1 X106.088 Y107.994 E19.17907
G1 X106.217 Y108.253 E19.20538
G1 X106.446 Y108.629 E19.24541
G1 X106.702 Y108.962 E19.2836
G1 X106.869 Y109.141 E19.30586
G1 X107.18 Y109.41 E19.34325
G1 X107.472 Y109.606 E19.37523
G1 X107.844 Y109.8 E19.41338
G1 X108.201 Y109.946 E19.44845
G1 X108.778 Y110.128 E19.50346
G1 X109.335 Y110.264 E19.5556
G1 X109.998 Y110.389 E19.61695
G1 X110.773 Y110.503 E19.68818
G1 X111.667 Y110.603 E19.76998
G1 X112.682 Y110.687 E19.86259
G1 X115.129 Y110.809 E20.08537
G1 X117.726 Y110.862 E20.32156
G1 X121.096 Y110.859 E20.62799
G1 X124.031 Y110.791 E20.89494
G1 X126.14 Y110.677 E21.08699
G1 X127.156 Y110.591 E21.1797
G1 X128.043 Y110.491 E21.26087
G1 X129.339 Y110.28 E21.38027
G1 X129.917 Y110.147 E21.4342
G1 X130.398 Y110.007 E21.47975
G1 X130.989 Y109.777 E21.53742
G1 X131.466 Y109.516 E21.58686
G1 X131.856 Y109.213 E21.63177
G1 X132.203 Y108.841 E21.67803
G1 X132.53 Y108.361 E21.73084
G1 X132.734 Y107.966 E21.77126
G1 X132.928 Y107.486 E21.81834
G1 X133.395 Y106.173 E21.94506
G1 X133.764 Y105.396 E22.02327
G1 X134.01 Y104.987 E22.06667
G1 X134.235 Y104.667 E22.10224
G1 X134.584 Y104.242 E22.15225
G1 X134.912 Y103.903 E22.19514
G1 X135.319 Y103.545 E22.24443
G1 X135.714 Y103.247 E22.28942
G1 X136.24 Y102.91 E22.34622
G1 X136.646 Y102.69 E22.38821
G1 X137.198 Y102.433 E22.44358
G1 X137.67 Y102.248 E22.48968
G1 X138.305 Y102.045 E22.5503
G1 X138.936 Y101.895 E22.60928
G1 X139.561 Y101.804 E22.66671
G1 X139.968 Y101.783 E22.70377
G1 X140.377 Y101.8 E22.74099
G1 X140.839 Y101.881 E22.78364
G1 X141.317 Y102.059 E22.83002
G1 X141.732 Y102.328 E22.87499
G1 X142.045 Y102.649 E22.91576
G1 X142.3 Y103.081 E22.96137
G1 X142.433 Y103.514 E23.00256
G1 X142.466 Y103.996 E23.04649
G1 X142.408 Y104.429 E23.08621
G1 X142.235 Y104.945 E23.1357
G1 X142.063 Y105.29 E23.17075
G1 X141.858 Y105.628 E23.2067
G1 X141.159 Y106.578 E23.31395
G1 X140.327 Y107.634 E23.43619
G1 X139.835 Y108.327 E23.51347
G1 X139.484 Y108.942 E23.57786
G1 X139.408 Y109.115 E23.59504
G1 X139.322 Y109.37 E23.61951
G1 X139.267 Y109.673 E23.64751
G1 X139.261 Y109.968 E23.67434
G1 X139.314 Y110.453 E23.7187
G1 X139.513 Y111.727 E23.83595
G1 X139.561 Y112.298 E23.88805
G1 X139.569 Y112.787 E23.93252
G1 X139.54 Y113.296 E23.97888
G1 X139.463 Y113.828 E24.02776
G1 X139.347 Y114.324 E24.07408
G1 X139.222 Y114.722 E24.11201
G1 X139.021 Y115.223 E24.1611
G1 X138.844 Y115.588 E24.19799
G1 X138.575 Y116.063 E24.24763
G1 X138.333 Y116.437 E24.28814
G1 X137.52 Y117.494 E24.40939
G1 X138.326 Y118.539 E24.52939
G1 X138.666 Y119.072 E24.58688
G1 X138.924 Y119.552 E24.63643
G1 X139.09 Y119.917 E24.67289
G1 X139.276 Y120.417 E24.7214
G1 X139.397 Y120.837 E24.76114
G1 X139.502 Y121.356 E24.80929
G1 X139.557 Y121.831 E24.85277
G1 X139.576 Y122.31 E24.89636
G1 X139.517 Y123.281 E24.98482
G1 X139.274 Y124.942 E25.13746
G1 X139.27 Y125.241 E25.16465
G1 X139.311 Y125.539 E25.192
G1 X139.38 Y125.772 E25.2141
G1 X139.497 Y126.051 E25.24161
G1 X139.845 Y126.658 E25.30523
G1 X140.339 Y127.353 E25.38276
G1 X141.632 Y129.009 E25.5738
G1 X142.008 Y129.574 E25.63551
G1 X142.276 Y130.104 E25.68951
G1 X142.415 Y130.525 E25.72982
G1 X142.477 Y130.903 E25.76465
G1 X142.475 Y131.273 E25.79829
G1 X142.41 Y131.636 E25.83182
G1 X142.299 Y131.941 E25.86133
G1 X142.024 Y132.381 E25.90851
G1 X141.796 Y132.615 E25.93822
G1 X141.494 Y132.836 E25.97225
G1 X141.175 Y132.997 E26.00474
G1 X140.825 Y133.11 E26.03818
G1 X140.467 Y133.176 E26.07128
G1 X140.108 Y133.201 E26.104
G1 X139.345 Y133.154 E26.17351
G1 X138.534 Y132.998 E26.24861
G1 X137.655 Y132.728 E26.33222
G1 X136.829 Y132.381 E26.41369
G1 X136.085 Y131.976 E26.49072
G1 X135.39 Y131.49 E26.56783
G1 X134.926 Y131.086 E26.62377
G1 X134.518 Y130.657 E26.6776
G1 X134.166 Y130.211 E26.72926
G1 X133.852 Y129.727 E26.78172
G1 X133.627 Y129.308 E26.82497
G1 X133.425 Y128.862 E26.86949
G1 X132.939 Y127.507 E27.00039
G1 X132.744 Y127.026 E27.04758
G1 X132.536 Y126.625 E27.08866
G1 X132.303 Y126.27 E27.12727
G1 X132.049 Y125.963 E27.1635
G1 X131.703 Y125.643 E27.20635
G1 X131.353 Y125.403 E27.24494
G1 X130.995 Y125.216 E27.28167
G1 X130.413 Y124.991 E27.33841
G1 X129.644 Y124.78 E27.41092
G1 X128.646 Y124.591 E27.50328
G1 X127.627 Y124.456 E27.59675
G1 X126.142 Y124.322 E27.73233
G1 X124.683 Y124.238 E27.86522
G1 X123.005 Y124.179 E28.01789
G1 X121.104 Y124.146 E28.19077
G1 X118.558 Y124.141 E28.42228
G1 X116.194 Y124.173 E28.63726
G1 X114.474 Y124.228 E28.79374
G1 X112.695 Y124.327 E28.95575
G1 X111.213 Y124.461 E29.09106
G1 X110.007 Y124.628 E29.20177
G1 X109.046 Y124.823 E29.29093
G1 X108.218 Y125.071 E29.36952
G1 X107.691 Y125.299 E29.42173
G1 X107.296 Y125.533 E29.46348
G1 X106.977 Y125.786 E29.5005
G1 X106.626 Y126.161 E29.54721
G1 X106.299 Y126.641 E29.60002
G1 X106.095 Y127.035 E29.64036
G1 X105.901 Y127.516 E29.68752
G1 X105.42 Y128.861 E29.81741
G1 X105.168 Y129.41 E29.87234
G1 X104.896 Y129.891 E29.92259
G1 X104.481 Y130.48 E29.98811
G1 X104.09 Y130.924 E30.04191
G1 X103.616 Y131.368 E30.10097
G1 X103.118 Y131.751 E30.1581
G1 X102.437 Y132.175 E30.23104
G1 X102.004 Y132.399 E30.27537
G1 X101.408 Y132.659 E30.3345
G1 X100.968 Y132.819 E30.37707
G1 X100.339 Y133.005 E30.43671
G1 X99.517 Y133.167 E30.51289
G1 X99.1 Y133.209 E30.551
G1 X98.687 Y133.215 E30.58856
G1 X98.298 Y133.181 E30.62407
G1 X97.933 Y133.104 E30.65799
G1 X97.549 Y132.96 E30.69528
G1 X97.13 Y132.701 E30.74007
G1 X96.875 Y132.462 E30.77185
G1 X96.668 Y132.189 E30.803
G1 X96.428 Y131.633 E30.85807
G1 X96.368 Y131.298 E30.88902
G1 X96.363 Y130.959 E30.91985
G1 X96.461 Y130.416 E30.97002
G1 X96.649 Y129.933 E31.01715
G1 X96.916 Y129.456 E31.06686
G1 X97.2 Y129.039 E31.11274
G1 X98.497 Y127.372 E31.3048
G1 X98.992 Y126.676 E31.38246
G1 X99.34 Y126.069 E31.44608
G1 X99.508 Y125.626 E31.48916
G1 X99.562 Y125.329 E31.51661
G1 X99.568 Y125.035 E31.54335
