; generated by PrusaSlicer 2.6.1+linux-x64-GTK3 on 2023-10-09 at 20:26:08 UTC

; 

; external perimeters extrusion width = 0.45mm
; perimeters extrusion width = 0.45mm
; infill extrusion width = 0.45mm
; solid infill extrusion width = 0.45mm
; top infill extrusion width = 0.40mm
; first layer extrusion width = 0.70mm

;TYPE:Custom
; M190 R30 ; Because of probe temperature drift,
; M109 R30 ; Let the beds and hotend cool down before homing the axis

G28 ; home all axes
G1 Z5 F5000 ; lift nozzle
M190 S65 ; set bed temperature and wait for it to be reached
M109 S225 ; set hot end temp and wait for it

; Do a purge line to prime the extruder
G92 E0 ;Reset Extruder
G1 Z2.0 F3000 ;Move Z Axis up
G1 X20 Y5.1 Z0.28 F5000.0 ;Move to start position
G1 X200.0 Y5.1 Z0.28 F1500.0 E15 ;Draw the first line
G1 X200.0 Y5.4 Z0.28 F5000.0 ;Move to side a little
G1 X20 Y5.4 Z0.28 F1500.0 E30 ;Draw the second line
G1 Z0.4 F3000; Move Z Axis Up
G1 X50 F1500; Wipe to the right
G92 E0 ;Reset Extruder

; Brush any crap off the nozzle
; """""
G21 ; set units to millimeters
G90 ; use absolute coordinates
M82 ; use absolute distances for extrusion
G92 E0
; Filament gcode
M107
;LAYER_CHANGE
;Z:0.35
;HEIGHT:0.35
G1 Z.35 F7800
G1 E-2 F2400
G92 E0
G1 X124.582 Y108.473 F7800
G1 E2 F2400
;TYPE:Perimeter
;WIDTH:0.606096
G1 F1800
G1 X124.265 Y108.7 E2.03013
G1 X123.889 Y109.137 E2.07467
G1 X123.508 Y109.13 E2.10411
;WIDTH:0.578431
G1 X122.957 Y109.151 E2.14449
;WIDTH:0.570729
G1 X122.454 Y109.241 E2.18134
G1 X122.211 Y109.243 E2.19887
;WIDTH:0.557558
G1 X121.206 Y109.264 E2.26944
;WIDTH:0.529733
G1 X120.833 Y109.305 E2.29426
G1 X120.569 Y109.266 E2.31191
;WIDTH:0.496308
G1 X120.304 Y109.228 E2.32832
;WIDTH:0.462883
G1 X119.683 Y109.201 E2.36339
;WIDTH:0.440558
G1 X119.178 Y109.258 E2.39042
;WIDTH:0.454588
G1 X118.707 Y109.294 E2.4165
G1 X117.702 Y109.301 E2.472
;WIDTH:0.44339
G1 X116.929 Y109.306 E2.51343
;WIDTH:0.430834
G1 X114.867 Y109.311 E2.62016
;WIDTH:0.420863
G1 X114.845 Y109.311 E2.62127
;WIDTH:0.434705
G1 X113.771 Y109.325 E2.67747
;WIDTH:0.482373
G1 X113.408 Y109.414 E2.69962
G1 X113.272 Y109.374 E2.70802
;WIDTH:0.471298
G1 X112.867 Y109.306 E2.7317
;WIDTH:0.424913
G1 X112.462 Y109.238 E2.7526
;WIDTH:0.378529
G1 X111.811 Y109.226 E2.78135
;WIDTH:0.412
G1 X111.449 Y109.264 E2.79919
;WIDTH:0.445754
G1 X111.088 Y109.303 E2.81877
;WIDTH:0.487363
G1 X110.894 Y109.354 E2.8308
;WIDTH:0.528972
G1 X110.7 Y109.405 E2.84405
;WIDTH:0.570582
G1 X110.506 Y109.456 E2.85851
;WIDTH:0.579539
G1 X110.36 Y109.541 E2.87091
G1 X110.09 Y109.406 E2.89307
;WIDTH:0.542726
G1 X109.811 Y109.337 E2.91263
;WIDTH:0.495257
G1 X109.532 Y109.267 E2.93022
;WIDTH:0.447788
G1 X108.631 Y109.2 E2.97922
;WIDTH:0.460147
G1 X108.375 Y109.227 E2.99364
;WIDTH:0.491452
G1 X108.12 Y109.254 E3.00918
;WIDTH:0.529214
G1 X107.895 Y109.311 E3.02452
;WIDTH:0.566976
G1 X107.67 Y109.369 E3.04115
G1 X107.405 Y109.284 E3.06107
;WIDTH:0.54143
G1 X106.555 Y109.175 E3.11922
;WIDTH:0.538387
G1 X106.008 Y109.158 E3.15611
;WIDTH:0.57801
G1 X105.772 Y109.183 E3.17348
;WIDTH:0.617633
G1 X105.537 Y109.209 E3.19215
;WIDTH:0.657256
G1 X105.302 Y109.235 E3.21218
;WIDTH:0.69688
G1 X105.066 Y109.261 E3.23366
;WIDTH:0.743477
G1 X104.811 Y109.319 E3.25909
;WIDTH:0.790074
G1 X104.556 Y109.377 E3.2863
G1 X104.008 Y109.189 E3.34657
;WIDTH:0.742935
G1 X103.591 Y109.1 E3.38801
;WIDTH:0.783269
G1 X102.955 Y109.021 E3.45405
G1 X102.759 Y109.049 E3.47445
;WIDTH:0.741634
G1 X102.563 Y109.078 E3.49367
;WIDTH:0.7
G1 X101.631 Y109.26 E3.58002
G1 X101.085 Y109.479 E3.63351
G1 X100.512 Y109.819 E3.69409
G1 X100.314 Y110.009 E3.71904
G1 X100.037 Y110.463 E3.7674
G1 X99.948 Y111.295 E3.84348
G1 X100.011 Y111.545 E3.86692
G1 X99.992 Y111.669 E3.87833
G1 X99.772 Y111.388 E3.91078
G1 X99.024 Y110.666 E4.00531
G1 X98.677 Y110.287 E4.05203
G1 X98.176 Y109.643 E4.12622
G1 X97.876 Y109.131 E4.18018
G1 X97.656 Y108.618 E4.23094
G1 X97.512 Y108 E4.28864
G1 X97.499 Y107.475 E4.33639
G1 X97.559 Y106.925 E4.3867
G1 X97.721 Y105.874 E4.4834
G1 X97.797 Y105.033 E4.56018
G1 X97.76 Y104.248 E4.63164
G1 X97.703 Y104.088 E4.64708
;WIDTH:0.656054
G1 X97.647 Y103.929 E4.66133
;WIDTH:0.612109
G1 X97.59 Y103.77 E4.67453
;WIDTH:0.568164
G1 X97.534 Y103.611 E4.68662
;WIDTH:0.524219
G1 X97.477 Y103.451 E4.69772
;WIDTH:0.488567
G1 X97.198 Y102.705 E4.74564
;WIDTH:0.511661
G1 X96.935 Y102.187 E4.78254
G1 X96.57 Y101.602 E4.82634
;WIDTH:0.474029
G1 X96.072 Y100.931 E4.87485
;WIDTH:0.442784
G1 X95.721 Y100.471 E4.90581
G1 X96.107 Y100.69 E4.92955
G1 X96.601 Y101.043 E4.96203
;WIDTH:0.468254
G1 X96.812 Y101.28 E4.98018
;WIDTH:0.493725
G1 X97.024 Y101.518 E4.99959
;WIDTH:0.511661
G1 X97.321 Y101.984 E5.03469
G1 X97.586 Y102.562 E5.07508
;WIDTH:0.516918
G1 X97.958 Y103.645 E5.1487
;WIDTH:0.562688
G1 X97.986 Y103.773 E5.158
;WIDTH:0.608459
G1 X98.013 Y103.902 E5.16823
;WIDTH:0.654229
G1 X98.04 Y104.03 E5.17925
;WIDTH:0.7
G1 X98.068 Y104.158 E5.19116
G1 X98.175 Y104.405 E5.21564
G1 X98.542 Y105.094 E5.28662
G1 X98.996 Y105.76 E5.35991
G1 X99.678 Y106.524 E5.45303
G1 X100.309 Y107.052 E5.52784
G1 X100.86 Y107.412 E5.58769
G1 X101.38 Y107.677 E5.64076
G1 X102.019 Y107.953 E5.70405
;WIDTH:0.741634
G1 X102.544 Y108.138 E5.75804
;WIDTH:0.783269
G1 X103.069 Y108.324 E5.81543
G1 X104.147 Y108.54 E5.92872
;WIDTH:0.765002
G1 X104.401 Y108.595 E5.95481
;WIDTH:0.790074
G1 X104.655 Y108.65 E5.98185
G1 X104.826 Y108.656 E5.99965
;WIDTH:0.749885
G1 X104.997 Y108.661 E6.01645
;WIDTH:0.709697
G1 X105.168 Y108.666 E6.03225
;WIDTH:0.669508
G1 X105.338 Y108.671 E6.04696
;WIDTH:0.62932
G1 X105.698 Y108.691 E6.07604
;WIDTH:0.588337
G1 X106.058 Y108.71 E6.10296
;WIDTH:0.547354
G1 X106.418 Y108.73 E6.12774
;WIDTH:0.506804
G1 X107.047 Y108.783 E6.16739
;WIDTH:0.555971
G1 X107.734 Y108.856 E6.21573
G1 X107.954 Y108.853 E6.23113
;WIDTH:0.519198
G1 X108.174 Y108.85 E6.24535
;WIDTH:0.482425
G1 X108.395 Y108.847 E6.25845
;WIDTH:0.445653
G1 X108.998 Y108.86 E6.29097
;WIDTH:0.447788
G1 X109.564 Y108.896 E6.32173
;WIDTH:0.488719
G1 X109.84 Y108.928 E6.33845
;WIDTH:0.52965
G1 X110.116 Y108.959 E6.35682
;WIDTH:0.570582
G1 X110.392 Y108.991 E6.37685
G1 X110.606 Y108.975 E6.39232
;WIDTH:0.528972
G1 X110.82 Y108.958 E6.4065
;WIDTH:0.487363
G1 X111.033 Y108.942 E6.41931
;WIDTH:0.445754
G1 X111.415 Y108.933 E6.43992
;WIDTH:0.412
G1 X111.798 Y108.923 E6.4587
;WIDTH:0.378246
G1 X112.301 Y108.932 E6.48089
;WIDTH:0.404733
G1 X112.818 Y108.949 E6.5057
;WIDTH:0.443553
G1 X113.11 Y108.97 E6.5214
;WIDTH:0.482373
G1 X113.402 Y108.99 E6.53875
G1 X113.707 Y108.977 E6.55684
;WIDTH:0.452491
G1 X114.013 Y108.963 E6.57366
;WIDTH:0.42261
G1 X114.865 Y108.966 E6.61674
;WIDTH:0.430834
G1 X116.927 Y108.951 E6.72348
;WIDTH:0.431086
G1 X116.951 Y108.95 E6.72472
;WIDTH:0.441098
G1 X117.697 Y108.935 E6.76446
;WIDTH:0.454588
G1 X118.702 Y108.915 E6.81997
G1 X119.291 Y108.882 E6.85254
;WIDTH:0.431137
G1 X119.997 Y108.848 E6.88916
;WIDTH:0.464803
G1 X120.291 Y108.85 E6.90583
;WIDTH:0.498469
G1 X120.584 Y108.851 E6.92388
;WIDTH:0.515176
G1 X121.188 Y108.825 E6.96259
;WIDTH:0.557558
G1 X122.191 Y108.761 E7.03315
;WIDTH:0.570729
G1 X123.165 Y108.657 E7.10379
;WIDTH:0.579774
G1 X123.559 Y108.619 E7.13286
;WIDTH:0.606096
G1 X123.953 Y108.582 E7.16344
G1 X124.523 Y108.483 E7.20814
G1 E5.20814 F2400
G92 E0
G1 X126.374 Y110.638 F7800
G1 E2 F2400
;TYPE:External perimeter
;WIDTH:0.439255
G1 F1800
G1 X126.801 Y110.561 E2.02299
;WIDTH:0.427753
G1 X127.17 Y110.598 E2.04202
;WIDTH:0.431441
G1 X127.605 Y110.762 E2.06612
G1 E.06612 F2400
G92 E0
G1 X129.343 Y108.954 F7800
G1 E2 F2400
;TYPE:Perimeter
;WIDTH:0.7
G1 F1800
G1 X129.08 Y108.645 E2.0369
G1 X128.71 Y108.398 E2.07735
G1 X128.203 Y108.153 E2.12855
G1 X127.695 Y107.987 E2.17715
G1 X126.956 Y107.873 E2.24514
G1 X127.637 Y107.568 E2.31299
G1 X128.094 Y107.316 E2.36044
G1 X128.627 Y106.948 E2.41933
G1 X129.03 Y106.596 E2.46798
G1 X129.466 Y106.174 E2.52315
G1 X129.949 Y105.575 E2.59312
G1 X130.362 Y104.931 E2.66269
G1 X130.707 Y104.248 E2.73227
G1 X130.74 Y104.109 E2.74526
;WIDTH:0.657794
G1 X130.773 Y103.971 E2.75729
;WIDTH:0.615588
G1 X130.806 Y103.832 E2.76853
;WIDTH:0.573382
G1 X130.838 Y103.693 E2.77887
;WIDTH:0.531176
G1 X130.871 Y103.555 E2.78829
;WIDTH:0.48897
G1 X131.09 Y102.92 E2.82874
;WIDTH:0.498964
G1 X131.305 Y102.348 E2.86643
;WIDTH:0.507073
G1 X131.51 Y101.931 E2.89564
G1 X131.811 Y101.466 E2.93046
;WIDTH:0.493312
G1 X132.151 Y101.081 E2.96172
;WIDTH:0.457443
G1 X132.589 Y100.745 E2.99243
G1 X133.07 Y100.466 E3.02337
G1 X132.732 Y100.901 E3.05402
G1 X132.428 Y101.338 E3.08364
;WIDTH:0.4949
G1 X132.057 Y101.854 E3.12246
;WIDTH:0.498964
G1 X131.699 Y102.504 E3.16823
G1 X131.398 Y103.247 E3.21767
;WIDTH:0.496562
G1 X131.235 Y103.785 E3.25214
;WIDTH:0.537249
G1 X131.199 Y103.896 E3.25999
;WIDTH:0.577937
G1 X131.162 Y104.007 E3.26855
;WIDTH:0.618624
G1 X131.125 Y104.118 E3.2778
;WIDTH:0.659312
G1 X131.088 Y104.229 E3.28775
;WIDTH:0.7
G1 X131.052 Y104.34 E3.29836
G1 X131.024 Y104.668 E3.32829
G1 X131.043 Y105.363 E3.39151
G1 X131.112 Y105.928 E3.44327
G1 X131.286 Y107.035 E3.54516
G1 X131.324 Y107.549 E3.59203
G1 X131.292 Y108.141 E3.64594
G1 X131.127 Y108.722 E3.70086
G1 X130.882 Y109.242 E3.75313
G1 X130.241 Y110.16 E3.85494
G1 X129.908 Y110.536 E3.90061
G1 X129.477 Y110.972 E3.95636
G1 X129.349 Y110.694 E3.98419
G1 X129.527 Y110.304 E4.02317
G1 X129.603 Y109.914 E4.0593
G1 X129.593 Y109.614 E4.08659
G1 X129.456 Y109.146 E4.13093
G1 X129.373 Y109.005 E4.14581
G1 E2.14581 F2400
G92 E0
G1 X124.585 Y112.158 F7800
G1 E2 F2400
;TYPE:External perimeter
;WIDTH:0.465629
G1 F1800
G1 X124.596 Y111.439 E2.04086
G1 X123.836 Y112.879 F7800
;WIDTH:0.440871
G1 F1800
G1 X123.305 Y113.029 E2.07023
;WIDTH:0.477625
G1 X122.978 Y113.056 E2.08945
G1 E.08945 F2400
G92 E0
G1 X121.046 Y112.152 F7800
G1 E2 F2400
;WIDTH:0.415111
G1 F1800
G1 X121.056 Y111.441 E2.03518
G1 X120.332 Y112.879 F7800
;WIDTH:0.440869
G1 F1800
G1 X119.801 Y113.029 E2.06455
;WIDTH:0.477625
G1 X119.474 Y113.056 E2.08377
G1 E.08377 F2400
G92 E0
G1 X117.528 Y111.793 F7800
G1 E2 F2400
;WIDTH:0.422611
G1 F1800
G1 X117.53 Y111.763 E2.00152
;WIDTH:0.419999
G1 X117.53 Y110.734 E2.05316
G1 E.05316 F2400
G92 E0
G1 X113.843 Y111.581 F7800
G1 E2 F2400
;WIDTH:0.415111
G1 F1800
G1 X113.869 Y111.866 E2.01416
G1 E.01416 F2400
G92 E0
G1 X110.208 Y111.669 F7800
G1 E2 F2400
;WIDTH:0.513225
G1 F1800
G1 X110.187 Y111.947 E2.01777
;WIDTH:0.470644
G1 X110.166 Y112.225 E2.03382
;WIDTH:0.465153
G1 X110.184 Y112.983 E2.07685
;WIDTH:0.467825
G1 X110.186 Y113.006 E2.07817
G1 E.07817 F2400
G92 E0
G1 X108.162 Y111.639 F7800
G1 E2 F2400
;WIDTH:0.46033
G1 F1800
G1 X108.194 Y111.692 E2.00347
;WIDTH:0.505549
G1 X108.226 Y111.746 E2.0074
;WIDTH:0.550768
G1 X108.258 Y111.799 E2.01169
;WIDTH:0.595987
G1 X108.29 Y111.853 E2.01645
;WIDTH:0.641207
G1 X108.322 Y111.906 E2.02155
G1 X108.337 Y112.788 E2.09421
;WIDTH:0.615593
G1 X108.335 Y112.829 E2.09744
G1 E.09744 F2400
G92 E0
G1 X104.778 Y112.798 F7800
G1 E2 F2400
;WIDTH:0.415111
G1 F1800
G1 X104.783 Y112.219 E2.02865
G1 X105.333 Y111.929 E2.05941
;WIDTH:0.461344
G1 X105.637 Y111.88 E2.07672
;WIDTH:0.507577
G1 X105.941 Y111.832 E2.09609
;WIDTH:0.522295
G1 X106.404 Y111.824 E2.12622
G1 E.12622 F2400
G92 E0
G1 X102.972 Y111.824 F7800
G1 E2 F2400
G1 F1800
G1 X102.509 Y111.832 E2.03013
;WIDTH:0.507577
G1 X102.225 Y111.879 E2.04825
;WIDTH:0.461344
G1 X101.94 Y111.926 E2.06448
;WIDTH:0.415111
G1 X101.901 Y111.929 E2.06642
G1 E.06642 F2400
G92 E0
G1 X107.445 Y116.16 F7800
G1 E2 F2400
;TYPE:Perimeter
;WIDTH:0.594333
G1 F1800
G1 X106.596 Y116.222 E2.06432
;WIDTH:0.619383
G1 X106.279 Y116.245 E2.08949
;WIDTH:0.645019
G1 X105.961 Y116.268 E2.11593
;WIDTH:0.68053
G1 X105.741 Y116.275 E2.13532
;WIDTH:0.716042
G1 X105.521 Y116.282 E2.15585
;WIDTH:0.751554
G1 X105.302 Y116.289 E2.17742
;WIDTH:0.800323
G1 X105.13 Y116.29 E2.19557
;WIDTH:0.849093
G1 X104.958 Y116.29 E2.21494
;WIDTH:0.897863
G1 X104.787 Y116.291 E2.23541
G1 X104.534 Y116.348 E2.26646
;WIDTH:0.868962
G1 X104.282 Y116.405 E2.29631
;WIDTH:0.840062
G1 X103.779 Y116.504 E2.35337
;WIDTH:0.857665
G1 X103.285 Y116.605 E2.41079
G1 X103.168 Y116.654 E2.42523
;WIDTH:0.818248
G1 X103.051 Y116.703 E2.43895
;WIDTH:0.778832
G1 X102.934 Y116.752 E2.45194
;WIDTH:0.739416
G1 X102.817 Y116.801 E2.4642
;WIDTH:0.7
G1 X101.706 Y117.189 E2.57121
G1 X101.044 Y117.508 E2.63803
G1 X100.646 Y117.753 E2.68053
G1 X100.052 Y118.18 E2.74705
G1 X99.524 Y118.659 E2.81187
G1 X98.879 Y119.429 E2.9032
G1 X98.468 Y120.07 E2.97244
G1 X98.184 Y120.619 E3.02864
G1 X98.158 Y120.738 E3.03972
;WIDTH:0.655867
G1 X98.132 Y120.857 E3.05001
;WIDTH:0.611735
G1 X98.106 Y120.976 E3.05952
;WIDTH:0.567603
G1 X98.08 Y121.095 E3.06825
;WIDTH:0.523471
G1 X97.957 Y121.442 E3.09227
;WIDTH:0.49385
G1 X97.788 Y121.94 E3.12431
;WIDTH:0.502191
G1 X97.393 Y122.926 E3.19032
;WIDTH:0.503691
G1 X97.135 Y123.369 E3.22229
G1 X96.737 Y123.861 E3.26176
;WIDTH:0.46449
G1 X96.138 Y124.32 E3.30452
G1 X95.779 Y124.517 E3.32772
G1 X96.449 Y123.602 E3.39198
;WIDTH:0.503691
G1 X96.789 Y123.119 E3.42882
;WIDTH:0.505956
G1 X97.121 Y122.491 E3.47335
G1 X97.414 Y121.791 E3.52092
;WIDTH:0.498806
G1 X97.573 Y121.257 E3.55527
;WIDTH:0.539685
G1 X97.62 Y121.117 E3.56525
;WIDTH:0.580564
G1 X97.666 Y120.978 E3.57602
;WIDTH:0.621443
G1 X97.712 Y120.838 E3.58774
;WIDTH:0.662323
G1 X97.758 Y120.698 E3.60033
;WIDTH:0.7
G1 X97.784 Y120.513 E3.61732
G1 X97.792 Y119.747 E3.68698
G1 X97.718 Y119.077 E3.74827
G1 X97.539 Y117.932 E3.85365
G1 X97.512 Y117.3 E3.91117
G1 X97.552 Y116.834 E3.9537
G1 X97.691 Y116.32 E4.00212
G1 X97.926 Y115.815 E4.05277
G1 X98.253 Y115.291 E4.10893
G1 X98.674 Y114.744 E4.17169
G1 X99.026 Y114.358 E4.21919
G1 X99.441 Y113.956 E4.27173
G1 X99.988 Y113.373 E4.34442
G1 X100.222 Y114.073 E4.41153
G1 X100.477 Y114.535 E4.45951
G1 X100.747 Y114.892 E4.50021
G1 X101.19 Y115.218 E4.55022
G1 X101.682 Y115.515 E4.60248
G1 X102.231 Y115.681 E4.65463
G1 X102.729 Y115.743 E4.70026
;WIDTH:0.739952
G1 X102.832 Y115.767 E4.71049
;WIDTH:0.779905
G1 X102.935 Y115.791 E4.72134
;WIDTH:0.819858
G1 X103.038 Y115.814 E4.73278
;WIDTH:0.859811
G1 X103.141 Y115.838 E4.74486
G1 X103.63 Y115.774 E4.80117
;WIDTH:0.840062
G1 X104.117 Y115.659 E4.85687
;WIDTH:0.868962
G1 X104.417 Y115.543 E4.89403
;WIDTH:0.897863
G1 X104.718 Y115.426 E4.93269
G1 X104.924 Y115.529 E4.96026
G1 X105.066 Y115.561 E4.97769
;WIDTH:0.849093
G1 X105.208 Y115.593 E4.99408
;WIDTH:0.800323
G1 X105.35 Y115.625 E5.00944
;WIDTH:0.751554
G1 X105.55 Y115.651 E5.02929
;WIDTH:0.716042
G1 X105.75 Y115.676 E5.04809
;WIDTH:0.68053
G1 X105.949 Y115.701 E5.06576
;WIDTH:0.645019
G1 X106.284 Y115.701 E5.09354
;WIDTH:0.619041
G1 X106.618 Y115.701 E5.11998
;WIDTH:0.594333
G1 X107.15 Y115.639 E5.16045
G1 X107.174 Y115.725 E5.1672
G1 X107.414 Y116.109 E5.20141
G1 E3.20141 F2400
G92 E0
G1 X113.07 Y116.015 F7800
G1 E2 F2400
;WIDTH:0.49286
G1 F1800
G1 X111.841 Y116.036 E2.07472
;WIDTH:0.498159
G1 X111.072 Y116.042 E2.12206
G1 X111.363 Y115.748 E2.14752
G1 X111.397 Y115.584 E2.15783
G1 X112.089 Y115.644 E2.20059
;WIDTH:0.49286
G1 X112.736 Y115.579 E2.24012
G1 X112.786 Y115.708 E2.24853
G1 X113.029 Y115.97 E2.27025
G1 E.27025 F2400
G92 E0
G1 X129.44 Y113.991 F7800
G1 E2 F2400
;WIDTH:0.7
G1 F1800
G1 X129.803 Y114.342 E2.04591
G1 X130.147 Y114.718 E2.09225
G1 X130.653 Y115.366 E2.16701
G1 X130.953 Y115.879 E2.22105
G1 X131.174 Y116.392 E2.27184
G1 X131.318 Y117.01 E2.32954
G1 X131.326 Y117.607 E2.38383
G1 X131.11 Y119.137 E2.52433
G1 X131.032 Y119.975 E2.60086
G1 X131.069 Y120.76 E2.67232
G1 X131.125 Y120.919 E2.68765
;WIDTH:0.656081
G1 X131.181 Y121.078 E2.7019
;WIDTH:0.612162
G1 X131.237 Y121.238 E2.71515
;WIDTH:0.568243
G1 X131.294 Y121.397 E2.72727
;WIDTH:0.524324
G1 X131.35 Y121.556 E2.73829
;WIDTH:0.488274
G1 X131.629 Y122.302 E2.78617
;WIDTH:0.511712
G1 X131.894 Y122.827 E2.82353
G1 X132.255 Y123.407 E2.86693
;WIDTH:0.474576
G1 X132.764 Y124.094 E2.91663
;WIDTH:0.442589
G1 X133.1 Y124.533 E2.94619
G1 X132.713 Y124.322 E2.96976
G1 X132.229 Y123.972 E3.0017
;WIDTH:0.468033
G1 X132.017 Y123.734 E3.01992
;WIDTH:0.493478
G1 X131.806 Y123.496 E3.03928
;WIDTH:0.511712
