; generated by PrusaSlicer 2.6.1+linux-x64-GTK3 on 2023-10-09 at 20:24:13 UTC

; 

; external perimeters extrusion width = 0.45mm
; perimeters extrusion width = 0.45mm
; infill extrusion width = 0.45mm
; solid infill extrusion width = 0.45mm
; top infill extrusion width = 0.40mm
; first layer extrusion width = 0.70mm

;TYPE:Custom
; M190 R30 ; Because of probe temperature drift,
; M109 R30 ; Let the beds and hotend cool down before homing the axis

G28 ; home all axes
G1 Z5 F5000 ; lift nozzle
M190 S65 ; set bed temperature and wait for it to be reached
M109 S235 ; set hot end temp and wait for it

; Do a purge line to prime the extruder
G92 E0 ;Reset Extruder
G1 Z2.0 F3000 ;Move Z Axis up
G1 X20 Y5.1 Z0.28 F5000.0 ;Move to start position
G1 X200.0 Y5.1 Z0.28 F1500.0 E15 ;Draw the first line
G1 X200.0 Y5.4 Z0.28 F5000.0 ;Move to side a little
G1 X20 Y5.4 Z0.28 F1500.0 E30 ;Draw the second line
G1 Z0.4 F3000; Move Z Axis Up
G1 X50 F1500; Wipe to the right
G92 E0 ;Reset Extruder

; Brush any crap off the nozzle
; """""
G21 ; set units to millimeters
G90 ; use absolute coordinates
M82 ; use absolute distances for extrusion
G92 E0
; Filament gcode
M107
;LAYER_CHANGE
;Z:0.35
;HEIGHT:0.35
G1 Z.35 F30000
G1 E-2 F2400
G92 E0
G1 X126.871 Y106.676 F30000
G1 E2 F2400
;TYPE:Perimeter
;WIDTH:0.606096
G1 F1800
G1 X126.554 Y106.903 E2.03013
G1 X126.178 Y107.339 E2.07461
G1 X125.797 Y107.332 E2.10405
;WIDTH:0.578431
G1 X125.246 Y107.353 E2.14443
;WIDTH:0.570729
G1 X124.743 Y107.444 E2.18129
G1 X124.5 Y107.446 E2.19882
;WIDTH:0.557558
G1 X123.495 Y107.467 E2.26939
;WIDTH:0.529733
G1 X123.122 Y107.507 E2.29421
G1 X122.858 Y107.469 E2.31185
;WIDTH:0.496308
G1 X122.593 Y107.431 E2.32826
;WIDTH:0.462883
G1 X121.972 Y107.404 E2.36333
;WIDTH:0.440558
G1 X121.467 Y107.46 E2.39035
;WIDTH:0.454588
G1 X120.996 Y107.497 E2.41644
G1 X119.991 Y107.504 E2.47194
;WIDTH:0.44339
G1 X119.218 Y107.509 E2.51337
;WIDTH:0.430834
G1 X117.156 Y107.514 E2.6201
;WIDTH:0.420863
G1 X117.134 Y107.514 E2.62121
;WIDTH:0.434705
G1 X116.06 Y107.527 E2.67741
;WIDTH:0.482373
G1 X115.697 Y107.617 E2.69957
G1 X115.561 Y107.576 E2.70799
;WIDTH:0.471298
G1 X115.156 Y107.508 E2.73167
;WIDTH:0.424913
G1 X114.751 Y107.44 E2.75257
;WIDTH:0.378529
G1 X114.1 Y107.428 E2.78132
;WIDTH:0.412
G1 X113.738 Y107.467 E2.79917
;WIDTH:0.445754
G1 X113.377 Y107.505 E2.81875
;WIDTH:0.487363
G1 X113.183 Y107.556 E2.83078
;WIDTH:0.528972
G1 X112.989 Y107.608 E2.84404
;WIDTH:0.570582
G1 X112.795 Y107.659 E2.8585
;WIDTH:0.579539
G1 X112.649 Y107.743 E2.87086
G1 X112.379 Y107.609 E2.89298
;WIDTH:0.542726
G1 X112.1 Y107.539 E2.91255
;WIDTH:0.495257
G1 X111.821 Y107.47 E2.93012
;WIDTH:0.447788
G1 X110.92 Y107.403 E2.97912
;WIDTH:0.460147
G1 X110.664 Y107.43 E2.99354
;WIDTH:0.491452
G1 X110.409 Y107.457 E3.00908
;WIDTH:0.529214
G1 X110.184 Y107.514 E3.02442
;WIDTH:0.566976
G1 X109.959 Y107.571 E3.04103
G1 X109.694 Y107.486 E3.06095
;WIDTH:0.54143
G1 X108.844 Y107.378 E3.11909
;WIDTH:0.538387
G1 X108.297 Y107.36 E3.15598
;WIDTH:0.57801
G1 X108.061 Y107.386 E3.17335
;WIDTH:0.617633
G1 X107.826 Y107.412 E3.19202
;WIDTH:0.657256
G1 X107.591 Y107.438 E3.21205
;WIDTH:0.69688
G1 X107.355 Y107.464 E3.23353
;WIDTH:0.743477
G1 X107.1 Y107.522 E3.25896
;WIDTH:0.790074
G1 X106.845 Y107.58 E3.28617
G1 X106.297 Y107.392 E3.34644
;WIDTH:0.742935
G1 X105.88 Y107.303 E3.38788
;WIDTH:0.783269
G1 X105.244 Y107.224 E3.45392
G1 X105.048 Y107.252 E3.47432
;WIDTH:0.741634
G1 X104.852 Y107.28 E3.49352
;WIDTH:0.7
G1 X103.92 Y107.463 E3.57988
G1 X103.374 Y107.681 E3.63334
G1 X102.801 Y108.022 E3.69397
G1 X102.603 Y108.212 E3.71892
G1 X102.326 Y108.666 E3.76728
G1 X102.237 Y109.498 E3.84336
G1 X102.3 Y109.748 E3.8668
G1 X102.281 Y109.872 E3.87821
G1 X102.061 Y109.591 E3.91066
G1 X101.313 Y108.869 E4.00519
G1 X100.966 Y108.489 E4.05198
G1 X100.465 Y107.845 E4.12617
G1 X100.165 Y107.334 E4.18005
G1 X99.945 Y106.821 E4.23081
G1 X99.801 Y106.202 E4.2886
G1 X99.788 Y105.677 E4.33635
G1 X99.848 Y105.128 E4.38657
G1 X100.01 Y104.076 E4.48336
G1 X100.086 Y103.235 E4.56014
G1 X100.049 Y102.45 E4.6316
G1 X99.992 Y102.291 E4.64696
;WIDTH:0.656054
G1 X99.936 Y102.132 E4.66121
;WIDTH:0.612109
G1 X99.879 Y101.972 E4.67448
;WIDTH:0.568164
G1 X99.823 Y101.813 E4.68657
;WIDTH:0.524219
G1 X99.766 Y101.654 E4.69761
;WIDTH:0.488567
G1 X99.487 Y100.908 E4.74553
;WIDTH:0.511661
G1 X99.224 Y100.39 E4.78243
G1 X98.859 Y99.804 E4.82629
;WIDTH:0.474029
G1 X98.361 Y99.133 E4.8748
;WIDTH:0.442784
G1 X98.01 Y98.673 E4.90576
G1 X98.396 Y98.893 E4.92953
G1 X98.89 Y99.245 E4.96198
;WIDTH:0.468254
G1 X99.101 Y99.483 E4.98018
;WIDTH:0.493725
G1 X99.313 Y99.721 E4.99959
;WIDTH:0.511661
G1 X99.61 Y100.187 E5.03469
G1 X99.875 Y100.765 E5.07508
;WIDTH:0.516918
G1 X100.247 Y101.848 E5.1487
;WIDTH:0.562688
G1 X100.275 Y101.976 E5.158
;WIDTH:0.608459
G1 X100.302 Y102.104 E5.16815
;WIDTH:0.654229
G1 X100.329 Y102.232 E5.17917
;WIDTH:0.7
G1 X100.357 Y102.361 E5.19117
G1 X100.464 Y102.608 E5.21565
G1 X100.831 Y103.297 E5.28663
G1 X101.285 Y103.963 E5.35992
G1 X101.967 Y104.727 E5.45304
G1 X102.599 Y105.255 E5.52792
G1 X103.149 Y105.615 E5.58769
G1 X103.669 Y105.88 E5.64076
G1 X104.308 Y106.155 E5.70402
;WIDTH:0.741634
G1 X104.833 Y106.341 E5.75804
;WIDTH:0.783269
G1 X105.358 Y106.527 E5.81543
G1 X106.436 Y106.743 E5.92872
;WIDTH:0.765002
G1 X106.69 Y106.798 E5.95481
;WIDTH:0.790074
G1 X106.944 Y106.853 E5.98185
G1 X107.115 Y106.858 E5.99965
;WIDTH:0.749885
G1 X107.286 Y106.863 E6.01645
;WIDTH:0.709697
G1 X107.457 Y106.869 E6.03225
;WIDTH:0.669508
G1 X107.628 Y106.874 E6.04705
;WIDTH:0.62932
G1 X107.987 Y106.893 E6.07604
;WIDTH:0.588337
G1 X108.347 Y106.913 E6.10297
;WIDTH:0.547354
G1 X108.707 Y106.932 E6.12774
;WIDTH:0.506804
G1 X109.336 Y106.986 E6.1674
;WIDTH:0.555971
G1 X110.023 Y107.059 E6.21574
G1 X110.243 Y107.056 E6.23114
;WIDTH:0.519198
G1 X110.464 Y107.053 E6.24542
;WIDTH:0.482425
G1 X110.684 Y107.05 E6.25846
;WIDTH:0.445653
G1 X111.287 Y107.063 E6.29098
;WIDTH:0.447788
G1 X111.853 Y107.099 E6.32174
;WIDTH:0.488719
G1 X112.129 Y107.13 E6.33846
;WIDTH:0.52965
G1 X112.405 Y107.162 E6.35684
;WIDTH:0.570582
G1 X112.681 Y107.194 E6.37687
G1 X112.895 Y107.177 E6.39235
;WIDTH:0.528972
G1 X113.109 Y107.161 E6.40652
;WIDTH:0.487363
G1 X113.322 Y107.144 E6.41934
;WIDTH:0.445754
G1 X113.704 Y107.135 E6.43995
;WIDTH:0.412
G1 X114.087 Y107.126 E6.45873
;WIDTH:0.378246
G1 X114.59 Y107.135 E6.48092
;WIDTH:0.404733
G1 X115.107 Y107.151 E6.50573
;WIDTH:0.443553
G1 X115.399 Y107.172 E6.52143
;WIDTH:0.482373
G1 X115.691 Y107.193 E6.53878
G1 X115.996 Y107.179 E6.55687
;WIDTH:0.452491
G1 X116.302 Y107.166 E6.57369
;WIDTH:0.42261
G1 X117.154 Y107.168 E6.61677
;WIDTH:0.430834
G1 X119.216 Y107.153 E6.72351
;WIDTH:0.431086
G1 X119.24 Y107.153 E6.72475
;WIDTH:0.441098
G1 X119.986 Y107.138 E6.76449
;WIDTH:0.454588
G1 X120.991 Y107.118 E6.82
G1 X121.58 Y107.085 E6.85257
;WIDTH:0.431137
G1 X122.287 Y107.05 E6.88924
;WIDTH:0.464803
G1 X122.58 Y107.052 E6.90586
;WIDTH:0.498469
G1 X122.873 Y107.054 E6.92391
;WIDTH:0.515176
G1 X123.477 Y107.027 E6.96263
;WIDTH:0.557558
G1 X124.48 Y106.964 E7.03318
;WIDTH:0.570729
G1 X125.454 Y106.86 E7.10382
;WIDTH:0.579774
G1 X125.848 Y106.822 E7.13289
;WIDTH:0.606096
G1 X126.242 Y106.784 E7.16347
G1 X126.812 Y106.686 E7.20816
G1 E5.20816 F2400
G92 E0
G1 X128.663 Y108.841 F30000
G1 E2 F2400
;TYPE:External perimeter
;WIDTH:0.439255
G1 F1800
G1 X129.09 Y108.763 E2.023
;WIDTH:0.427753
G1 X129.459 Y108.801 E2.04204
;WIDTH:0.431441
G1 X129.894 Y108.965 E2.06614
G1 E.06614 F2400
G92 E0
G1 X131.632 Y107.156 F30000
G1 E2 F2400
;TYPE:Perimeter
;WIDTH:0.7
G1 F1800
G1 X131.369 Y106.847 E2.0369
G1 X130.999 Y106.601 E2.0773
G1 X130.492 Y106.355 E2.12854
G1 X129.984 Y106.19 E2.17711
G1 X129.245 Y106.076 E2.2451
G1 X129.926 Y105.77 E2.31299
G1 X130.383 Y105.518 E2.36044
G1 X130.916 Y105.151 E2.41928
G1 X131.319 Y104.799 E2.46793
G1 X131.755 Y104.376 E2.52317
G1 X132.238 Y103.778 E2.59307
G1 X132.651 Y103.133 E2.66271
G1 X132.996 Y102.451 E2.73221
G1 X133.029 Y102.312 E2.7452
;WIDTH:0.657794
G1 X133.062 Y102.173 E2.75731
;WIDTH:0.615588
G1 X133.095 Y102.035 E2.76847
;WIDTH:0.573382
G1 X133.127 Y101.896 E2.77881
;WIDTH:0.531176
G1 X133.16 Y101.757 E2.78829
;WIDTH:0.48897
G1 X133.379 Y101.123 E2.82868
;WIDTH:0.498964
G1 X133.594 Y100.551 E2.86637
;WIDTH:0.507073
G1 X133.799 Y100.133 E2.89563
G1 X134.1 Y99.669 E2.93039
;WIDTH:0.493312
G1 X134.44 Y99.284 E2.96165
;WIDTH:0.457443
G1 X134.878 Y98.947 E2.9924
G1 X135.359 Y98.668 E3.02334
G1 X135.021 Y99.103 E3.05399
G1 X134.717 Y99.541 E3.08365
;WIDTH:0.4949
G1 X134.346 Y100.057 E3.12247
;WIDTH:0.498964
G1 X133.988 Y100.707 E3.16824
G1 X133.687 Y101.45 E3.21768
;WIDTH:0.496562
G1 X133.524 Y101.987 E3.2521
;WIDTH:0.537249
G1 X133.488 Y102.098 E3.25995
;WIDTH:0.577937
G1 X133.451 Y102.209 E3.26851
;WIDTH:0.618624
G1 X133.414 Y102.321 E3.27784
;WIDTH:0.659312
G1 X133.377 Y102.432 E3.28779
;WIDTH:0.7
G1 X133.341 Y102.543 E3.2984
G1 X133.313 Y102.871 E3.32833
G1 X133.332 Y103.565 E3.39146
G1 X133.401 Y104.13 E3.44322
G1 X133.575 Y105.237 E3.54511
G1 X133.613 Y105.751 E3.59198
G1 X133.581 Y106.344 E3.64598
G1 X133.416 Y106.924 E3.70081
G1 X133.171 Y107.445 E3.75316
G1 X132.53 Y108.362 E3.85489
G1 X132.197 Y108.739 E3.90063
G1 X131.766 Y109.175 E3.95638
G1 X131.638 Y108.897 E3.98421
G1 X131.816 Y108.507 E4.02319
G1 X131.892 Y108.117 E4.05932
G1 X131.882 Y107.816 E4.0867
G1 X131.745 Y107.349 E4.13095
G1 X131.662 Y107.208 E4.14583
G1 E2.14583 F2400
G92 E0
G1 X126.874 Y110.361 F30000
G1 E2 F2400
;TYPE:External perimeter
;WIDTH:0.465629
G1 F1800
G1 X126.885 Y109.642 E2.04086
G1 X126.125 Y111.081 F30000
;WIDTH:0.440871
G1 F1800
G1 X125.594 Y111.231 E2.07023
;WIDTH:0.477625
G1 X125.267 Y111.258 E2.08945
G1 E.08945 F2400
G92 E0
G1 X123.335 Y110.354 F30000
G1 E2 F2400
;WIDTH:0.415111
G1 F1800
G1 X123.345 Y109.644 E2.03513
G1 X122.621 Y111.081 F30000
;WIDTH:0.440869
G1 F1800
G1 X122.09 Y111.231 E2.0645
;WIDTH:0.477625
G1 X121.763 Y111.258 E2.08372
G1 E.08372 F2400
G92 E0
G1 X119.817 Y109.995 F30000
G1 E2 F2400
;WIDTH:0.422611
G1 F1800
G1 X119.819 Y109.965 E2.00152
;WIDTH:0.419999
G1 X119.819 Y108.937 E2.05311
G1 E.05311 F2400
G92 E0
G1 X116.132 Y109.783 F30000
G1 E2 F2400
;WIDTH:0.415111
G1 F1800
G1 X116.158 Y110.068 E2.01416
G1 E.01416 F2400
G92 E0
G1 X112.497 Y109.872 F30000
G1 E2 F2400
;WIDTH:0.513225
G1 F1800
G1 X112.476 Y110.15 E2.01777
;WIDTH:0.470644
G1 X112.455 Y110.428 E2.03382
;WIDTH:0.465153
G1 X112.473 Y111.185 E2.0768
;WIDTH:0.467825
G1 X112.475 Y111.209 E2.07818
G1 E.07818 F2400
G92 E0
G1 X110.451 Y109.841 F30000
G1 E2 F2400
;WIDTH:0.46033
G1 F1800
G1 X110.483 Y109.895 E2.00352
;WIDTH:0.505549
G1 X110.515 Y109.948 E2.0074
;WIDTH:0.550768
G1 X110.547 Y110.002 E2.01174
;WIDTH:0.595987
G1 X110.579 Y110.055 E2.01643
;WIDTH:0.641207
G1 X110.611 Y110.109 E2.0216
G1 X110.626 Y110.991 E2.09426
;WIDTH:0.615593
G1 X110.624 Y111.032 E2.09749
G1 E.09749 F2400
G92 E0
G1 X107.067 Y111 F30000
G1 E2 F2400
;WIDTH:0.415111
G1 F1800
G1 X107.072 Y110.422 E2.0286
G1 X107.622 Y110.132 E2.05936
;WIDTH:0.461344
G1 X107.926 Y110.083 E2.07667
;WIDTH:0.507577
G1 X108.23 Y110.034 E2.09605
;WIDTH:0.522295
G1 X108.693 Y110.027 E2.12618
G1 E.12618 F2400
G92 E0
G1 X105.261 Y110.027 F30000
G1 E2 F2400
G1 F1800
G1 X104.798 Y110.034 E2.03013
;WIDTH:0.507577
G1 X104.514 Y110.081 E2.04825
;WIDTH:0.461344
G1 X104.229 Y110.128 E2.06448
;WIDTH:0.415111
G1 X104.19 Y110.132 E2.06642
G1 E.06642 F2400
G92 E0
G1 X109.734 Y114.362 F30000
G1 E2 F2400
;TYPE:Perimeter
;WIDTH:0.594333
G1 F1800
G1 X108.885 Y114.425 E2.06432
;WIDTH:0.619383
G1 X108.568 Y114.448 E2.08949
;WIDTH:0.645019
G1 X108.25 Y114.471 E2.11593
;WIDTH:0.68053
G1 X108.03 Y114.478 E2.13532
;WIDTH:0.716042
G1 X107.81 Y114.484 E2.15585
;WIDTH:0.751554
G1 X107.591 Y114.491 E2.17742
;WIDTH:0.800323
G1 X107.419 Y114.492 E2.19557
;WIDTH:0.849093
G1 X107.247 Y114.493 E2.21494
;WIDTH:0.897863
G1 X107.076 Y114.494 E2.23541
G1 X106.823 Y114.551 E2.26646
;WIDTH:0.868962
G1 X106.571 Y114.608 E2.29631
;WIDTH:0.840062
G1 X106.068 Y114.707 E2.35337
;WIDTH:0.857665
G1 X105.574 Y114.808 E2.41079
G1 X105.457 Y114.857 E2.42523
;WIDTH:0.818248
G1 X105.34 Y114.906 E2.43895
;WIDTH:0.778832
G1 X105.223 Y114.954 E2.4519
;WIDTH:0.739416
G1 X105.106 Y115.003 E2.46416
;WIDTH:0.7
G1 X103.995 Y115.392 E2.5712
G1 X103.333 Y115.711 E2.63802
G1 X102.935 Y115.956 E2.68052
G1 X102.341 Y116.382 E2.74699
G1 X101.813 Y116.862 E2.81187
G1 X101.168 Y117.632 E2.9032
G1 X100.757 Y118.272 E2.97236
G1 X100.473 Y118.822 E3.02865
G1 X100.447 Y118.941 E3.03973
;WIDTH:0.655867
G1 X100.421 Y119.06 E3.05002
;WIDTH:0.611735
G1 X100.395 Y119.178 E3.05946
;WIDTH:0.567603
G1 X100.369 Y119.297 E3.06819
;WIDTH:0.523471
G1 X100.246 Y119.644 E3.09221
;WIDTH:0.49385
G1 X100.077 Y120.142 E3.12425
;WIDTH:0.502191
G1 X99.682 Y121.129 E3.19032
;WIDTH:0.503691
G1 X99.424 Y121.572 E3.22229
G1 X99.026 Y122.064 E3.26176
;WIDTH:0.46449
G1 X98.427 Y122.522 E3.30448
G1 X98.068 Y122.719 E3.32768
G1 X98.738 Y121.805 E3.39189
;WIDTH:0.503691
G1 X99.078 Y121.321 E3.42878
;WIDTH:0.505956
G1 X99.41 Y120.694 E3.47326
G1 X99.703 Y119.994 E3.52083
;WIDTH:0.498806
G1 X99.862 Y119.459 E3.55524
;WIDTH:0.539685
G1 X99.909 Y119.32 E3.56516
;WIDTH:0.580564
G1 X99.955 Y119.18 E3.576
;WIDTH:0.621443
G1 X100.001 Y119.041 E3.58764
;WIDTH:0.662323
G1 X100.047 Y118.901 E3.60023
;WIDTH:0.7
G1 X100.073 Y118.716 E3.61722
G1 X100.081 Y117.95 E3.68688
G1 X100.007 Y117.28 E3.74817
G1 X99.828 Y116.134 E3.85364
G1 X99.801 Y115.503 E3.91107
G1 X99.841 Y115.037 E3.9536
G1 X99.98 Y114.522 E4.0021
G1 X100.215 Y114.018 E4.05267
G1 X100.542 Y113.494 E4.10883
G1 X100.963 Y112.947 E4.17159
G1 X101.315 Y112.56 E4.21916
G1 X101.73 Y112.159 E4.27163
G1 X102.277 Y111.575 E4.34439
G1 X102.511 Y112.276 E4.41159
G1 X102.766 Y112.737 E4.45949
G1 X103.036 Y113.094 E4.50019
G1 X103.479 Y113.42 E4.5502
G1 X103.971 Y113.718 E4.6025
G1 X104.52 Y113.884 E4.65465
G1 X105.018 Y113.946 E4.70028
;WIDTH:0.739952
G1 X105.121 Y113.97 E4.71051
;WIDTH:0.779905
G1 X105.224 Y113.993 E4.72133
;WIDTH:0.819858
G1 X105.327 Y114.017 E4.73279
;WIDTH:0.859811
G1 X105.43 Y114.04 E4.74484
G1 X105.919 Y113.977 E4.80114
;WIDTH:0.840062
G1 X106.406 Y113.862 E4.85684
;WIDTH:0.868962
G1 X106.706 Y113.745 E4.89404
;WIDTH:0.897863
G1 X107.007 Y113.629 E4.93266
G1 X107.213 Y113.732 E4.96023
G1 X107.355 Y113.764 E4.97766
;WIDTH:0.849093
G1 X107.497 Y113.796 E4.99405
;WIDTH:0.800323
G1 X107.639 Y113.828 E5.00941
;WIDTH:0.751554
G1 X107.839 Y113.853 E5.02925
;WIDTH:0.716042
G1 X108.039 Y113.878 E5.04805
;WIDTH:0.68053
G1 X108.238 Y113.903 E5.06572
;WIDTH:0.645019
G1 X108.573 Y113.903 E5.0935
;WIDTH:0.619041
G1 X108.907 Y113.903 E5.11994
;WIDTH:0.594333
G1 X109.439 Y113.842 E5.1604
G1 X109.463 Y113.928 E5.16715
G1 X109.703 Y114.311 E5.2013
G1 E3.2013 F2400
G92 E0
G1 X115.359 Y114.217 F30000
G1 E2 F2400
;WIDTH:0.49286
G1 F1800
G1 X114.13 Y114.239 E2.07472
;WIDTH:0.498159
G1 X113.361 Y114.245 E2.12206
G1 X113.652 Y113.95 E2.14757
G1 X113.686 Y113.787 E2.15782
G1 X114.378 Y113.847 E2.20058
;WIDTH:0.49286
G1 X115.025 Y113.782 E2.24011
G1 X115.075 Y113.911 E2.24852
G1 X115.318 Y114.173 E2.27024
G1 E.27024 F2400
G92 E0
G1 X131.729 Y112.194 F30000
G1 E2 F2400
;WIDTH:0.7
G1 F1800
G1 X132.092 Y112.544 E2.04585
G1 X132.436 Y112.921 E2.09226
G1 X132.942 Y113.569 E2.16702
G1 X133.242 Y114.081 E2.22098
G1 X133.463 Y114.595 E2.27185
G1 X133.607 Y115.213 E2.32955
G1 X133.615 Y115.809 E2.38375
G1 X133.399 Y117.339 E2.52425
G1 X133.321 Y118.177 E2.60078
G1 X133.358 Y118.962 E2.67224
G1 X133.414 Y119.121 E2.68757
;WIDTH:0.656081
G1 X133.47 Y119.281 E2.7019
;WIDTH:0.612162
G1 X133.526 Y119.44 E2.71507
;WIDTH:0.568243
G1 X133.583 Y119.599 E2.72719
;WIDTH:0.524324
G1 X133.639 Y119.759 E2.73827
;WIDTH:0.488274
G1 X133.918 Y120.505 E2.78615
;WIDTH:0.511712
G1 X134.183 Y121.03 E2.82351
G1 X134.544 Y121.61 E2.86691
;WIDTH:0.474576
G1 X135.053 Y122.296 E2.91656
;WIDTH:0.442589
G1 X135.389 Y122.736 E2.94616
G1 X135.002 Y122.525 E2.96973
G1 X134.518 Y122.175 E3.00167
;WIDTH:0.468033
G1 X134.306 Y121.936 E3.01994
;WIDTH:0.493478
G1 X134.095 Y121.698 E3.0393
