; generated by PrusaSlicer 2.6.1+linux-x64-GTK3 on 2023-10-06 at 14:19:05 UTC

; 

; external perimeters extrusion width = 0.45mm
; perimeters extrusion width = 0.45mm
; infill extrusion width = 0.45mm
; solid infill extrusion width = 0.45mm
; top infill extrusion width = 0.40mm
; first layer extrusion width = 0.42mm

M190 S65 ; set bed temperature and wait for it to be reached
M104 S220 ; set temperature
;TYPE:Custom
G28 ; home all axes
G1 Z5 F5000 ; lift nozzle
M109 S220 ; set temperature and wait for it to be reached
G21 ; set units to millimeters
G90 ; use absolute coordinates
M82 ; use absolute distances for extrusion
G92 E0
; Filament gcode
M107
;LAYER_CHANGE
;Z:0.25
;HEIGHT:0.25
G1 Z.25 F30000
G1 E-.1 F2400
G92 E0
G1 X94.58 Y95.793 F30000
G1 E.1 F2400
;TYPE:Skirt/Brim
;WIDTH:0.42
G1 F3600
G1 X111.499 Y79.088 E1.00534
G1 X112.435 Y78.268 E1.05272
G1 X113.815 Y77.246 E1.11811
G1 X115.119 Y76.44 E1.17648
G1 X116.744 Y75.63 E1.24562
G1 X118.172 Y75.074 E1.30397
G1 X119.818 Y74.587 E1.36933
G1 X121.986 Y74.191 E1.45325
G1 X123.226 Y74.077 E1.50067
G1 X124.943 Y74.062 E1.56605
G1 X126.472 Y74.176 E1.62443
G1 X128.262 Y74.476 E1.69354
G1 X130.923 Y75.266 E1.79924
G1 X133.35 Y76.393 E1.90113
G1 X134.419 Y77.03 E1.94851
G1 X135.818 Y78.027 E2.01392
G1 X137.636 Y79.644 E2.10657
G1 X156.677 Y98.99 E3.14017
G1 X158.261 Y100.833 E3.2327
G1 X159.587 Y102.838 E3.32423
G1 X160.526 Y104.723 E3.40442
G1 X161.326 Y106.972 E3.49531
G1 X161.878 Y109.59 E3.59719
G1 X162.049 Y112.361 E3.7029
G1 X161.865 Y114.741 E3.7938
G1 X161.431 Y116.902 E3.87773
G1 X160.564 Y119.433 E3.9796
G1 X160.042 Y120.563 E4.027
G1 X159.197 Y122.058 E4.09239
G1 X157.939 Y123.833 E4.17523
G1 X156.815 Y125.11 E4.24001
G1 X136.949 Y144.628 E5.30046
G1 X135.644 Y145.741 E5.36577
G1 X134.634 Y146.469 E5.41318
G1 X132.315 Y147.803 E5.51505
G1 X130.277 Y148.641 E5.59896
G1 X127.975 Y149.277 E5.6899
G1 X102.226 Y154.646 E6.69145
G1 X100.841 Y154.866 E6.74485
G1 X98.458 Y155.009 E6.83575
G1 X96.356 Y154.88 E6.91594
G1 X94.007 Y154.448 E7.00688
G1 X91.464 Y153.618 E7.10874
G1 X88.979 Y152.38 E7.21446
G1 X87.01 Y151.03 E7.30536
G1 X85.024 Y149.237 E7.40724
G1 X83.598 Y147.558 E7.49112
G1 X82.306 Y145.606 E7.58025
G1 X81.099 Y143.084 E7.68671
G1 X80.302 Y140.501 E7.78964
G1 X79.913 Y138.165 E7.87981
G1 X79.823 Y136.616 E7.93889
G1 X79.866 Y134.946 E8.0025
G1 X80.004 Y133.661 E8.05171
G1 X80.278 Y132.153 E8.11007
G1 X86.59 Y107.282 E9.08712
G1 X87.441 Y104.817 E9.18642
G1 X88.18 Y103.268 E9.25177
G1 X89.328 Y101.405 E9.3351
G1 X90.065 Y100.416 E9.38207
G1 X91.188 Y99.142 E9.44674
G1 X94.537 Y95.835 E9.62596
G1 X94.794 Y96.096 F30000
G1 F3600
G1 X111.755 Y79.35 E10.53354
G1 X112.672 Y78.547 E10.57995
G1 X114.012 Y77.555 E10.64343
G1 X115.292 Y76.763 E10.70074
G1 X116.897 Y75.963 E10.76903
G1 X118.3 Y75.417 E10.82636
G1 X119.463 Y75.057 E10.87272
G1 X121.091 Y74.695 E10.93622
G1 X123.253 Y74.443 E11.0191
G1 X124.921 Y74.427 E11.08262
G1 X126.422 Y74.539 E11.13993
G1 X128.191 Y74.835 E11.20823
G1 X130.8 Y75.611 E11.31188
G1 X133.18 Y76.718 E11.41183
G1 X134.602 Y77.59 E11.47535
G1 X135.585 Y78.309 E11.52172
G1 X137.375 Y79.901 E11.61294
G1 X156.416 Y99.247 E12.64654
G1 X157.975 Y101.061 E12.73762
G1 X159.272 Y103.025 E12.82724
G1 X160.187 Y104.861 E12.90535
G1 X160.971 Y107.064 E12.99439
G1 X161.515 Y109.633 E13.09438
G1 X161.683 Y112.35 E13.19803
G1 X161.504 Y114.681 E13.28705
G1 X161.075 Y116.815 E13.36993
G1 X160.223 Y119.299 E13.46992
G1 X159.712 Y120.404 E13.51628
G1 X158.892 Y121.856 E13.57978
G1 X157.65 Y123.609 E13.66159
G1 X156.558 Y124.849 E13.72451
G1 X136.692 Y144.366 E14.78494
G1 X135.425 Y145.448 E14.84838
G1 X134.437 Y146.16 E14.89475
G1 X132.162 Y147.471 E14.99473
G1 X130.149 Y148.298 E15.0776
G1 X127.894 Y148.919 E15.16666
G1 X102.151 Y154.288 E16.16798
G1 X100.787 Y154.503 E16.22056
G1 X98.453 Y154.642 E16.30959
G1 X96.405 Y154.517 E16.38772
G1 X94.105 Y154.095 E16.47676
G1 X91.609 Y153.281 E16.57673
G1 X89.172 Y152.069 E16.68037
G1 X87.243 Y150.747 E16.76942
G1 X85.293 Y148.989 E16.86939
G1 X83.56 Y146.89 E16.97304
G1 X82.356 Y144.936 E17.06043
G1 X81.286 Y142.541 E17.16031
G1 X80.897 Y141.339 E17.20842
G1 X80.54 Y139.876 E17.26576
G1 X80.231 Y137.558 E17.3548
G1 X80.231 Y134.979 E17.453
G1 X80.365 Y133.722 E17.50113
G1 X80.634 Y132.24 E17.55848
G1 X86.945 Y107.372 E18.53541
G1 X87.781 Y104.951 E18.63294
G1 X88.5 Y103.447 E18.69642
G1 X89.634 Y101.607 E18.77872
G1 X90.355 Y100.641 E18.82462
G1 X91.445 Y99.403 E18.88743
G1 X94.752 Y96.138 E19.06438
G1 E18.96438 F2400
G92 E0
G1 X115.599 Y98.076 F30000
G1 E.1 F2400
;TYPE:Perimeter
;WIDTH:0.419999
G1 F3600
G1 X115.679 Y97.94 E.10601
G1 X115.676 Y97.792 E.11165
G1 X115.625 Y97.633 E.11801
G1 X115.193 Y96.768 E.15483
G1 X115.038 Y96.579 E.16414
G1 X114.598 Y96.474 E.18136
G1 X114.541 Y96.49 E.18361
G1 X114.495 Y96.364 E.18872
G1 X114.548 Y96.341 E.19092
G1 X114.811 Y95.973 E.20814
G1 X114.804 Y95.729 E.21743
G1 X114.668 Y95.2 E.23823
;WIDTH:0.457227
G1 X114.625 Y95.001 E.24677
;WIDTH:0.494455
G1 X114.582 Y94.801 E.25614
;WIDTH:0.531683
G1 X114.54 Y94.601 E.26629
;WIDTH:0.547095
G1 X114.457 Y94.488 E.27348
;WIDTH:0.562778
G1 X114.265 Y94.354 E.28587
G1 X114.041 Y94.308 E.29797
G1 X114.242 Y94.198 E.3101
G1 X114.352 Y94.081 E.3186
G1 X114.368 Y93.952 E.32548
;WIDTH:0.516896
G1 X114.384 Y93.822 E.33179
;WIDTH:0.471014
G1 X114.4 Y93.693 E.33743
;WIDTH:0.447112
G1 X114.367 Y92.726 E.377
;WIDTH:0.482933
G1 X114.334 Y92.599 E.38285
;WIDTH:0.518753
G1 X114.301 Y92.472 E.38919
;WIDTH:0.554573
G1 X114.268 Y92.344 E.39607
G1 X114.149 Y92.24 E.4043
G1 X113.947 Y92.147 E.41588
G1 X114.16 Y92.08 E.42751
G1 X114.29 Y91.991 E.43571
G1 X114.335 Y91.861 E.44287
;WIDTH:0.508495
G1 X114.381 Y91.731 E.44939
;WIDTH:0.462417
G1 X114.426 Y91.601 E.45523
;WIDTH:0.419999
G1 X114.589 Y90.528 E.49656
G1 X114.536 Y90.334 E.50422
G1 X114.219 Y90.058 E.52022
G1 X114.255 Y89.928 E.52536
G1 X114.668 Y89.853 E.54134
G1 X114.782 Y89.752 E.54714
G1 X114.877 Y89.596 E.55409
G1 X115.256 Y88.628 E.59367
G1 X115.258 Y88.37 E.60349
G1 X115.004 Y88.026 E.61977
G1 X115.066 Y87.906 E.62491
G1 X115.494 Y87.918 E.64121
G1 X115.625 Y87.843 E.64696
G1 X115.748 Y87.711 E.65383
G1 X116.281 Y86.904 E.69066
G1 X116.371 Y86.629 E.70168
G1 X116.195 Y86.202 E.71927
G1 X116.281 Y86.097 E.72444
G1 X116.734 Y86.189 E.74204
G1 X116.987 Y86.048 E.75307
G1 X117.677 Y85.371 E.78988
G1 X117.811 Y85.159 E.79943
G1 X117.772 Y84.712 E.81652
G1 X117.739 Y84.664 E.81874
G1 X117.844 Y84.58 E.82386
G1 X117.883 Y84.624 E.8261
G1 X118.31 Y84.761 E.84318
G1 X118.546 Y84.678 E.85271
G1 X119.381 Y84.143 E.89047
G1 X119.566 Y83.92 E.9015
G1 X119.568 Y83.482 E.91818
G1 X119.689 Y83.422 E.92332
G1 X120.04 Y83.685 E.94002
G1 X120.188 Y83.699 E.94568
G1 X120.355 Y83.665 E.95217
G1 X121.261 Y83.326 E.989
G1 X121.504 Y83.146 E1.00051
G1 X121.604 Y82.706 E1.01769
G1 X121.736 Y82.672 E1.02288
G1 X122.038 Y83.006 E1.04003
G1 X122.334 Y83.045 E1.0514
G1 X123.291 Y82.904 E1.08823
G1 X123.562 Y82.783 E1.09953
G1 X123.757 Y82.37 E1.11692
G1 X123.892 Y82.364 E1.12207
G1 X124.121 Y82.759 E1.13946
G1 X124.402 Y82.856 E1.15078
G1 X125.367 Y82.915 E1.18759
G1 X125.658 Y82.851 E1.19894
G1 X125.932 Y82.489 E1.21623
G1 X126.066 Y82.511 E1.2214
G1 X126.207 Y82.943 E1.2387
G1 X126.461 Y83.098 E1.25003
G1 X127.417 Y83.363 E1.2878
G1 X127.702 Y83.353 E1.29866
G1 X128.036 Y83.057 E1.31565
G1 X128.161 Y83.107 E1.32078
G1 X128.205 Y83.55 E1.33773
G1 X128.295 Y83.667 E1.34335
G1 X128.428 Y83.763 E1.3496
G1 X129.313 Y84.221 E1.38754
G1 X129.607 Y84.266 E1.39887
G1 X129.974 Y84.051 E1.41507
G1 X130.087 Y84.125 E1.42021
G1 X130.03 Y84.548 E1.43646
G1 X130.091 Y84.687 E1.44224
G1 X130.21 Y84.823 E1.44912
G1 X130.956 Y85.438 E1.48593
G1 X131.204 Y85.555 E1.49637
G1 X131.621 Y85.464 E1.51262
G1 X131.665 Y85.426 E1.51483
G1 X131.76 Y85.522 E1.51997
G1 X131.721 Y85.565 E1.52218
G1 X131.626 Y85.981 E1.53843
G1 X131.736 Y86.227 E1.54869
G1 X132.379 Y87.034 E1.58798
G1 X132.591 Y87.165 E1.59747
G1 X133.032 Y87.122 E1.61434
G1 X133.104 Y87.236 E1.61947
G1 X132.879 Y87.617 E1.63632
G1 X132.882 Y87.765 E1.64196
G1 X132.933 Y87.924 E1.64832
G1 X133.365 Y88.789 E1.68514
G1 X133.52 Y88.978 E1.69445
G1 X133.962 Y89.083 E1.71175
G1 X134.017 Y89.065 E1.71395
G1 X134.064 Y89.192 E1.71911
G1 X134.011 Y89.215 E1.72131
G1 X133.747 Y89.584 E1.73859
G1 X133.754 Y89.828 E1.74788
G1 X133.89 Y90.356 E1.76864
;WIDTH:0.464224
G1 X133.93 Y90.558 E1.77743
;WIDTH:0.508449
G1 X133.97 Y90.76 E1.78716
;WIDTH:0.552674
G1 X134.01 Y90.961 E1.79779
G1 X134.101 Y91.068 E1.80508
;WIDTH:0.562779
G1 X134.293 Y91.202 E1.81747
G1 X134.517 Y91.248 E1.82957
G1 X134.316 Y91.358 E1.8417
G1 X134.206 Y91.475 E1.8502
G1 X134.19 Y91.605 E1.85713
;WIDTH:0.516897
G1 X134.174 Y91.734 E1.86339
;WIDTH:0.471014
G1 X134.158 Y91.864 E1.86907
;WIDTH:0.447112
G1 X134.191 Y92.831 E1.90864
;WIDTH:0.482933
G1 X134.224 Y92.958 E1.91449
;WIDTH:0.518753
G1 X134.257 Y93.085 E1.92083
;WIDTH:0.554573
G1 X134.29 Y93.212 E1.92766
G1 X134.409 Y93.317 E1.93592
G1 X134.611 Y93.41 E1.9475
G1 X134.398 Y93.477 E1.95913
G1 X134.267 Y93.565 E1.96735
G1 X134.228 Y93.664 E1.97289
;WIDTH:0.511399
G1 X134.189 Y93.763 E1.97795
;WIDTH:0.468224
G1 X134.149 Y93.861 E1.98251
;WIDTH:0.425049
G1 X134.109 Y94.08 E1.9911
;WIDTH:0.421861
G1 X133.969 Y95.029 E2.02781
;WIDTH:0.419999
G1 X134.022 Y95.223 E2.03547
G1 X134.339 Y95.498 E2.05145
G1 X134.303 Y95.629 E2.05662
G1 X133.89 Y95.704 E2.0726
G1 X133.776 Y95.804 E2.07837
G1 X133.681 Y95.961 E2.08536
G1 X133.302 Y96.929 E2.12494
G1 X133.3 Y97.187 E2.13476
G1 X133.554 Y97.53 E2.15101
G1 X133.492 Y97.65 E2.15615
G1 X133.064 Y97.638 E2.17245
G1 X132.933 Y97.714 E2.17822
G1 X132.81 Y97.846 E2.18509
G1 X132.277 Y98.653 E2.22192
G1 X132.187 Y98.927 E2.2329
G1 X132.363 Y99.355 E2.25052
G1 X132.277 Y99.459 E2.25566
G1 X131.824 Y99.367 E2.27326
G1 X131.571 Y99.508 E2.28429
G1 X130.881 Y100.186 E2.32112
G1 X130.747 Y100.398 E2.33067
G1 X130.786 Y100.845 E2.34776
G1 X130.819 Y100.892 E2.34995
G1 X130.714 Y100.976 E2.35507
G1 X130.675 Y100.933 E2.35728
G1 X130.248 Y100.795 E2.37437
G1 X130.012 Y100.879 E2.38391
G1 X129.177 Y101.413 E2.42165
G1 X128.992 Y101.636 E2.43268
G1 X128.99 Y102.074 E2.44936
G1 X128.869 Y102.135 E2.45452
G1 X128.518 Y101.871 E2.47124
G1 X128.37 Y101.858 E2.4769
G1 X128.203 Y101.892 E2.48339
G1 X127.297 Y102.231 E2.52022
G1 X127.054 Y102.411 E2.53173
G1 X126.954 Y102.851 E2.54891
G1 X126.822 Y102.885 E2.5541
G1 X126.52 Y102.55 E2.57127
G1 X126.224 Y102.512 E2.58263
G1 X125.267 Y102.652 E2.61946
G1 X124.996 Y102.774 E2.63078
G1 X124.801 Y103.187 E2.64817
G1 X124.666 Y103.193 E2.65332
G1 X124.437 Y102.798 E2.67071
G1 X124.156 Y102.7 E2.68204
G1 X123.191 Y102.642 E2.71885
G1 X122.9 Y102.705 E2.73019
G1 X122.626 Y103.068 E2.74751
G1 X122.492 Y103.046 E2.75268
G1 X122.351 Y102.614 E2.76998
G1 X122.097 Y102.459 E2.78131
G1 X121.141 Y102.193 E2.81909
G1 X120.856 Y102.204 E2.82995
G1 X120.522 Y102.499 E2.84692
G1 X120.397 Y102.45 E2.85203
G1 X120.353 Y102.007 E2.86898
G1 X120.263 Y101.89 E2.8746
G1 X120.13 Y101.793 E2.88087
G1 X119.245 Y101.335 E2.91881
G1 X118.951 Y101.291 E2.93013
G1 X118.584 Y101.506 E2.94633
G1 X118.471 Y101.431 E2.95149
G1 X118.528 Y101.009 E2.9677
G1 X118.467 Y100.87 E2.97348
G1 X118.348 Y100.733 E2.98039
G1 X117.602 Y100.118 E3.0172
G1 X117.354 Y100.002 E3.02763
G1 X116.937 Y100.092 E3.04387
G1 X116.893 Y100.131 E3.04611
G1 X116.798 Y100.034 E3.05128
G1 X116.837 Y99.992 E3.05346
G1 X116.932 Y99.576 E3.06971
G1 X116.822 Y99.33 E3.07997
G1 X116.179 Y98.523 E3.11926
G1 X115.967 Y98.391 E3.12877
G1 X115.526 Y98.435 E3.14565
G1 X115.454 Y98.321 E3.15078
G1 X115.568 Y98.127 E3.15935
G1 X115.338 Y98.81 F30000
;TYPE:External perimeter
G1 F3600
G1 X114.949 Y98.19 E3.18722
G1 X115.222 Y98.039 E3.1991
G1 X115.315 Y97.899 E3.2055
G1 X115.185 Y97.572 E3.2189
G1 X114.844 Y96.899 E3.24763
G1 X114.667 Y96.833 E3.25482
G1 X114.342 Y96.972 E3.26828
G1 X114.029 Y96.132 E3.30241
G1 X114.326 Y96.041 E3.31424
G1 X114.452 Y95.901 E3.32141
G1 X114.45 Y95.82 E3.3245
G1 X114.179 Y94.822 E3.36388
G1 X114.034 Y94.746 E3.37011
G1 X113.687 Y94.815 E3.38358
G1 X113.555 Y93.927 E3.41776
G1 X113.865 Y93.9 E3.42961
G1 X113.964 Y93.86 E3.43368
G1 X114.032 Y93.709 E3.43999
G1 X113.988 Y92.743 E3.47681
G1 X113.942 Y92.631 E3.48142
G1 X113.846 Y92.573 E3.48569
G1 X113.495 Y92.568 E3.49906
G1 X113.55 Y91.673 E3.5332
G1 X113.86 Y91.711 E3.54509
G1 X114.004 Y91.666 E3.55083
G1 X114.066 Y91.541 E3.55614
G1 X114.224 Y90.559 E3.59401
G1 X114.119 Y90.409 E3.60098
G1 X113.775 Y90.331 E3.61441
G1 X114.015 Y89.466 E3.64859
G1 X114.307 Y89.567 E3.66035
G1 X114.467 Y89.547 E3.66649
G1 X114.536 Y89.461 E3.67069
G1 X114.906 Y88.503 E3.70979
G1 X114.833 Y88.348 E3.71631
G1 X114.513 Y88.2 E3.72973
G1 X114.928 Y87.404 E3.76391
G1 X115.195 Y87.565 E3.77578
G1 X115.357 Y87.578 E3.78197
G1 X115.442 Y87.509 E3.78614
G1 X115.997 Y86.657 E3.82486
G1 X115.961 Y86.481 E3.8317
G1 X115.678 Y86.27 E3.84514
G1 X116.249 Y85.578 E3.8793
G1 X116.51 Y85.815 E3.89272
G1 X116.69 Y85.816 E3.89957
G1 X117.063 Y85.46 E3.9192
G1 X117.446 Y85.078 E3.9398
G1 X117.452 Y84.89 E3.94696
G1 X117.219 Y84.624 E3.96042
G1 X117.922 Y84.065 E3.99462
G1 X118.1 Y84.32 E4.00646
G1 X118.27 Y84.397 E4.01357
G1 X118.349 Y84.369 E4.01676
G1 X119.206 Y83.811 E4.0557
G1 X119.24 Y83.641 E4.0623
G1 X119.069 Y83.335 E4.07565
G1 X119.872 Y82.934 E4.10983
G1 X119.994 Y83.221 E4.1217
G1 X120.122 Y83.328 E4.12805
G1 X120.227 Y83.321 E4.13206
G1 X121.179 Y82.957 E4.17087
G1 X121.251 Y82.795 E4.17762
G1 X121.146 Y82.458 E4.19106
G1 X121.446 Y82.37 E4.20296
G1 X122.015 Y82.233 E4.22525
G1 X122.074 Y82.536 E4.237
G1 X122.182 Y82.67 E4.24355
G1 X122.281 Y82.682 E4.24735
G1 X123.287 Y82.527 E4.28611
G1 X123.393 Y82.383 E4.29292
G1 X123.361 Y82.032 E4.30634
G1 X124.257 Y81.993 E4.34049
G1 X124.252 Y82.305 E4.35237
G1 X124.33 Y82.458 E4.35891
G1 X124.424 Y82.491 E4.3627
G1 X125.441 Y82.545 E4.40148
G1 X125.574 Y82.426 E4.40828
G1 X125.615 Y82.076 E4.4217
G1 X125.923 Y82.118 E4.43354
G1 X126.5 Y82.224 E4.45588
G1 X126.43 Y82.527 E4.46772
G1 X126.475 Y82.693 E4.47427
G1 X126.559 Y82.745 E4.47803
G1 X127.546 Y83.011 E4.51695
G1 X127.697 Y82.922 E4.52362
G1 X127.811 Y82.587 E4.53709
G1 X128.646 Y82.916 E4.57126
G1 X128.515 Y83.198 E4.5831
G1 X128.522 Y83.367 E4.58954
G1 X128.596 Y83.438 E4.59344
G1 X129.511 Y83.902 E4.6325
G1 X129.673 Y83.846 E4.63903
G1 X129.853 Y83.545 E4.65238
G1 X130.115 Y83.707 E4.66411
G1 X130.601 Y84.04 E4.68654
G1 X130.413 Y84.289 E4.69842
G1 X130.383 Y84.449 E4.70462
G1 X130.443 Y84.541 E4.7088
G1 X131.228 Y85.18 E4.74734
G1 X131.411 Y85.164 E4.75433
G1 X131.651 Y84.905 E4.76778
G1 X132.28 Y85.545 E4.80195
G1 X132.047 Y85.748 E4.81372
G1 X131.986 Y85.918 E4.8206
G1 X132.023 Y86 E4.82403
G1 X132.664 Y86.796 E4.86295
G1 X132.839 Y86.813 E4.86964
G1 X133.126 Y86.61 E4.88303
G1 X133.302 Y86.867 E4.89489
G1 X133.609 Y87.367 E4.91723
G1 X133.336 Y87.518 E4.92911
G1 X133.243 Y87.658 E4.93551
G1 X133.373 Y87.984 E4.94887
G1 X133.714 Y88.657 E4.9776
G1 X133.892 Y88.723 E4.98483
G1 X134.216 Y88.584 E4.99825
G1 X134.53 Y89.425 E5.03243
G1 X134.232 Y89.516 E5.04429
G1 X134.106 Y89.655 E5.05143
G1 X134.108 Y89.737 E5.05455
G1 X134.245 Y90.265 E5.07532
G1 X134.4 Y90.759 E5.09503
G1 X134.524 Y90.811 E5.10015
G1 X134.87 Y90.742 E5.11358
G1 X134.926 Y91.049 E5.12546
G1 X135.003 Y91.629 E5.14774
G1 X134.693 Y91.656 E5.15959
G1 X134.593 Y91.697 E5.16371
G1 X134.526 Y91.847 E5.16997
G1 X134.57 Y92.813 E5.20679
G1 X134.616 Y92.926 E5.21144
G1 X134.711 Y92.983 E5.21566
G1 X135.062 Y92.988 E5.22903
G1 X135.008 Y93.884 E5.26321
G1 X134.698 Y93.846 E5.2751
G1 X134.593 Y93.864 E5.27916
G1 X134.501 Y93.973 E5.28459
G1 X134.334 Y94.997 E5.3241
G1 X134.439 Y95.148 E5.3311
G1 X134.783 Y95.226 E5.34453
G1 X134.543 Y96.091 E5.37871
G1 X134.251 Y95.99 E5.39047
G1 X134.091 Y96.01 E5.39661
G1 X134.022 Y96.096 E5.40081
G1 X133.652 Y97.054 E5.43991
G1 X133.725 Y97.209 E5.44643
G1 X134.045 Y97.356 E5.45984
G1 X133.63 Y98.152 E5.49402
G1 X133.363 Y97.992 E5.50587
G1 X133.201 Y97.979 E5.51206
G1 X133.116 Y98.048 E5.51623
