; generated by PrusaSlicer 2.6.1+linux-x64-GTK3 on 2023-10-24 at 13:40:53 UTC

; 

; external perimeters extrusion width = 0.45mm
; perimeters extrusion width = 0.45mm
; infill extrusion width = 0.45mm
; solid infill extrusion width = 0.45mm
; top infill extrusion width = 0.40mm
; support material extrusion width = 0.40mm
; first layer extrusion width = 0.70mm

; external perimeters extrusion width = 0.45mm
; perimeters extrusion width = 0.45mm
; infill extrusion width = 0.45mm
; solid infill extrusion width = 0.45mm
; top infill extrusion width = 0.40mm
; support material extrusion width = 0.40mm
; first layer extrusion width = 0.70mm

;TYPE:Custom
; M190 R30 ; Because of probe temperature drift,
; M109 R30 ; Let the beds and hotend cool down before homing the axis

G28 ; home all axes
G1 Z100.0 F3000 ; Raise head above brush
M190 S65 ; set bed temperature and wait for it to be reached
M109 S230 ; set hot end temp and wait for it

; Brush any crap off the nozzle
G1 X232.0 Y0.0 F3000 ; Goto Start of movement
G1 Z19.0 F3000 ; Lower into brush
G1 X221.0 Y2.0 F3000 ; Goto Start of movement
G1 X229.0 Y4.0 F3000 ; 
G1 X221.0 Y6.0 F3000 ; 
G1 X229.0 Y8.0 F3000 ; 
G1 X221.0 Y10.0 F3000 ;
G1 X229.0 Y12.0 F3000 ;
G1 X221.0 Y14.0 F3000 ;
G1 X229.0 Y16.0 F3000 ;
G1 X221.0 Y18.0 F3000 ;
G1 X229.0 Y20.0 F3000 ;
G1 X221.0 Y22.0 F3000 ;
G1 X229.0 Y24.0 F3000 ;
G1 X221.0 Y26.0 F3000 ;
G1 X229.0 Y28.0 F3000 ;
G1 X221.0 Y30.0 F3000 ;
G1 X229.0 Y28.0 F3000 ;
G1 X221.0 Y26.0 F3000 ;
G1 X229.0 Y24.0 F3000 ;
G1 X221.0 Y22.0 F3000 ;
G1 X229.0 Y20.0 F3000 ;
G1 X221.0 Y18.0 F3000 ;
G1 X229.0 Y16.0 F3000 ;
G1 X221.0 Y14.0 F3000 ;
G1 X229.0 Y12.0 F3000 ;
G1 X221.0 Y10.0 F3000 ;
G1 X229.0 Y8.0 F3000 ; 
G1 X221.0 Y6.0 F3000 ; 
G1 X229.0 Y4.0 F3000 ; 
G1 X221.0 Y2.0 F3000 ; 
G1 X229.0 Y0.0 F3000 ; 
G1 X225.0 Y0.0 F3000 ; 
G1 X225.0 Y30.0 F5000 ; 
G1 X225.0 Y0.0 F5000 ; 
G1 X225.0 Y30.0 F5000 ; 
G1 X225.0 Y0.0 F5000 ; 
G1 X225.0 Y30.0 F5000 ; 

; Do a purge line to prime the extruder
G92 E0 ;Reset Extruder
G1 X227.0 Y80.0 F5000 ; Goto Start of purge
G1 Z0.28 F5000 ;Move Head to start height
G1 X227.0 Y230.0 Z0.28 F1500.0 E15; Draw first line
G1 X226.7 Y230.0 Z0.28 F5000.0 ;Move to side a little
G1 X226.7 Y80.0 Z0.28 F1500.0 E30; Draw the second line
G1 Z0.4 F5000; Move Z Axis Up
G1 Y120 F1500; Wipe to the back
G1 X117.5 Y117.5 Z27.0 F5000 ; Raise head above brush
G92 E0 ;Reset Extruder
G21 ; set units to millimeters
G90 ; use absolute coordinates
M82 ; use absolute distances for extrusion
G92 E0
; Filament gcode
SET_PRESSURE_ADVANCE ADVANCE=0.063
M107
;LAYER_CHANGE
;Z:0.35
;HEIGHT:0.35
G1 Z.35 F30000
G1 E-.1 F2400
G92 E0
G1 X109.903 Y117.863 F30000
G1 E.1 F2400
;TYPE:Support material
;WIDTH:0.7
G1 F1800
G1 X109.501 Y118.855 E.19733
G1 X109.282 Y119.643 E.2717
G1 X109.13 Y120.542 E.35461
G1 X109.075 Y121.476 E.43969
G1 X109.075 Y123.075 E.58509
G1 X102.152 Y123.075 E1.2146
G1 X101.509 Y123.341 E1.27787
G1 X100.841 Y124.009 E1.36377
G1 X100.575 Y124.652 E1.42704
G1 X100.575 Y129.725 E1.88833
G1 X101.6 Y130.75 E2.02014
G1 X102.103 Y130.75 E2.06588
G1 X100.985 Y131.869 E2.20971
G1 X98.177 Y129.061 E2.5708
G1 X99.828 Y127.409 E2.78317
G1 X98.177 Y125.758 E2.99548
G1 X102.636 Y121.298 E3.56894
G1 X104.288 Y122.95 E3.78138
G1 X109.584 Y117.653 E4.46248
G1 X109.825 Y117.812 E4.48873
G1 E4.38873 F2400
G92 E0
G1 X100.6 Y131.086 F30000
G1 E.1 F2400
G1 F1800
G1 X100.87 Y130.816 E.13472
G1 X100.318 Y130.263 E.20577
G1 X100.246 Y130.335 E.21503
G1 X99.694 Y129.783 E.28601
G1 X100.013 Y129.464 E.32703
G1 X100.013 Y128.359 E.42751
G1 X98.943 Y129.429 E.56511
G1 X99.49 Y126.673 F30000
G1 F1800
G1 X100.013 Y126.15 E.63236
G1 X100.013 Y125.045 E.73284
G1 X98.937 Y126.121 E.87121
G1 X102.264 Y122.794 F30000
G1 F1800
G1 X102.999 Y122.059 E.96573
G1 E.86573 F2400
G92 E0
G1 X107.788 Y122.794 F30000
G1 E.1 F2400
G1 F1800
G1 X108.513 Y122.069 E.19323
G1 X108.513 Y121.469 E.24779
G1 X108.54 Y120.937 E.29623
G1 X106.964 Y122.513 E.49889
G1 X105.859 Y122.513 E.59937
G1 X109.091 Y119.281 E1.01499
G1 E.91499 F2400
G92 E0
G1 X123.611 Y109.242 F30000
G1 E.1 F2400
G1 F1800
G1 X121.959 Y110.894 E.31244
G1 X123.611 Y112.545 E.52481
G1 X121.856 Y114.3 E.75049
G1 X121.404 Y114.034 E.79818
G1 X120.662 Y113.691 E.87251
G1 X119.8 Y113.395 E.95538
G1 X118.91 Y113.194 E1.03835
G1 X117.909 Y113.085 E1.12991
G1 X117.091 Y113.085 E1.20429
G1 X116.184 Y113.178 E1.2872
G1 X115.292 Y113.369 E1.37015
G1 X114.338 Y113.691 E1.4617
G1 X113.596 Y114.034 E1.53603
G1 X113.144 Y114.3 E1.58372
G1 X111.389 Y112.545 E1.8094
G1 X113.041 Y110.894 E2.02177
G1 X111.389 Y109.242 E2.23421
G1 X117.5 Y103.131 E3.02005
G1 X123.545 Y109.176 E3.7974
G1 E3.6974 F2400
G92 E0
G1 X121.316 Y113.684 F30000
G1 E.1 F2400
G1 F1800
G1 X122.635 Y112.365 E.26962
G1 X122.083 Y111.813 E.3406
G1 X120.768 Y113.128 E.5097
G1 X119.94 Y112.85 E.58912
G1 X121.53 Y111.26 E.79358
G1 X121.164 Y110.894 E.84065
G1 X122.816 Y109.242 E1.05309
G1 X122.63 Y109.056 E1.07701
G1 X119.04 Y112.646 E1.53866
G1 X118.052 Y112.529 E1.62913
G1 X122.077 Y108.504 E2.14672
G1 X121.525 Y107.952 E2.2177
G1 X116.947 Y112.53 E2.8064
G1 X116.108 Y112.621 E2.88314
G1 X115.659 Y112.713 E2.92482
G1 X120.973 Y107.399 E3.60817
G1 X120.42 Y106.847 E3.67922
G1 X114.074 Y113.193 E4.49528
G1 X113.23 Y113.592 E4.58017
G1 X112.901 Y113.262 E4.62254
G1 X119.868 Y106.295 E5.51845
G1 X119.316 Y105.742 E5.5895
G1 X112.349 Y112.71 E6.48548
G1 X112.184 Y112.545 E6.5067
G1 X113.836 Y110.894 E6.71907
G1 X113.448 Y110.506 E6.76896
G1 X118.763 Y105.19 E7.4525
G1 X118.211 Y104.638 E7.52348
G1 X112.895 Y109.953 E8.20702
G1 X112.343 Y109.401 E8.278
G1 X117.858 Y103.887 E8.98713
G1 E8.88713 F2400
G92 E0
G1 X128.813 Y121.051 F30000
G1 E.1 F2400
G1 F1800
G1 X130.712 Y122.95 E.3442
G1 X132.364 Y121.298 E.55664
G1 X136.823 Y125.758 E1.1301
G1 X135.172 Y127.409 E1.34241
G1 X136.823 Y129.061 E1.55478
G1 X134.015 Y131.869 E1.91587
G1 X132.897 Y130.75 E2.0597
G1 X133.4 Y130.75 E2.10544
G1 X134.425 Y129.725 E2.23725
G1 X134.425 Y124.652 E2.69854
G1 X134.159 Y124.009 E2.76181
G1 X133.491 Y123.341 E2.84771
G1 X132.848 Y123.075 E2.91098
G1 X125.925 Y123.075 E3.54049
G1 X125.925 Y121.476 E3.68589
G1 X125.87 Y120.542 E3.77097
G1 X125.718 Y119.643 E3.85388
G1 X125.499 Y118.855 E3.92825
G1 X125.097 Y117.863 E4.02558
G1 X125.416 Y117.653 E4.06031
G1 X128.747 Y120.984 E4.48866
G1 E4.38866 F2400
G92 E0
G1 X133.685 Y131.141 F30000
G1 E.1 F2400
G1 F1800
G1 X135.896 Y128.929 E.38439
G1 X135.344 Y128.377 E.45537
G1 X134.706 Y129.015 E.53741
G1 X134.706 Y126.806 F30000
G1 F1800
G1 X135.891 Y125.621 E.68979
G1 X135.339 Y125.068 E.76084
G1 X134.706 Y125.701 E.84224
G1 E.74224 F2400
G92 E0
G1 X132.09 Y122.794 F30000
G1 E.1 F2400
G1 F1800
G1 X132.776 Y122.108 E.18822
G1 X128.776 Y122.794 F30000
G1 F1800
G1 X129.269 Y122.301 E.25162
G1 X128.716 Y121.749 E.32267
G1 X127.953 Y122.513 E.42085
G1 X126.848 Y122.513 E.52133
G1 X128.164 Y121.197 E.69056
G1 X127.612 Y120.644 E.76161
G1 X126.487 Y121.768 E.90621
G1 X126.448 Y120.704 E1.00302
G1 X127.059 Y120.092 E1.08166
G1 X126.507 Y119.54 E1.15264
G1 X126.064 Y119.983 E1.20961
G1 E1.10961 F2400
G92 E0
G1 X120.447 Y127.4 F30000
G1 E.1 F2400
;TYPE:Perimeter
;WIDTH:0.7
G1 F1800
G1 X120.665 Y127.289 E.12224
G1 X121.272 Y126.913 E.18717
G1 X121.836 Y126.474 E.25216
G1 X122.348 Y125.976 E.31711
G1 X122.726 Y125.528 E.37041
G1 X123.019 Y125.953 E.41735
G1 X123.166 Y126.086 E.43538
;WIDTH:0.747524
G1 X123.246 Y126.158 E.44591
;WIDTH:0.795049
G1 X123.327 Y126.229 E.45719
;WIDTH:0.842574
G1 X123.407 Y126.301 E.46921
;WIDTH:0.890099
G1 X123.488 Y126.373 E.48206
;WIDTH:0.937624
G1 X123.568 Y126.444 E.49548
G1 X123.853 Y126.478 E.5315
;WIDTH:0.906451
G1 X124.137 Y126.512 E.5661
;WIDTH:0.875278
G1 X130.988 Y126.512 E1.36379
G1 X130.988 Y127.313 E1.45705
G1 X124.137 Y127.313 E2.25474
;WIDTH:0.906451
G1 X123.78 Y127.297 E2.29797
;WIDTH:0.937624
G1 X123.422 Y127.281 E2.34295
G1 X123.279 Y127.305 E2.36115
;WIDTH:0.890099
G1 X123.136 Y127.329 E2.37835
;WIDTH:0.842574
G1 X122.993 Y127.353 E2.39454
;WIDTH:0.795049
G1 X122.85 Y127.376 E2.40971
;WIDTH:0.747524
G1 X122.707 Y127.4 E2.4239
;WIDTH:0.7
G1 X120.507 Y127.4 E2.62394
G1 E2.52394 F2400
G92 E0
G1 X112.274 Y125.528 F30000
G1 E.1 F2400
G1 F1800
G1 X112.799 Y126.128 E.17249
G1 X113.293 Y126.583 E.23356
G1 X113.868 Y127.008 E.29858
G1 X114.553 Y127.4 E.37034
G1 X112.293 Y127.4 E.57584
;WIDTH:0.718523
G1 X111.578 Y127.391 E.64279
;WIDTH:0.761594
G1 X111.488 Y127.369 E.65205
;WIDTH:0.804666
G1 X111.398 Y127.348 E.66186
;WIDTH:0.847738
G1 X111.309 Y127.326 E.67217
;WIDTH:0.89081
G1 X111.219 Y127.305 E.68314
G1 X110.863 Y127.313 E.72541
;WIDTH:0.875278
G1 X104.012 Y127.313 E1.5231
G1 X104.012 Y126.512 E1.61636
G1 X110.863 Y126.512 E2.41405
;WIDTH:0.89081
G1 X111.149 Y126.495 E2.44806
G1 X111.21 Y126.457 E2.45659
;WIDTH:0.847738
G1 X111.272 Y126.418 E2.46482
;WIDTH:0.804666
G1 X111.333 Y126.38 E2.47245
;WIDTH:0.761594
G1 X111.394 Y126.341 E2.47968
;WIDTH:0.718523
G1 X111.834 Y126.086 E2.52729
;WIDTH:0.7
G1 X111.981 Y125.953 E2.54532
G1 X112.24 Y125.577 E2.58684
G1 X111.386 Y125.629 F30000
G1 F1800
G1 X111.446 Y125.597 E2.59302
G1 X111.7 Y125.284 E2.62967
G1 X111.8 Y124.863 E2.66902
G1 X111.8 Y123.276 E2.81333
G1 X111.855 Y123.455 E2.83036
G1 X112.1 Y124.054 E2.88921
G1 X112.437 Y124.667 E2.95282
G1 X112.775 Y125.155 E3.0068
G1 X113.229 Y125.674 E3.0695
G1 X113.671 Y126.086 E3.12444
G1 X114.19 Y126.473 E3.18331
G1 X114.747 Y126.801 E3.24209
G1 X115.336 Y127.068 E3.30089
G1 X115.951 Y127.269 E3.35972
G1 X116.584 Y127.403 E3.41855
;WIDTH:0.699482
G1 X117.227 Y127.451 E3.47713
;WIDTH:0.669909
G1 X117.872 Y127.447 E3.53296
;WIDTH:0.704543
G1 X118.517 Y127.389 E3.59227
G1 X119.147 Y127.242 E3.65152
;WIDTH:0.7
G1 X119.758 Y127.031 E3.7103
G1 X120.343 Y126.754 E3.76916
G1 X120.894 Y126.416 E3.82794
G1 X121.406 Y126.02 E3.8868
G1 X121.872 Y125.571 E3.94564
G1 X122.286 Y125.075 E4.00439
G1 X122.645 Y124.536 E4.06328
G1 X122.943 Y123.962 E4.12209
G1 X123.2 Y123.276 E4.1887
G1 X123.2 Y124.674 E4.31582
G1 X123.26 Y125.191 E4.36315
G1 X123.466 Y125.517 E4.39822
G1 X123.82 Y125.745 E4.43651
G1 X124.137 Y125.8 E4.46577
G1 X131.7 Y125.8 E5.15347
G1 X131.7 Y128.025 E5.35579
G1 X118.45 Y128.025 E6.56061
;WIDTH:0.699481
G1 X117.773 Y128.042 E6.62214
;WIDTH:0.669908
G1 X117.095 Y128.04 E6.68082
;WIDTH:0.710553
G1 X115.869 Y128.025 E6.79419
;WIDTH:0.7
G1 X103.3 Y128.025 E7.93708
G1 X103.3 Y125.8 E8.1394
G1 X110.863 Y125.8 E8.8271
G1 X111.18 Y125.745 E8.85636
G1 X111.334 Y125.659 E8.8724
G1 X111.057 Y125.107 F30000
;TYPE:External perimeter
G1 F1800
G1 X111.142 Y125.003 E8.88461
G1 X111.175 Y124.863 E8.89769
G1 X111.175 Y121.509 E9.20267
G1 X111.213 Y120.816 E9.26578
G1 X111.323 Y120.14 E9.32806
G1 X111.507 Y119.481 E9.39027
G1 X111.76 Y118.844 E9.45259
G1 X112.081 Y118.239 E9.51487
G1 X112.465 Y117.673 E9.57706
G1 X112.908 Y117.151 E9.63931
G1 X113.406 Y116.68 E9.70164
G1 X113.951 Y116.265 E9.76393
G1 X114.538 Y115.912 E9.82621
G1 X115.159 Y115.625 E9.88842
G1 X115.808 Y115.406 E9.9507
G1 X116.477 Y115.259 E10.01298
G1 X117.158 Y115.185 E10.07527
G1 X117.842 Y115.185 E10.13747
G1 X118.523 Y115.259 E10.19976
G1 X119.192 Y115.406 E10.26204
G1 X119.841 Y115.625 E10.32432
G1 X120.462 Y115.912 E10.38653
G1 X121.049 Y116.265 E10.44881
G1 X121.594 Y116.68 E10.5111
G1 X122.092 Y117.151 E10.57343
G1 X122.535 Y117.673 E10.63568
G1 X122.919 Y118.239 E10.69787
G1 X123.24 Y118.844 E10.76015
G1 X123.493 Y119.481 E10.82247
G1 X123.677 Y120.14 E10.88468
G1 X123.787 Y120.816 E10.94696
G1 X123.825 Y121.509 E11.01007
G1 X123.825 Y124.129 E11.24831
G1 X123.845 Y124.972 E11.32499
G1 X123.939 Y125.104 E11.33973
G1 X124.137 Y125.175 E11.35886
G1 X132.325 Y125.175 E12.10339
G1 X132.325 Y128.65 E12.41937
G1 X102.675 Y128.65 E15.11543
G1 X102.675 Y125.175 E15.43141
G1 X110.863 Y125.175 E16.17594
G1 X111 Y125.127 E16.18914
G1 X111.178 Y125.166 F30000
G1 E16.08914 F2400
G92 E0
G1 X116.445 Y116.262 F30000
G1 E.1 F2400
G1 F1800
G1 X116.618 Y116.224 E.11611
G1 X117.193 Y116.159 E.16873
G1 X117.756 Y116.157 E.21992
G1 X118.348 Y116.218 E.27404
G1 X118.915 Y116.341 E.3268
G1 X119.464 Y116.524 E.37942
G1 X119.991 Y116.766 E.43215
G1 X120.488 Y117.063 E.4848
G1 X120.95 Y117.412 E.53745
G1 X121.372 Y117.809 E.59013
G1 X121.749 Y118.249 E.64282
G1 X122.075 Y118.728 E.69551
G1 X122.348 Y119.238 E.74811
G1 X122.564 Y119.776 E.80083
G1 X122.721 Y120.333 E.85345
G1 X122.816 Y120.905 E.90617
G1 X122.85 Y121.483 E.95882
G1 X122.82 Y122.062 E1.01154
G1 X122.728 Y122.633 E1.06413
G1 X122.575 Y123.192 E1.11683
G1 X122.362 Y123.731 E1.16953
G1 X122.093 Y124.244 E1.2222
G1 X121.769 Y124.724 E1.27486
G1 X121.395 Y125.167 E1.32758
G1 X120.976 Y125.566 E1.38019
G1 X120.516 Y125.918 E1.43286
G1 X120.021 Y126.219 E1.48554
G1 X119.496 Y126.463 E1.53818
G1 X118.947 Y126.65 E1.59092
G1 X118.382 Y126.776 E1.64356
G1 X117.807 Y126.841 E1.69618
G1 X117.227 Y126.843 E1.74892
G1 X116.651 Y126.782 E1.80159
G1 X116.085 Y126.659 E1.85426
G1 X115.536 Y126.476 E1.90688
G1 X115.009 Y126.234 E1.95961
G1 X114.512 Y125.937 E2.01226
G1 X114.05 Y125.588 E2.06491
G1 X113.659 Y125.221 E2.11367
G1 X113.251 Y124.751 E2.17026
G1 X112.954 Y124.316 E2.21815
G1 X112.652 Y123.762 E2.27552
G1 X112.436 Y123.224 E2.32824
G1 X112.279 Y122.667 E2.38086
G1 X112.184 Y122.095 E2.43358
G1 X112.15 Y121.517 E2.48623
G1 X112.18 Y120.938 E2.53895
G1 X112.272 Y120.367 E2.59154
G1 X112.425 Y119.808 E2.64424
G1 X112.638 Y119.269 E2.69694
G1 X112.907 Y118.757 E2.74953
G1 X113.231 Y118.276 E2.80226
G1 X113.605 Y117.833 E2.85498
G1 X114.024 Y117.434 E2.90759
G1 X114.484 Y117.082 E2.96026
G1 X114.979 Y116.782 E3.01289
G1 X115.504 Y116.537 E3.06557
G1 X116.053 Y116.35 E3.11831
G1 X116.387 Y116.274 E3.14946
G1 X116.495 Y116.092 F30000
G1 E3.04946 F2400
G92 E0
G1 X111.728 Y122.732 F30000
G1 E.1 F2400
;TYPE:Perimeter
;WIDTH:0.555957
G1 F1800
G1 X111.705 Y122.455 E.11945
;WIDTH:0.51073
G1 X111.683 Y122.177 E.13713
;WIDTH:0.465503
G1 X111.663 Y121.543 E.17316
;WIDTH:0.426341
G1 X111.694 Y120.912 E.20545
;WIDTH:0.422767
G1 X111.792 Y120.288 E.2374
G1 X111.956 Y119.678 E.26935
G1 X112.186 Y119.089 E.30134
G1 X112.478 Y118.529 E.33329
G1 X112.829 Y118.003 E.36528
G1 X113.234 Y117.519 E.39721
G1 X113.689 Y117.081 E.42916
G1 X114.19 Y116.695 E.46115
G1 X114.728 Y116.365 E.49308
G1 X115.3 Y116.095 E.52508
G1 X115.897 Y115.889 E.55703
G1 X116.513 Y115.749 E.58899
G1 X117.141 Y115.676 E.62097
G1 X117.756 Y115.671 E.65208
G1 X118.399 Y115.734 E.68476
G1 X119.019 Y115.866 E.71683
G1 X119.62 Y116.063 E.74883
G1 X120.195 Y116.324 E.78077
G1 X120.739 Y116.646 E.81275
G1 X121.245 Y117.025 E.84473
G1 X121.707 Y117.456 E.87669
G1 X122.119 Y117.934 E.90861
G1 X122.478 Y118.455 E.94062
G1 X122.778 Y119.011 E.97258
G1 X123.016 Y119.596 E1.00453
G1 X123.189 Y120.203 E1.03646
G1 X123.296 Y120.826 E1.06844
G1 X123.335 Y121.457 E1.10042
;WIDTH:0.455893
G1 X123.322 Y122.089 E1.13545
;WIDTH:0.505113
G1 X123.298 Y122.406 E1.15534
;WIDTH:0.554333
G1 X123.273 Y122.723 E1.17751
;WIDTH:0.555959
G1 X123.272 Y122.732 E1.17814
G1 E1.07814 F2400
G92 E0
G1 X123.626 Y126.894 F30000
G1 E.1 F2400
;TYPE:Solid infill
;WIDTH:0.774243
G1 F1800
G1 X121.767 Y126.894 E.28912
G1 E.18912 F2400
G92 E0
G1 X113.224 Y126.896 F30000
G1 E.1 F2400
;WIDTH:0.764538
G1 F1800
G1 X111.032 Y126.896 E.3199
G1 E.2199 F2400
G92 E0
G1 X117.166 Y119.461 F30000
G1 E.1 F2400
;TYPE:Perimeter
;WIDTH:0.7
G1 F1800
G1 X117.612 Y119.437 E.14061
G1 X118.053 Y119.509 E.18124
G1 X118.468 Y119.675 E.22188
G1 X118.837 Y119.925 E.26241
G1 X119.145 Y120.25 E.30312
G1 X119.378 Y120.637 E.3442
G1 X119.514 Y121.034 E.38236
G1 X119.554 Y121.369 E.41304
G1 X119.554 Y121.723 E.44523
G1 X119.458 Y122.16 E.48591
G1 X119.27 Y122.565 E.52651
G1 X118.997 Y122.925 E.56759
G1 X118.595 Y123.251 E.61465
G1 X118.053 Y123.491 E.66855
G1 X117.612 Y123.563 E.70918
G1 X117.166 Y123.539 E.74979
G1 X116.735 Y123.419 E.79047
G1 X116.341 Y123.21 E.83102
G1 X116 Y122.921 E.87166
G1 X115.73 Y122.565 E.91229
G1 X115.542 Y122.16 E.95289
G1 X115.446 Y121.723 E.99357
G1 X115.446 Y121.277 E1.03412
G1 X115.542 Y120.84 E1.0748
G1 X115.73 Y120.435 E1.1154
