; generated by PrusaSlicer 2.6.1+linux-x64-GTK3 on 2023-10-28 at 23:39:46 UTC

; 

; external perimeters extrusion width = 0.45mm
; perimeters extrusion width = 0.45mm
; infill extrusion width = 0.45mm
; solid infill extrusion width = 0.45mm
; top infill extrusion width = 0.40mm
; first layer extrusion width = 0.50mm

;TYPE:Custom
; M190 R30 ; Because of probe temperature drift,
; M109 R30 ; Let the beds and hotend cool down before homing the axis

G28 ; home all axes
G1 Z100.0 F3000 ; Raise head above brush
M190 S65 ; set bed temperature and wait for it to be reached
M109 S230 ; set hot end temp and wait for it

; Brush any crap off the nozzle
G1 X232.0 Y0.0 F3000 ; Goto Start of movement
G1 Z19.0 F3000 ; Lower into brush
G1 X221.0 Y2.0 F3000 ; Goto Start of movement
G1 X229.0 Y4.0 F3000 ; 
G1 X221.0 Y6.0 F3000 ; 
G1 X229.0 Y8.0 F3000 ; 
G1 X221.0 Y10.0 F3000 ;
G1 X229.0 Y12.0 F3000 ;
G1 X221.0 Y14.0 F3000 ;
G1 X229.0 Y16.0 F3000 ;
G1 X221.0 Y18.0 F3000 ;
G1 X229.0 Y20.0 F3000 ;
G1 X221.0 Y22.0 F3000 ;
G1 X229.0 Y24.0 F3000 ;
G1 X221.0 Y26.0 F3000 ;
G1 X229.0 Y28.0 F3000 ;
G1 X221.0 Y30.0 F3000 ;
G1 X229.0 Y28.0 F3000 ;
G1 X221.0 Y26.0 F3000 ;
G1 X229.0 Y24.0 F3000 ;
G1 X221.0 Y22.0 F3000 ;
G1 X229.0 Y20.0 F3000 ;
G1 X221.0 Y18.0 F3000 ;
G1 X229.0 Y16.0 F3000 ;
G1 X221.0 Y14.0 F3000 ;
G1 X229.0 Y12.0 F3000 ;
G1 X221.0 Y10.0 F3000 ;
G1 X229.0 Y8.0 F3000 ; 
G1 X221.0 Y6.0 F3000 ; 
G1 X229.0 Y4.0 F3000 ; 
G1 X221.0 Y2.0 F3000 ; 
G1 X229.0 Y0.0 F3000 ; 
G1 X225.0 Y0.0 F3000 ; 
G1 X225.0 Y30.0 F5000 ; 
G1 X225.0 Y0.0 F5000 ; 
G1 X225.0 Y30.0 F5000 ; 
G1 X225.0 Y0.0 F5000 ; 
G1 X225.0 Y30.0 F5000 ; 

; Do a purge line to prime the extruder
G92 E0 ;Reset Extruder
G1 X227.0 Y80.0 F5000 ; Goto Start of purge
G1 Z0.28 F5000 ;Move Head to start height
G1 X227.0 Y230.0 Z0.28 F1500.0 E15; Draw first line
G1 X226.7 Y230.0 Z0.28 F5000.0 ;Move to side a little
G1 X226.7 Y80.0 Z0.28 F1500.0 E30; Draw the second line
G1 Z0.4 F5000; Move Z Axis Up
G1 Y120 F1500; Wipe to the back
G1 X117.5 Y117.5 Z27.0 F5000 ; Raise head above brush
G92 E0 ;Reset Extruder
G21 ; set units to millimeters
G90 ; use absolute coordinates
M82 ; use absolute distances for extrusion
G92 E0
; Filament gcode
SET_PRESSURE_ADVANCE ADVANCE=0.063
M107
;LAYER_CHANGE
;Z:0.25
;HEIGHT:0.25
G1 Z.25 F30000
G1 E-.1 F2400
G92 E0
G1 X138.504 Y122.525 F30000
G1 E.1 F2400
;TYPE:Perimeter
;WIDTH:0.499999
G1 F1800
G1 X138.612 Y122.433 E.10658
G1 X139.027 Y121.924 E.13705
G1 X139.027 Y129.006 E.4656
G1 X138.452 Y128.338 E.50649
G1 X137.716 Y127.765 E.54976
G1 X137.084 Y127.429 E.58297
G1 X136.601 Y127.26 E.60671
G1 X135.987 Y127.094 E.63622
G1 X135.05 Y127.022 E.67982
G1 X134.124 Y127.138 E.72312
G1 X133.242 Y127.429 E.76621
G1 X132.429 Y127.886 E.80948
G1 X131.715 Y128.497 E.85308
G1 X131.142 Y129.232 E.89632
G1 X130.723 Y130.063 E.9395
G1 X130.47 Y130.966 E.98301
G1 X130.401 Y131.895 E1.02623
G1 X130.471 Y132.607 E1.05942
G1 X130.563 Y132.986 E1.07751
G1 X130.805 Y133.707 E1.11279
G1 X131.264 Y134.524 E1.15626
G1 X131.875 Y135.235 E1.19975
G1 X132.61 Y135.807 E1.24296
G1 X133.439 Y136.225 E1.28603
G1 X134.338 Y136.478 E1.32936
G1 X135.276 Y136.551 E1.37301
G1 X136.201 Y136.435 E1.41626
G1 X137.083 Y136.144 E1.45935
G1 X137.898 Y135.687 E1.5027
G1 X138.612 Y135.076 E1.5463
G1 X139.027 Y134.566 E1.5768
G1 X139.027 Y156.45 E2.59206
G1 X128.792 Y135.992 E3.65331
G1 X128.51 Y135.689 E3.67251
G1 X128.134 Y135.508 E3.69187
G1 X127.848 Y135.471 E3.70525
G1 X126.643 Y135.471 E3.76115
G1 X126.629 Y129.773 E4.0255
G1 X126.48 Y129.365 E4.04565
G1 X126.225 Y129.074 E4.0636
G1 X125.86 Y128.879 E4.0828
G1 X125.527 Y128.828 E4.09843
G1 X110.171 Y128.828 E4.81083
G1 X109.242 Y128.852 E4.85394
G1 X108.906 Y128.983 E4.87067
G1 X108.65 Y129.19 E4.88594
G1 X108.424 Y129.565 E4.90625
G1 X108.357 Y129.944 E4.92411
G1 X108.357 Y135.471 E5.18052
G1 X107.152 Y135.471 E5.23642
G1 X106.866 Y135.508 E5.2498
G1 X106.582 Y135.628 E5.2641
G1 X106.27 Y135.903 E5.28339
G1 X106.154 Y136.087 E5.29348
G1 X95.973 Y156.45 E6.34967
G1 X95.973 Y134.567 E7.36488
G1 X96.548 Y135.235 E7.40577
G1 X97.284 Y135.808 E7.44904
G1 X98.113 Y136.226 E7.49211
G1 X99.012 Y136.478 E7.53542
G1 X99.95 Y136.551 E7.57907
G1 X100.875 Y136.435 E7.62232
G1 X101.757 Y136.144 E7.66541
G1 X102.571 Y135.687 E7.70872
G1 X103.285 Y135.076 E7.75232
G1 X103.858 Y134.341 E7.79556
G1 X104.277 Y133.51 E7.83874
G1 X104.53 Y132.607 E7.88225
G1 X104.599 Y131.678 E7.92547
G1 X104.529 Y130.966 E7.95866
G1 X104.42 Y130.531 E7.97946
G1 X104.195 Y129.866 E8.01203
G1 X103.738 Y129.051 E8.05538
G1 X103.125 Y128.338 E8.099
G1 X102.389 Y127.765 E8.14227
G1 X101.56 Y127.348 E8.18532
G1 X100.659 Y127.095 E8.22874
G1 X99.705 Y127.023 E8.27312
G1 X98.902 Y127.112 E8.3106
G1 X98.399 Y127.26 E8.33492
G1 X97.917 Y127.429 E8.35862
G1 X97.102 Y127.886 E8.40197
G1 X96.388 Y128.497 E8.44557
G1 X95.973 Y129.007 E8.47607
G1 X95.973 Y121.924 E8.80467
G1 X96.548 Y122.593 E8.8456
G1 X97.284 Y123.165 E8.88884
G1 X97.916 Y123.502 E8.92207
G1 X98.399 Y123.671 E8.94581
G1 X99.012 Y123.836 E8.97526
G1 X99.95 Y123.908 E9.0189
G1 X100.876 Y123.793 E9.06219
G1 X101.758 Y123.501 E9.10529
G1 X102.571 Y123.045 E9.14853
G1 X103.285 Y122.434 E9.19213
G1 X103.858 Y121.698 E9.2354
G1 X104.277 Y120.867 E9.27858
G1 X104.53 Y119.965 E9.32204
G1 X104.6 Y119.242 E9.35574
G1 X104.557 Y118.609 E9.38517
G1 X104.486 Y118.107 E9.40869
G1 X104.277 Y117.422 E9.44192
G1 X104.159 Y117.154 E9.45551
G1 X103.738 Y116.409 E9.49521
G1 X103.125 Y115.695 E9.53887
G1 X102.39 Y115.123 E9.58208
G1 X101.561 Y114.705 E9.62515
G1 X100.659 Y114.452 E9.66861
G1 X99.705 Y114.381 E9.71299
G1 X98.799 Y114.495 E9.75535
G1 X97.917 Y114.786 E9.79844
G1 X97.102 Y115.243 E9.84179
G1 X96.388 Y115.855 E9.88542
G1 X95.973 Y116.364 E9.91589
G1 X95.973 Y107.968 E10.3054
G1 X96.783 Y107.413 E10.35095
G1 X97.651 Y106.663 E10.40417
G1 X98.009 Y106.302 E10.42776
G1 X98.534 Y105.66 E10.46623
G1 X99.058 Y104.849 E10.51102
G1 X99.492 Y103.972 E10.55642
G1 X99.688 Y103.491 E10.58052
G1 X99.931 Y102.684 E10.61962
G1 X100.111 Y101.644 E10.66859
;WIDTH:0.542313
G1 X100.145 Y101.499 E10.67615
;WIDTH:0.584626
G1 X100.179 Y101.355 E10.68432
;WIDTH:0.62694
G1 X100.213 Y101.211 E10.69314
;WIDTH:0.669253
G1 X100.247 Y101.066 E10.70267
G1 X100.229 Y100.456 E10.74172
;WIDTH:0.643145
G1 X100.214 Y99.354 E10.80925
;WIDTH:0.635506
G1 X100.268 Y98.018 E10.89011
;WIDTH:0.635189
G1 X100.417 Y96.77 E10.96608
;WIDTH:0.631914
G1 X100.655 Y95.544 E11.04114
;WIDTH:0.630545
G1 X100.973 Y94.36 E11.11465
;WIDTH:0.638693
G1 X101.179 Y93.716 E11.15577
G1 X101.382 Y93.178 E11.19074
;WIDTH:0.638794
G1 X101.583 Y92.669 E11.22402
G1 X101.829 Y92.126 E11.26028
;WIDTH:0.638276
G1 X102.043 Y91.673 E11.29072
G1 X102.564 Y90.708 E11.35736
;WIDTH:0.637276
G1 X103.154 Y89.766 E11.42479
;WIDTH:0.636377
G1 X103.744 Y88.945 E11.48602
;WIDTH:0.634229
G1 X104.585 Y87.923 E11.56589
;WIDTH:0.632671
G1 X105.45 Y87.022 E11.64106
;WIDTH:0.630938
G1 X106.375 Y86.187 E11.71583
;WIDTH:0.638324
G1 X106.927 Y85.737 E11.75911
G1 X107.34 Y85.433 E11.79027
;WIDTH:0.63872
G1 X107.816 Y85.094 E11.82581
G1 X108.326 Y84.767 E11.86265
;WIDTH:0.638443
G1 X108.764 Y84.496 E11.89396
G1 X109.749 Y83.961 E11.96209
;WIDTH:0.63795
G1 X110.745 Y83.501 E12.02872
;WIDTH:0.637106
G1 X111.758 Y83.106 E12.09466
;WIDTH:0.635056
G1 X112.807 Y82.774 E12.16115
;WIDTH:0.636144
G1 X112.902 Y82.745 E12.16716
G1 X113.069 Y82.601 E12.18051
;WIDTH:0.590763
G1 X113.237 Y82.456 E12.1929
;WIDTH:0.545381
G1 X113.404 Y82.312 E12.20417
;WIDTH:0.548429
G1 X113.502 Y82.15 E12.21391
;WIDTH:0.596859
G1 X113.6 Y81.989 E12.22455
;WIDTH:0.645288
G1 X113.697 Y81.827 E12.23616
G1 X113.71 Y81.622 E12.24879
;WIDTH:0.634127
G1 X113.71 Y76.124 E12.5805
G1 X114.29 Y76.124 E12.61549
G1 X114.29 Y81.622 E12.9472
;WIDTH:0.645288
G1 X114.285 Y81.879 E12.96301
G1 X114.309 Y82.133 E12.9787
;WIDTH:0.596859
G1 X114.333 Y82.387 E12.9931
;WIDTH:0.548429
G1 X114.357 Y82.642 E13.00627
;WIDTH:0.499999
G1 X114.357 Y83.076 E13.0264
G1 X113.949 Y83.16 E13.04573
;WIDTH:0.54476
G1 X113.627 Y83.216 E13.06241
;WIDTH:0.589521
G1 X113.305 Y83.272 E13.08061
;WIDTH:0.634282
G1 X112.984 Y83.327 E13.10026
;WIDTH:0.635056
G1 X111.809 Y83.705 E13.17485
;WIDTH:0.631942
G1 X110.689 Y84.158 E13.24747
;WIDTH:0.630762
G1 X109.625 Y84.679 E13.31853
;WIDTH:0.638443
G1 X108.601 Y85.275 E13.39055
;WIDTH:0.63872
G1 X108.136 Y85.584 E13.4245
G1 X107.279 Y86.203 E13.48879
;WIDTH:0.638324
G1 X106.463 Y86.876 E13.55307
;WIDTH:0.637653
G1 X105.674 Y87.615 E13.61869
;WIDTH:0.636343
G1 X104.949 Y88.384 E13.6827
;WIDTH:0.634271
G1 X104.22 Y89.275 E13.75217
;WIDTH:0.636377
G1 X103.505 Y90.288 E13.82727
;WIDTH:0.631017
G1 X102.893 Y91.303 E13.8984
;WIDTH:0.630378
G1 X102.356 Y92.359 E13.96942
;WIDTH:0.638794
G1 X101.9 Y93.432 E14.04033
;WIDTH:0.638693
G1 X101.729 Y93.916 E14.07154
G1 X101.404 Y94.951 E14.13751
;WIDTH:0.637886
G1 X101.152 Y95.979 E14.20178
;WIDTH:0.637067
G1 X100.965 Y97.021 E14.26598
;WIDTH:0.635189
G1 X100.845 Y98.078 E14.33028
;WIDTH:0.633614
G1 X100.839 Y98.162 E14.33536
;WIDTH:0.633354
G1 X100.792 Y99.343 E14.40658
;WIDTH:0.643145
G1 X100.818 Y100.445 E14.47412
;WIDTH:0.646119
G1 X100.822 Y100.53 E14.47936
;WIDTH:0.658671
G1 X100.883 Y101.197 E14.52148
G1 X100.929 Y101.398 E14.53445
;WIDTH:0.619003
G1 X100.975 Y101.599 E14.54657
;WIDTH:0.579335
G1 X101.021 Y101.8 E14.55784
;WIDTH:0.539667
G1 X101.067 Y102.001 E14.56826
;WIDTH:0.499999
G1 X101.225 Y102.888 E14.61006
G1 X101.518 Y104.055 E14.66588
G1 X101.683 Y104.56 E14.69053
G1 X101.974 Y105.389 E14.73129
G1 X102.345 Y106.29 E14.77649
G1 X103.032 Y107.622 E14.84602
G1 X103.481 Y108.382 E14.88697
G1 X103.891 Y108.979 E14.92057
G1 X104.271 Y109.502 E14.95056
G1 X104.908 Y110.295 E14.99775
G1 X105.564 Y111.004 E15.04256
G1 X106.591 Y111.982 E15.10835
G1 X107.465 Y112.69 E15.16053
G1 X108.498 Y113.411 E15.21897
G1 X109.008 Y113.715 E15.24651
G1 X109.533 Y114.025 E15.2748
G1 X110.591 Y114.554 E15.32968
G1 X111.63 Y114.986 E15.38188
G1 X112.819 Y115.384 E15.44005
G1 X113.916 Y115.665 E15.49259
G1 X115.055 Y115.875 E15.54632
G1 X116.276 Y116.011 E15.60332
G1 X117.54 Y116.056 E15.662
G1 X118.661 Y116.015 E15.71404
G1 X119.836 Y115.891 E15.76885
G1 X121.023 Y115.679 E15.82479
G1 X122.244 Y115.365 E15.88328
G1 X123.385 Y114.981 E15.93913
G1 X124.367 Y114.572 E15.98848
G1 X124.737 Y114.392 E16.00757
G1 X125.548 Y113.981 E16.04975
G1 X126.561 Y113.373 E16.10456
G1 X127.546 Y112.682 E16.16038
G1 X128.531 Y111.871 E16.21957
G1 X129.338 Y111.111 E16.271
G1 X129.923 Y110.478 E16.31099
G1 X130.284 Y110.059 E16.33665
G1 X130.888 Y109.299 E16.38169
G1 X131.506 Y108.4 E16.4323
G1 X132.151 Y107.306 E16.49122
G1 X132.759 Y106.043 E16.55625
G1 X133.137 Y105.109 E16.60299
G1 X133.48 Y104.062 E16.6541
G1 X133.815 Y102.678 E16.72016
G1 X133.994 Y101.627 E16.76962
;WIDTH:0.541697
G1 X134.031 Y101.472 E16.7777
;WIDTH:0.583394
G1 X134.067 Y101.318 E16.78641
;WIDTH:0.625091
G1 X134.104 Y101.163 E16.79587
;WIDTH:0.666788
G1 X134.14 Y101.008 E16.80601
G1 X134.179 Y100.477 E16.83994
;WIDTH:0.643625
G1 X134.208 Y99.331 E16.91024
;WIDTH:0.635346
G1 X134.16 Y98.143 E16.98213
;WIDTH:0.633478
G1 X134.154 Y98.063 E16.98696
;WIDTH:0.635222
G1 X134.015 Y96.88 E17.05896
;WIDTH:0.631963
G1 X133.787 Y95.691 E17.13173
;WIDTH:0.630474
G1 X133.475 Y94.524 E17.20415
;WIDTH:0.638482
G1 X133.088 Y93.403 E17.27624
;WIDTH:0.638801
G1 X132.885 Y92.914 E17.30844
G1 X132.444 Y91.953 E17.37275
;WIDTH:0.638193
G1 X131.943 Y91.021 E17.43704
;WIDTH:0.63729
G1 X131.37 Y90.102 E17.50274
;WIDTH:0.635959
G1 X130.74 Y89.222 E17.56824
;WIDTH:0.634558
G1 X129.982 Y88.307 E17.63998
;WIDTH:0.632386
G1 X129.147 Y87.435 E17.7126
;WIDTH:0.63085
G1 X128.267 Y86.639 E17.78379
;WIDTH:0.638606
G1 X127.316 Y85.895 E17.8572
;WIDTH:0.638441
G1 X126.404 Y85.278 E17.92413
G1 X125.951 Y85.007 E17.95622
G1 X125.002 Y84.49 E18.02191
;WIDTH:0.638043
G1 X124.043 Y84.044 E18.08615
;WIDTH:0.637218
G1 X123.058 Y83.658 E18.15032
;WIDTH:0.635072
G1 X122.044 Y83.335 E18.21463
;WIDTH:0.635374
G1 X121.521 Y83.232 E18.24686
;WIDTH:0.590249
G1 X121.082 Y83.154 E18.27173
;WIDTH:0.545124
G1 X120.643 Y83.075 E18.29452
;WIDTH:0.499999
G1 X120.643 Y82.642 E18.31461
;WIDTH:0.544708
G1 X120.665 Y82.302 E18.332
;WIDTH:0.589417
G1 X120.687 Y81.962 E18.35097
;WIDTH:0.634126
G1 X120.71 Y81.622 E18.37153
G1 X120.71 Y76.124 E18.70324
G1 X121.29 Y76.124 E18.73823
G1 X121.29 Y81.622 E19.06994
;WIDTH:0.645289
G1 X121.303 Y81.827 E19.08257
G1 X121.4 Y81.989 E19.09418
;WIDTH:0.596859
G1 X121.498 Y82.151 E19.10487
;WIDTH:0.548429
G1 X121.596 Y82.312 E19.11456
;WIDTH:0.545124
G1 X121.77 Y82.458 E19.12616
;WIDTH:0.590249
G1 X121.943 Y82.604 E19.13879
;WIDTH:0.635374
G1 X122.116 Y82.751 E19.15252
G1 X122.216 Y82.781 E19.15883
;WIDTH:0.635072
G1 X123.408 Y83.169 E19.23458
;WIDTH:0.631931
G1 X124.563 Y83.639 E19.30953
;WIDTH:0.63083
G1 X125.661 Y84.179 E19.38294
;WIDTH:0.638441
G1 X126.254 Y84.507 E19.42413
G1 X126.719 Y84.796 E19.45741
;WIDTH:0.638606
G1 X127.201 Y85.106 E19.49225
G1 X128.089 Y85.75 E19.55894
G1 X128.935 Y86.449 E19.62566
;WIDTH:0.63753
G1 X129.753 Y87.218 E19.69379
;WIDTH:0.63667
G1 X130.497 Y88.012 E19.75973
;WIDTH:0.634476
G1 X131.275 Y88.971 E19.83428
;WIDTH:0.632266
G1 X131.979 Y89.974 E19.90798
;WIDTH:0.631195
G1 X132.621 Y91.043 E19.98283
;WIDTH:0.638193
G1 X132.961 Y91.681 E20.02675
G1 X133.176 Y92.135 E20.05727
;WIDTH:0.638801
G1 X133.428 Y92.695 E20.09462
G1 X133.64 Y93.234 E20.12985
;WIDTH:0.638482
G1 X133.83 Y93.742 E20.16282
G1 X134.164 Y94.814 E20.23107
;WIDTH:0.63806
G1 X134.423 Y95.881 E20.29776
;WIDTH:0.637003
G1 X134.613 Y96.954 E20.36383
;WIDTH:0.635222
G1 X134.73 Y97.994 E20.42709
;WIDTH:0.633484
G1 X134.739 Y98.111 E20.43416
;WIDTH:0.635346
G1 X134.786 Y99.342 E20.50864
;WIDTH:0.643625
G1 X134.769 Y100.489 E20.57898
;WIDTH:0.646518
G1 X134.767 Y100.594 E20.58545
;WIDTH:0.675099
G1 X134.751 Y101.142 E20.62086
G1 X134.785 Y101.263 E20.62898
;WIDTH:0.631324
G1 X134.819 Y101.385 E20.63658
;WIDTH:0.587549
G1 X134.853 Y101.506 E20.64355
;WIDTH:0.543774
G1 X134.887 Y101.627 E20.64995
;WIDTH:0.499999
G1 X134.929 Y101.987 E20.66676
G1 X135.119 Y102.859 E20.70816
G1 X135.451 Y103.837 E20.75607
G1 X135.67 Y104.346 E20.78178
G1 X136.064 Y105.064 E20.81978
G1 X136.591 Y105.82 E20.86253
G1 X137.157 Y106.472 E20.90259
G1 X137.658 Y106.96 E20.93504
G1 X138.307 Y107.478 E20.97356
G1 X139.027 Y107.968 E21.01396
G1 X139.027 Y116.364 E21.40347
G1 X138.452 Y115.695 E21.4444
G1 X137.716 Y115.123 E21.48764
G1 X136.887 Y114.705 E21.53071
G1 X135.988 Y114.452 E21.57404
G1 X135.05 Y114.38 E21.61768
G1 X134.125 Y114.495 E21.66092
G1 X133.243 Y114.787 E21.70402
G1 X132.429 Y115.243 E21.74731
G1 X131.715 Y115.854 E21.79091
G1 X131.142 Y116.59 E21.83418
G1 X130.723 Y117.421 E21.87736
G1 X130.47 Y118.323 E21.92082
G1 X130.401 Y119.036 E21.95405
G1 X130.438 Y119.629 E21.98161
G1 X130.514 Y120.181 E22.00746
G1 X130.805 Y121.065 E22.05064
G1 X131.262 Y121.879 E22.09395
G1 X131.875 Y122.593 E22.13761
G1 X132.611 Y123.165 E22.18085
G1 X133.44 Y123.583 E22.22392
G1 X134.339 Y123.836 E22.26725
G1 X135.276 Y123.908 E22.31085
G1 X136.098 Y123.819 E22.34921
G1 X136.601 Y123.67 E22.37355
G1 X137.083 Y123.502 E22.39723
G1 X137.898 Y123.045 E22.44058
G1 X138.459 Y122.564 E22.47486
G1 E22.37486 F2400
G92 E0
G1 X138.489 Y158.675 F30000
G1 E.1 F2400
;WIDTH:0.396636
G1 F1800
G1 X138.591 Y158.66 E.10368
;WIDTH:0.423085
G1 X138.807 Y158.628 E.11206
G1 X139.066 Y158.369 E.12612
G1 X139.066 Y158.982 E.14966
G1 X138.628 Y158.995 E.16649
;WIDTH:0.396636
G1 X138.375 Y159.008 E.17552
;WIDTH:0.370187
G1 X96.625 Y159.008 E1.5491
;WIDTH:0.396636
G1 X96.28 Y158.995 E1.56141
;WIDTH:0.423085
G1 X95.934 Y158.982 E1.57471
G1 X95.934 Y158.369 E1.59825
G1 X96.193 Y158.628 E1.61231
G1 X96.409 Y158.66 E1.62069
;WIDTH:0.396636
G1 X96.625 Y158.692 E1.62847
;WIDTH:0.370187
G1 X138.375 Y158.692 E3.00205
;WIDTH:0.396636
G1 X138.43 Y158.684 E3.00403
G1 X138.457 Y158.293 F30000
;WIDTH:0.499999
G1 F1800
G1 X138.375 Y158.31 E3.00792
G1 X96.625 Y158.31 E4.94481
G1 X96.357 Y158.254 E4.95751
G1 X96.012 Y157.909 E4.98015
;WIDTH:0.49908
