; generated by PrusaSlicer 2.6.1+linux-x64-GTK3 on 2023-11-03 at 23:51:48 UTC

; 

; external perimeters extrusion width = 0.45mm
; perimeters extrusion width = 0.60mm
; infill extrusion width = 0.60mm
; solid infill extrusion width = 0.60mm
; top infill extrusion width = 0.60mm
; first layer extrusion width = 0.40mm

;TYPE:Custom
; M190 R30 ; Because of probe temperature drift,
; M109 R30 ; Let the beds and hotend cool down before homing the axis

G28 ; home all axes
G1 Z100.0 F3000 ; Raise head above brush
M190 S65 ; set bed temperature and wait for it to be reached
M109 S230 ; set hot end temp and wait for it

; Brush any crap off the nozzle
G1 X232.0 Y0.0 F3000 ; Goto Start of movement
G1 Z19.0 F3000 ; Lower into brush
G1 X221.0 Y2.0 F3000 ; Goto Start of movement
G1 X229.0 Y4.0 F3000 ; 
G1 X221.0 Y6.0 F3000 ; 
G1 X229.0 Y8.0 F3000 ; 
G1 X221.0 Y10.0 F3000 ;
G1 X229.0 Y12.0 F3000 ;
G1 X221.0 Y14.0 F3000 ;
G1 X229.0 Y16.0 F3000 ;
G1 X221.0 Y18.0 F3000 ;
G1 X229.0 Y20.0 F3000 ;
G1 X221.0 Y22.0 F3000 ;
G1 X229.0 Y24.0 F3000 ;
G1 X221.0 Y26.0 F3000 ;
G1 X229.0 Y28.0 F3000 ;
G1 X221.0 Y30.0 F3000 ;
G1 X229.0 Y28.0 F3000 ;
G1 X221.0 Y26.0 F3000 ;
G1 X229.0 Y24.0 F3000 ;
G1 X221.0 Y22.0 F3000 ;
G1 X229.0 Y20.0 F3000 ;
G1 X221.0 Y18.0 F3000 ;
G1 X229.0 Y16.0 F3000 ;
G1 X221.0 Y14.0 F3000 ;
G1 X229.0 Y12.0 F3000 ;
G1 X221.0 Y10.0 F3000 ;
G1 X229.0 Y8.0 F3000 ; 
G1 X221.0 Y6.0 F3000 ; 
G1 X229.0 Y4.0 F3000 ; 
G1 X221.0 Y2.0 F3000 ; 
G1 X229.0 Y0.0 F3000 ; 
G1 X225.0 Y0.0 F3000 ; 
G1 X225.0 Y30.0 F5000 ; 
G1 X225.0 Y0.0 F5000 ; 
G1 X225.0 Y30.0 F5000 ; 
G1 X225.0 Y0.0 F5000 ; 
G1 X225.0 Y30.0 F5000 ; 

; Do a purge line to prime the extruder
G92 E0 ;Reset Extruder
G1 X227.0 Y80.0 F5000 ; Goto Start of purge
G1 Z0.28 F5000 ;Move Head to start height
G1 X227.0 Y230.0 Z0.28 F1500.0 E15; Draw first line
G1 X226.7 Y230.0 Z0.28 F5000.0 ;Move to side a little
G1 X226.7 Y80.0 Z0.28 F1500.0 E30; Draw the second line
G1 Z0.4 F5000; Move Z Axis Up
G1 Y120 F1500; Wipe to the back
G1 X117.5 Y117.5 Z27.0 F5000 ; Raise head above brush
G92 E0 ;Reset Extruder
G21 ; set units to millimeters
G90 ; use absolute coordinates
M82 ; use absolute distances for extrusion
G92 E0
; Filament gcode
SET_PRESSURE_ADVANCE ADVANCE=0.063
M107
;LAYER_CHANGE
;Z:0.35
;HEIGHT:0.35
G1 Z.35 F24000
G1 E-.1 F2400
G92 E0
G1 X73.256 Y74.772 F24000
G1 E.1 F2400
;TYPE:Perimeter
;WIDTH:0.4
G1 F3000
G1 X80.585 Y74.772 E.44648
G1 X80.991 Y74.664 E.46634
G1 X81.35 Y74.203 E.49396
;WIDTH:0.380505
G1 X81.371 Y73.822 E.51092
;WIDTH:0.412326
G1 X81.316 Y73.663 E.51918
;WIDTH:0.453317
G1 X81.262 Y73.504 E.52842
;WIDTH:0.494308
G1 X81.208 Y73.344 E.53872
;WIDTH:0.535299
G1 X81.153 Y73.185 E.54999
G1 X80.954 Y72.84 E.57666
G1 X81.583 Y72.84 E.61878
G1 X81.6 Y73.046 E.63262
;WIDTH:0.500743
G1 X81.617 Y73.251 E.64536
;WIDTH:0.466187
G1 X81.634 Y73.457 E.65712
;WIDTH:0.431632
G1 X81.647 Y73.854 E.67773
;WIDTH:0.406068
G1 X81.66 Y74.251 E.69686
;WIDTH:0.4
G1 X81.65 Y91.377 E1.5065
G1 X81.693 Y92.464 E1.55793
G1 X81.813 Y93.378 E1.60151
G1 X82.011 Y94.279 E1.64512
G1 X82.271 Y95.127 E1.68705
G1 X93.716 Y127.472 E3.30908
G1 X94.13 Y128.475 E3.36038
G1 X94.662 Y129.468 E3.41364
G1 X95.347 Y130.469 E3.47098
G1 X96.08 Y131.325 E3.52426
G1 X96.898 Y132.101 E3.57756
G1 X97.792 Y132.788 E3.63086
G1 X98.753 Y133.378 E3.68417
G1 X99.77 Y133.866 E3.7375
G1 X101.008 Y134.288 E3.79933
G1 X101.927 Y134.512 E3.84405
G1 X103.045 Y134.664 E3.89739
G1 X104.172 Y134.699 E3.9507
G1 X105.212 Y134.627 E3.99998
G1 X106.406 Y134.418 E4.05729
G1 X107.49 Y134.105 E4.11063
G1 X108.534 Y133.682 E4.16388
G1 X110.983 Y132.395 E4.29467
G1 X112.545 Y131.779 E4.37405
G1 X114.165 Y131.333 E4.45349
G1 X115.823 Y131.064 E4.5329
G1 X117.5 Y130.974 E4.6123
G1 X119.177 Y131.064 E4.6917
G1 X120.835 Y131.333 E4.77111
G1 X122.455 Y131.779 E4.85055
G1 X124.017 Y132.395 E4.92993
G1 X126.542 Y133.717 E5.06467
G1 X127.51 Y134.105 E5.11397
G1 X128.676 Y134.437 E5.17128
G1 X129.788 Y134.627 E5.22461
G1 X130.913 Y134.7 E5.27791
G1 X131.955 Y134.664 E5.3272
G1 X132.486 Y134.594 E5.35252
G1 X133.156 Y134.496 E5.38453
G1 X134.168 Y134.245 E5.43382
G1 X135.308 Y133.833 E5.49113
G1 X136.247 Y133.378 E5.54046
G1 X137.288 Y132.732 E5.59838
G1 X138.166 Y132.046 E5.65106
G1 X138.92 Y131.325 E5.70038
G1 X139.704 Y130.402 E5.75763
G1 X140.338 Y129.468 E5.811
G1 X140.834 Y128.551 E5.86029
G1 X141.284 Y127.472 E5.91556
G1 X152.729 Y95.127 E7.53759
G1 X153.007 Y94.212 E7.5828
G1 X153.198 Y93.31 E7.62639
G1 X153.316 Y92.312 E7.6739
G1 X153.35 Y91.509 E7.7119
G1 X153.35 Y75.044 E8.49029
G1 X153.332 Y73.96 E8.54154
;WIDTH:0.397929
G1 X153.349 Y73.709 E8.55336
;WIDTH:0.431633
G1 X153.366 Y73.457 E8.56646
;WIDTH:0.466188
G1 X153.383 Y73.251 E8.57822
;WIDTH:0.500743
G1 X153.4 Y73.046 E8.59096
;WIDTH:0.535299
G1 X153.417 Y72.84 E8.6048
G1 X154.046 Y72.84 E8.64692
G1 X153.847 Y73.185 E8.67359
G1 X153.792 Y73.344 E8.68486
;WIDTH:0.494309
G1 X153.738 Y73.504 E8.69516
;WIDTH:0.453319
G1 X153.684 Y73.663 E8.7044
;WIDTH:0.412329
G1 X153.629 Y73.822 E8.71266
;WIDTH:0.380508
G1 X153.65 Y74.203 E8.72962
;WIDTH:0.4
G1 X154.009 Y74.664 E8.75724
G1 X154.415 Y74.772 E8.7771
G1 X162.585 Y74.772 E9.16334
G1 X162.991 Y74.664 E9.1832
G1 X163.35 Y74.203 E9.21082
;WIDTH:0.380507
G1 X163.371 Y73.822 E9.22778
;WIDTH:0.412328
G1 X163.316 Y73.663 E9.23604
;WIDTH:0.453319
G1 X163.262 Y73.504 E9.24528
;WIDTH:0.49431
G1 X163.208 Y73.344 E9.25558
;WIDTH:0.535301
G1 X163.153 Y73.185 E9.26685
G1 X162.954 Y72.84 E9.29352
G1 X163.583 Y72.84 E9.33564
G1 X163.583 Y73.07 E9.35104
G1 X163.6 Y73.199 E9.35975
;WIDTH:0.500745
G1 X163.617 Y73.328 E9.36781
;WIDTH:0.46619
G1 X163.634 Y73.457 E9.37521
;WIDTH:0.431635
G1 X163.647 Y73.854 E9.39582
;WIDTH:0.406071
G1 X163.66 Y74.251 E9.41495
;WIDTH:0.4
G1 X163.65 Y91.49 E10.22993
G1 X163.616 Y92.285 E10.26755
G1 X163.518 Y93.056 E10.30429
G1 X163.353 Y93.817 E10.3411
G1 X163.12 Y94.577 E10.37868
G1 X146.402 Y141.825 E12.74806
G1 X145.136 Y144.874 E12.90414
G1 X143.563 Y147.75 E13.05911
G1 X141.691 Y150.442 E13.21412
G1 X139.542 Y152.918 E13.36911
G1 X137.142 Y155.15 E13.52405
G1 X134.516 Y157.114 E13.67908
G1 X131.696 Y158.786 E13.83407
G1 X128.713 Y160.147 E13.98908
G1 X125.603 Y161.181 E14.14402
G1 X122.399 Y161.877 E14.29902
G1 X119.139 Y162.228 E14.45403
G1 X115.861 Y162.228 E14.609
G1 X112.644 Y161.882 E14.76196
G1 X109.397 Y161.181 E14.919
G1 X106.287 Y160.147 E15.07394
G1 X103.304 Y158.786 E15.22895
G1 X100.484 Y157.114 E15.38394
G1 X97.858 Y155.15 E15.53897
G1 X95.458 Y152.918 E15.69391
G1 X93.309 Y150.442 E15.8489
G1 X91.437 Y147.75 E16.00391
G1 X89.864 Y144.874 E16.15888
G1 X88.598 Y141.825 E16.31496
G1 X71.88 Y94.577 E18.68434
G1 X71.647 Y93.817 E18.72192
G1 X71.483 Y93.056 E18.75872
G1 X71.385 Y92.296 E18.79495
G1 X71.35 Y91.49 E18.83309
G1 X71.35 Y75.044 E19.61058
G1 X71.332 Y73.96 E19.66183
;WIDTH:0.397927
G1 X71.349 Y73.709 E19.67365
;WIDTH:0.431632
G1 X71.366 Y73.457 E19.68675
;WIDTH:0.466187
G1 X71.383 Y73.251 E19.69851
;WIDTH:0.500743
G1 X71.4 Y73.046 E19.71125
;WIDTH:0.535299
G1 X71.417 Y72.84 E19.72509
G1 X72.046 Y72.84 E19.76721
G1 X71.847 Y73.185 E19.79388
G1 X71.792 Y73.344 E19.80515
;WIDTH:0.494308
G1 X71.738 Y73.504 E19.81545
;WIDTH:0.453318
G1 X71.684 Y73.663 E19.82469
;WIDTH:0.412327
G1 X71.629 Y73.822 E19.83295
;WIDTH:0.380506
G1 X71.65 Y74.203 E19.84991
;WIDTH:0.4
G1 X72.009 Y74.664 E19.87753
G1 X72.415 Y74.772 E19.89739
G1 X73.196 Y74.772 E19.93431
G1 X72.775 Y74.447 F24000
G1 F3000
G1 X80.585 Y74.447 E20.30353
G1 X80.828 Y74.382 E20.31542
G1 X81.049 Y74.107 E20.3321
G1 X81.072 Y73.96 E20.33913
G1 X81.007 Y73.716 E20.35107
G1 X80.274 Y72.447 E20.42035
G1 X81.975 Y72.447 E20.50077
G1 X81.975 Y91.377 E21.3957
G1 X82.015 Y92.423 E21.44519
G1 X82.131 Y93.31 E21.48748
G1 X82.321 Y94.184 E21.52976
G1 X82.578 Y95.018 E21.57102
G1 X94.023 Y127.364 E23.1931
G1 X94.452 Y128.396 E23.24594
G1 X94.975 Y129.357 E23.29766
G1 X95.594 Y130.258 E23.34934
G1 X96.304 Y131.09 E23.40105
G1 X97.097 Y131.844 E23.45278
G1 X97.964 Y132.512 E23.50452
G1 X98.85 Y133.061 E23.5538
G1 X99.834 Y133.54 E23.60554
G1 X101.086 Y133.973 E23.66817
G1 X101.972 Y134.19 E23.71129
G1 X103.056 Y134.339 E23.76302
G1 X104.149 Y134.374 E23.81472
G1 X105.19 Y134.302 E23.86405
G1 X106.317 Y134.105 E23.91814
G1 X107.369 Y133.804 E23.96987
G1 X108.383 Y133.395 E24.02156
G1 X110.847 Y132.1 E24.15316
G1 X112.442 Y131.47 E24.23423
G1 X114.095 Y131.015 E24.31528
G1 X115.788 Y130.74 E24.39637
G1 X117.5 Y130.648 E24.47742
G1 X119.212 Y130.74 E24.55847
G1 X120.905 Y131.015 E24.63956
G1 X122.558 Y131.47 E24.72061
G1 X124.153 Y132.1 E24.80168
G1 X126.663 Y133.416 E24.93566
G1 X127.631 Y133.804 E24.98496
G1 X128.732 Y134.117 E25.03907
G1 X129.81 Y134.302 E25.09078
G1 X130.901 Y134.375 E25.14247
G1 X131.944 Y134.339 E25.19181
G1 X133.077 Y134.18 E25.2459
G1 X133.914 Y133.973 E25.28666
G1 X135.166 Y133.54 E25.34929
G1 X136.15 Y133.061 E25.40103
G1 X137.089 Y132.475 E25.45336
G1 X137.941 Y131.811 E25.50443
G1 X138.696 Y131.09 E25.55378
G1 X139.436 Y130.218 E25.60785
G1 X140.052 Y129.314 E25.65957
G1 X140.548 Y128.396 E25.7089
G1 X140.977 Y127.364 E25.76174
G1 X152.422 Y95.018 E27.38382
G1 X152.689 Y94.144 E27.42702
G1 X152.876 Y93.269 E27.46932
G1 X152.992 Y92.298 E27.51555
G1 X153.025 Y91.509 E27.55288
G1 X153.025 Y72.447 E28.45405
G1 X154.726 Y72.447 E28.53447
G1 X154.187 Y73.381 E28.58545
G1 X153.935 Y73.876 E28.61171
G1 X153.935 Y74.044 E28.61965
G1 X154.172 Y74.382 E28.63917
G1 X154.415 Y74.447 E28.65106
G1 X162.585 Y74.447 E29.0373
G1 X162.828 Y74.382 E29.04919
G1 X163.049 Y74.107 E29.06587
G1 X163.072 Y73.96 E29.0729
G1 X163.007 Y73.716 E29.08484
G1 X162.274 Y72.447 E29.15412
G1 X163.975 Y72.447 E29.23454
G1 X163.975 Y91.497 E30.13514
G1 X163.94 Y92.313 E30.17375
G1 X163.838 Y93.111 E30.21178
G1 X163.668 Y93.899 E30.24989
G1 X163.429 Y94.679 E30.28846
G1 X146.706 Y141.942 E32.65859
G1 X145.43 Y145.014 E32.81585
G1 X143.839 Y147.921 E32.97252
G1 X141.948 Y150.641 E33.12913
G1 X139.776 Y153.144 E33.2858
G1 X137.35 Y155.4 E33.44242
G1 X134.697 Y157.384 E33.59903
G1 X131.847 Y159.074 E33.75567
G1 X128.832 Y160.449 E33.91233
G1 X125.689 Y161.495 E34.06893
G1 X122.451 Y162.199 E34.22558
G1 X119.157 Y162.553 E34.3822
G1 X115.843 Y162.553 E34.53887
G1 X112.592 Y162.203 E34.69345
G1 X109.311 Y161.495 E34.85213
G1 X106.168 Y160.449 E35.00873
G1 X103.153 Y159.074 E35.16539
G1 X100.303 Y157.384 E35.32203
G1 X97.65 Y155.4 E35.47864
G1 X95.224 Y153.144 E35.63526
G1 X93.052 Y150.641 E35.79193
G1 X91.161 Y147.921 E35.94854
G1 X89.57 Y145.014 E36.10521
G1 X88.294 Y141.942 E36.26247
G1 X71.571 Y94.679 E38.6326
G1 X71.332 Y93.899 E38.67117
G1 X71.162 Y93.111 E38.70928
G1 X71.061 Y92.323 E38.74684
G1 X71.025 Y91.497 E38.78593
G1 X71.025 Y72.447 E39.68653
G1 X72.726 Y72.447 E39.76695
G1 X72.187 Y73.381 E39.81793
G1 X71.935 Y73.876 E39.84419
G1 X71.935 Y74.044 E39.85213
G1 X72.172 Y74.382 E39.87165
G1 X72.415 Y74.447 E39.88354
G1 X72.715 Y74.447 E39.89772
G1 X72.334 Y74.101 F24000
;TYPE:External perimeter
G1 F3000
G1 X72.415 Y74.123 E39.90169
G1 X80.585 Y74.123 E40.28793
G1 X80.666 Y74.101 E40.2919
G1 X80.74 Y74.009 E40.29748
G1 X80.725 Y73.879 E40.30367
G1 X79.711 Y72.123 E40.39953
G1 X82.3 Y72.123 E40.52193
G1 X82.3 Y91.377 E41.43217
G1 X82.338 Y92.381 E41.47967
G1 X82.448 Y93.241 E41.52066
G1 X82.632 Y94.088 E41.56164
G1 X82.884 Y94.91 E41.60229
G1 X94.329 Y127.255 E43.22432
G1 X94.737 Y128.242 E43.27481
G1 X95.243 Y129.174 E43.32495
G1 X95.842 Y130.048 E43.37504
G1 X96.529 Y130.856 E43.42518
G1 X97.296 Y131.587 E43.47527
G1 X98.135 Y132.236 E43.52542
G1 X99.036 Y132.793 E43.5755
G1 X99.988 Y133.253 E43.62548
G1 X101.164 Y133.658 E43.68428
G1 X102.017 Y133.868 E43.72581
G1 X103.067 Y134.014 E43.77593
G1 X104.127 Y134.05 E43.82607
G1 X105.168 Y133.978 E43.8754
G1 X105.431 Y133.933 E43.88801
G1 X106.228 Y133.793 E43.92627
G1 X107.248 Y133.502 E43.97642
G1 X108.232 Y133.107 E44.02655
G1 X110.711 Y131.804 E44.15895
G1 X112.339 Y131.162 E44.24168
G1 X114.026 Y130.697 E44.32441
G1 X115.753 Y130.417 E44.40712
G1 X117.5 Y130.323 E44.48983
G1 X119.247 Y130.417 E44.57254
G1 X120.974 Y130.697 E44.65525
G1 X122.661 Y131.162 E44.73798
G1 X124.289 Y131.804 E44.82071
G1 X126.784 Y133.114 E44.95393
G1 X127.752 Y133.502 E45.00323
G1 X128.788 Y133.797 E45.05415
G1 X129.832 Y133.978 E45.10424
G1 X130.89 Y134.051 E45.15438
G1 X131.933 Y134.014 E45.20372
G1 X132.999 Y133.865 E45.25461
G1 X133.836 Y133.658 E45.29537
G1 X135.025 Y133.248 E45.35483
G1 X135.976 Y132.787 E45.40479
G1 X136.89 Y132.218 E45.45569
G1 X137.717 Y131.576 E45.50518
G1 X138.471 Y130.856 E45.55447
G1 X139.158 Y130.048 E45.60461
G1 X139.765 Y129.162 E45.65538
G1 X140.27 Y128.226 E45.70566
G1 X140.671 Y127.255 E45.75533
G1 X152.116 Y94.91 E47.37736
G1 X152.372 Y94.075 E47.41865
G1 X152.554 Y93.227 E47.45965
G1 X152.667 Y92.284 E47.50455
G1 X152.7 Y91.509 E47.54122
G1 X152.7 Y72.123 E48.4577
G1 X155.289 Y72.123 E48.5801
G1 X154.468 Y73.544 E48.65769
G1 X154.253 Y73.96 E48.67983
G1 X154.334 Y74.101 E48.68752
G1 X154.415 Y74.123 E48.69149
G1 X162.585 Y74.123 E49.07773
G1 X162.666 Y74.101 E49.0817
G1 X162.74 Y74.009 E49.08728
G1 X162.725 Y73.879 E49.09347
G1 X161.711 Y72.123 E49.18933
G1 X164.3 Y72.123 E49.31173
G1 X164.3 Y91.504 E50.22798
G1 X164.264 Y92.34 E50.26754
G1 X164.158 Y93.167 E50.30696
G1 X163.983 Y93.981 E50.34632
G1 X163.737 Y94.781 E50.38589
G1 X147.009 Y142.058 E52.75672
G1 X145.723 Y145.155 E52.91525
G1 X144.116 Y148.092 E53.07352
G1 X142.205 Y150.841 E53.2318
G1 X140.01 Y153.37 E53.39011
G1 X137.559 Y155.65 E53.54837
G1 X134.878 Y157.655 E53.70664
G1 X131.997 Y159.362 E53.86495
G1 X128.952 Y160.752 E54.02319
G1 X125.775 Y161.809 E54.18148
G1 X122.503 Y162.52 E54.33978
G1 X119.174 Y162.877 E54.49806
G1 X115.826 Y162.877 E54.65634
G1 X112.54 Y162.524 E54.81258
G1 X109.225 Y161.809 E54.9729
G1 X106.048 Y160.752 E55.13119
G1 X103.003 Y159.362 E55.28943
G1 X100.122 Y157.655 E55.44774
G1 X97.441 Y155.65 E55.60601
G1 X94.99 Y153.37 E55.76427
G1 X92.795 Y150.841 E55.92258
G1 X90.884 Y148.092 E56.08086
G1 X89.277 Y145.155 E56.23913
G1 X87.991 Y142.058 E56.39766
G1 X71.263 Y94.781 E58.76849
G1 X71.017 Y93.981 E58.80806
G1 X70.842 Y93.167 E58.84742
G1 X70.737 Y92.351 E58.88631
G1 X70.7 Y91.504 E58.92639
G1 X70.7 Y72.123 E59.84264
G1 X73.289 Y72.123 E59.96504
G1 X72.468 Y73.544 E60.04263
G1 X72.253 Y73.96 E60.06477
G1 X72.304 Y74.049 E60.06962
G1 X72.313 Y74.182 F24000
G1 E59.96962 F2400
G92 E0
G1 X104.264 Y145.024 F24000
G1 E.1 F2400
;TYPE:Perimeter
G1 F3000
G1 X104.334 Y144.42 E.12875
G1 X104.626 Y143.094 E.19294
G1 X105.083 Y141.723 E.26126
G1 X105.686 Y140.409 E.32961
G1 X106.415 Y139.188 E.39684
G1 X107.297 Y138.016 E.46618
G1 X108.288 Y136.962 E.53457
G1 X109.387 Y136.022 E.60294
G1 X110.656 Y135.162 E.67541
G1 X111.935 Y134.489 E.74374
G1 X113.279 Y133.959 E.81204
G1 X114.673 Y133.577 E.88037
G1 X116.1 Y133.347 E.9487
G1 X117.519 Y133.275 E1.01587
G1 X118.987 Y133.357 E1.08538
G1 X120.327 Y133.577 E1.14958
G1 X121.721 Y133.959 E1.21791
G1 X123.065 Y134.489 E1.28621
G1 X124.344 Y135.162 E1.35454
G1 X125.613 Y136.022 E1.42701
G1 X126.648 Y136.901 E1.49121
G1 X127.645 Y137.947 E1.55952
G1 X128.524 Y139.095 E1.62787
G1 X129.314 Y140.409 E1.70035
G1 X129.884 Y141.641 E1.76453
G1 X130.371 Y143.081 E1.83639
G1 X130.666 Y144.42 E1.90121
G1 X130.827 Y145.856 E1.96952
G1 X130.831 Y147.301 E2.03783
G1 X130.68 Y148.742 E2.10633
G1 X130.374 Y150.151 E2.17449
G1 X129.917 Y151.523 E2.24286
G1 X129.314 Y152.836 E2.31117
G1 X128.573 Y154.077 E2.3795
G1 X127.645 Y155.298 E2.452
G1 X126.712 Y156.283 E2.51614
G1 X125.543 Y157.276 E2.58865
G1 X124.42 Y158.038 E2.65281
G1 X123.145 Y158.719 E2.72115
G1 X121.804 Y159.258 E2.78948
G1 X120.413 Y159.65 E2.8578
G1 X118.9 Y159.898 E2.93028
G1 X117.456 Y159.971 E2.99863
G1 X116.013 Y159.888 E3.06696
G1 X114.673 Y159.669 E3.13115
G1 X113.279 Y159.286 E3.19949
G1 X111.935 Y158.756 E3.26779
G1 X110.656 Y158.083 E3.33612
G1 X109.387 Y157.223 E3.40859
G1 X108.352 Y156.344 E3.47279
G1 X107.355 Y155.298 E3.5411
G1 X106.476 Y154.15 E3.60945
G1 X105.727 Y152.914 E3.67777
