; generated by PrusaSlicer 2.6.1+linux-x64-GTK3 on 2023-10-31 at 20:50:15 UTC

; 

; external perimeters extrusion width = 0.45mm
; perimeters extrusion width = 0.60mm
; infill extrusion width = 0.60mm
; solid infill extrusion width = 0.60mm
; top infill extrusion width = 0.60mm
; first layer extrusion width = 0.40mm

;TYPE:Custom
; M190 R30 ; Because of probe temperature drift,
; M109 R30 ; Let the beds and hotend cool down before homing the axis

G28 ; home all axes
G1 Z100.0 F3000 ; Raise head above brush
M190 S65 ; set bed temperature and wait for it to be reached
M109 S230 ; set hot end temp and wait for it

; Brush any crap off the nozzle
G1 X232.0 Y0.0 F3000 ; Goto Start of movement
G1 Z19.0 F3000 ; Lower into brush
G1 X221.0 Y2.0 F3000 ; Goto Start of movement
G1 X229.0 Y4.0 F3000 ; 
G1 X221.0 Y6.0 F3000 ; 
G1 X229.0 Y8.0 F3000 ; 
G1 X221.0 Y10.0 F3000 ;
G1 X229.0 Y12.0 F3000 ;
G1 X221.0 Y14.0 F3000 ;
G1 X229.0 Y16.0 F3000 ;
G1 X221.0 Y18.0 F3000 ;
G1 X229.0 Y20.0 F3000 ;
G1 X221.0 Y22.0 F3000 ;
G1 X229.0 Y24.0 F3000 ;
G1 X221.0 Y26.0 F3000 ;
G1 X229.0 Y28.0 F3000 ;
G1 X221.0 Y30.0 F3000 ;
G1 X229.0 Y28.0 F3000 ;
G1 X221.0 Y26.0 F3000 ;
G1 X229.0 Y24.0 F3000 ;
G1 X221.0 Y22.0 F3000 ;
G1 X229.0 Y20.0 F3000 ;
G1 X221.0 Y18.0 F3000 ;
G1 X229.0 Y16.0 F3000 ;
G1 X221.0 Y14.0 F3000 ;
G1 X229.0 Y12.0 F3000 ;
G1 X221.0 Y10.0 F3000 ;
G1 X229.0 Y8.0 F3000 ; 
G1 X221.0 Y6.0 F3000 ; 
G1 X229.0 Y4.0 F3000 ; 
G1 X221.0 Y2.0 F3000 ; 
G1 X229.0 Y0.0 F3000 ; 
G1 X225.0 Y0.0 F3000 ; 
G1 X225.0 Y30.0 F5000 ; 
G1 X225.0 Y0.0 F5000 ; 
G1 X225.0 Y30.0 F5000 ; 
G1 X225.0 Y0.0 F5000 ; 
G1 X225.0 Y30.0 F5000 ; 

; Do a purge line to prime the extruder
G92 E0 ;Reset Extruder
G1 X227.0 Y80.0 F5000 ; Goto Start of purge
G1 Z0.28 F5000 ;Move Head to start height
G1 X227.0 Y230.0 Z0.28 F1500.0 E15; Draw first line
G1 X226.7 Y230.0 Z0.28 F5000.0 ;Move to side a little
G1 X226.7 Y80.0 Z0.28 F1500.0 E30; Draw the second line
G1 Z0.4 F5000; Move Z Axis Up
G1 Y120 F1500; Wipe to the back
G1 X117.5 Y117.5 Z27.0 F5000 ; Raise head above brush
G92 E0 ;Reset Extruder
G21 ; set units to millimeters
G90 ; use absolute coordinates
M82 ; use absolute distances for extrusion
G92 E0
; Filament gcode
SET_PRESSURE_ADVANCE ADVANCE=0.063
M107
;LAYER_CHANGE
;Z:0.35
;HEIGHT:0.35
G1 Z.35 F24000
G1 E-.1 F2400
G92 E0
G1 X122.053 Y107.379 F24000
G1 E.1 F2400
;TYPE:Perimeter
;WIDTH:0.4
G1 F3000
G1 X122.764 Y107.618 E.13546
G1 X124.122 Y108.246 E.20619
G1 X125.405 Y109.018 E.27698
G1 X126.596 Y109.924 E.34772
G1 X127.683 Y110.953 E.41848
G1 X128.652 Y112.094 E.48925
G1 X129.492 Y113.333 E.56002
G1 X130.193 Y114.656 E.6308
G1 X130.747 Y116.046 E.70154
G1 X131.148 Y117.488 E.7723
G1 X131.39 Y118.965 E.84306
G1 X131.471 Y120.46 E.91384
G1 X131.39 Y121.955 E.98462
G1 X131.148 Y123.432 E1.05538
G1 X130.747 Y124.874 E1.12614
G1 X130.193 Y126.265 E1.19692
G1 X129.492 Y127.587 E1.26766
G1 X128.652 Y128.826 E1.33843
G1 X127.683 Y129.967 E1.4092
G1 X126.596 Y130.996 E1.47996
G1 X125.405 Y131.902 E1.5507
G1 X124.122 Y132.674 E1.62149
G1 X122.764 Y133.302 E1.69222
G1 X121.345 Y133.78 E1.76301
G1 X119.883 Y134.102 E1.83378
G1 X118.395 Y134.264 E1.90454
G1 X116.899 Y134.264 E1.97526
G1 X115.41 Y134.102 E2.04607
G1 X113.949 Y133.78 E2.1168
G1 X112.53 Y133.302 E2.18759
G1 X111.172 Y132.674 E2.25832
G1 X109.889 Y131.902 E2.32911
G1 X108.698 Y130.996 E2.39985
G1 X107.611 Y129.967 E2.47061
G1 X106.642 Y128.826 E2.54138
G1 X105.802 Y127.587 E2.61215
G1 X105.101 Y126.265 E2.68289
G1 X104.547 Y124.874 E2.75367
G1 X104.146 Y123.432 E2.82443
G1 X103.904 Y121.955 E2.89519
G1 X103.823 Y120.46 E2.96597
G1 X103.904 Y118.965 E3.03675
G1 X104.146 Y117.488 E3.10751
G1 X104.547 Y116.046 E3.17827
G1 X105.101 Y114.656 E3.24901
G1 X105.802 Y113.333 E3.31979
G1 X106.642 Y112.094 E3.39056
G1 X107.611 Y110.953 E3.46133
G1 X108.698 Y109.924 E3.53209
G1 X109.889 Y109.018 E3.60283
G1 X111.172 Y108.246 E3.67362
G1 X112.53 Y107.618 E3.74435
G1 X113.949 Y107.14 E3.81514
G1 X115.41 Y106.818 E3.88587
G1 X116.899 Y106.656 E3.95668
G1 X118.395 Y106.656 E4.0274
G1 X119.777 Y106.807 E4.09312
G1 X121.348 Y107.141 E4.16905
G1 X121.996 Y107.359 E4.20137
G1 X121.921 Y106.991 F24000
G1 F3000
G1 X122.884 Y107.316 E4.24942
G1 X124.275 Y107.959 E4.32187
G1 X125.587 Y108.749 E4.39427
G1 X126.807 Y109.676 E4.46671
G1 X127.919 Y110.73 E4.53914
G1 X128.911 Y111.897 E4.61155
G1 X129.771 Y113.165 E4.68398
G1 X130.489 Y114.519 E4.75643
G1 X131.056 Y115.942 E4.82885
G1 X131.465 Y117.418 E4.90126
G1 X131.713 Y118.93 E4.9737
G1 X131.796 Y120.46 E5.04614
G1 X131.713 Y121.99 E5.11858
G1 X131.465 Y123.502 E5.19102
G1 X131.056 Y124.978 E5.26343
G1 X130.489 Y126.401 E5.33585
G1 X129.771 Y127.755 E5.4083
G1 X128.911 Y129.023 E5.48073
G1 X127.919 Y130.191 E5.55318
G1 X126.807 Y131.244 E5.62558
G1 X125.587 Y132.171 E5.69802
G1 X124.275 Y132.961 E5.77042
G1 X122.884 Y133.605 E5.84289
G1 X121.432 Y134.094 E5.91532
G1 X119.936 Y134.423 E5.98773
G1 X118.413 Y134.589 E6.06016
G1 X116.881 Y134.589 E6.13259
G1 X115.358 Y134.423 E6.20502
G1 X113.862 Y134.094 E6.27743
G1 X112.41 Y133.605 E6.34986
G1 X111.019 Y132.961 E6.42233
G1 X109.706 Y132.171 E6.49477
G1 X108.487 Y131.244 E6.56717
G1 X107.375 Y130.191 E6.63957
G1 X106.383 Y129.023 E6.71202
G1 X105.523 Y127.755 E6.78445
G1 X104.805 Y126.401 E6.8569
G1 X104.238 Y124.978 E6.92932
G1 X103.828 Y123.502 E7.00174
G1 X103.581 Y121.99 E7.07417
G1 X103.498 Y120.46 E7.14661
G1 X103.581 Y118.93 E7.21905
G1 X103.828 Y117.418 E7.29148
G1 X104.238 Y115.942 E7.3639
G1 X104.805 Y114.519 E7.43632
G1 X105.523 Y113.165 E7.50877
G1 X106.383 Y111.897 E7.5812
G1 X107.375 Y110.73 E7.65361
G1 X108.487 Y109.676 E7.72604
G1 X109.706 Y108.749 E7.79844
G1 X111.019 Y107.959 E7.87088
G1 X112.41 Y107.316 E7.94333
G1 X113.862 Y106.827 E8.01576
G1 X115.358 Y106.497 E8.08818
G1 X116.881 Y106.332 E8.1606
G1 X118.413 Y106.332 E8.23303
G1 X119.828 Y106.485 E8.30031
G1 X121.434 Y106.827 E8.37794
G1 X121.865 Y106.972 E8.39944
G1 X121.52 Y106.513 F24000
;TYPE:External perimeter
G1 F1500
G1 X123.005 Y107.013 E8.47352
G1 X124.427 Y107.672 E8.54761
G1 X125.77 Y108.48 E8.62171
G1 X127.018 Y109.428 E8.6958
G1 X128.156 Y110.506 E8.76991
G1 X129.17 Y111.7 E8.84397
G1 X130.05 Y112.998 E8.91811
G1 X130.784 Y114.382 E8.99217
G1 X131.364 Y115.838 E9.06626
G1 X131.783 Y117.349 E9.14039
G1 X132.037 Y118.895 E9.21446
G1 X132.122 Y120.46 E9.28856
G1 X132.037 Y122.025 E9.36266
G1 X131.783 Y123.572 E9.43677
G1 X131.364 Y125.082 E9.51085
G1 X130.784 Y126.538 E9.58494
G1 X130.05 Y127.923 E9.65904
G1 X129.17 Y129.22 E9.73314
G1 X128.156 Y130.414 E9.8072
G1 X127.018 Y131.492 E9.88131
G1 X125.77 Y132.441 E9.95543
G1 X124.427 Y133.249 E10.02953
G1 X123.005 Y133.907 E10.1036
G1 X121.519 Y134.407 E10.17772
G1 X119.989 Y134.744 E10.25179
G1 X118.431 Y134.914 E10.32588
G1 X116.863 Y134.914 E10.40001
G1 X115.305 Y134.744 E10.4741
G1 X113.775 Y134.407 E10.54817
G1 X112.289 Y133.907 E10.62229
G1 X110.867 Y133.249 E10.69636
G1 X109.524 Y132.441 E10.77046
G1 X108.276 Y131.492 E10.84458
G1 X107.138 Y130.414 E10.91869
G1 X106.124 Y129.22 E10.99275
G1 X105.244 Y127.923 E11.06685
G1 X104.51 Y126.538 E11.14095
G1 X103.93 Y125.082 E11.21504
G1 X103.511 Y123.572 E11.28912
G1 X103.257 Y122.025 E11.36323
G1 X103.172 Y120.46 E11.43733
G1 X103.257 Y118.895 E11.51143
G1 X103.511 Y117.348 E11.58554
G1 X103.93 Y115.838 E11.65962
G1 X104.51 Y114.382 E11.73371
G1 X105.244 Y112.998 E11.80777
G1 X106.124 Y111.7 E11.88191
G1 X107.138 Y110.506 E11.95597
G1 X108.276 Y109.428 E12.03008
G1 X109.524 Y108.48 E12.10417
G1 X110.867 Y107.672 E12.17827
G1 X112.289 Y107.013 E12.25236
G1 X113.775 Y106.513 E12.32648
G1 X115.305 Y106.176 E12.40055
G1 X116.863 Y106.007 E12.47464
G1 X118.431 Y106.007 E12.54877
G1 X119.88 Y106.164 E12.61767
G1 X121.461 Y106.501 E12.69409
G1 X121.62 Y106.901 F24000
G1 E12.59409 F2400
G92 E0
G1 X128.654 Y112.27 F24000
G1 E.1 F2400
;TYPE:Solid infill
;WIDTH:0.402196
G1 F2250
G1 X127.48 Y111.097 E.17899
G1 X126.438 Y110.11 E.2473
G1 X125.268 Y109.22 E.31727
G1 X124.949 Y109.028 E.33499
G1 X129.079 Y113.159 E.61301
G1 X129.283 Y113.459 E.63028
G1 X129.696 Y114.238 E.67225
G1 X123.845 Y108.387 E1.06608
G1 X122.984 Y107.988 E1.11125
G1 X130.116 Y115.121 E1.59134
G1 X130.423 Y115.889 E1.63071
G1 X122.228 Y107.694 E2.18231
G1 X121.53 Y107.459 E2.21736
G1 X130.64 Y116.569 E2.83055
G1 X130.817 Y117.209 E2.86215
G1 X120.903 Y107.296 E3.52942
G1 X120.316 Y107.171 E3.55798
G1 X130.953 Y117.808 E4.27395
G1 X131.044 Y118.361 E4.30062
G1 X119.729 Y107.047 E5.0622
G1 X119.21 Y106.99 E5.08705
G1 X131.135 Y118.914 E5.88968
G1 X131.17 Y119.412 E5.91344
G1 X118.691 Y106.934 E6.75336
G1 X118.382 Y106.9 E6.76816
G1 X118.195 Y106.9 E6.77706
G1 X131.197 Y119.902 E7.65222
G1 X131.223 Y120.391 E7.67553
G1 X117.733 Y106.9 E8.58357
G1 X117.27 Y106.9 E8.60561
G1 X131.207 Y120.837 E9.54371
G1 X131.183 Y121.275 E9.56459
G1 X116.818 Y106.91 E10.53149
G1 X116.401 Y106.956 E10.55146
G1 X131.159 Y121.714 E11.54482
G1 X131.114 Y122.132 E11.56483
G1 X115.983 Y107.001 E12.58329
G1 X115.566 Y107.046 E12.60325
G1 X131.049 Y122.529 E13.64541
G1 X130.984 Y122.927 E13.6646
G1 X115.176 Y107.119 E14.72863
G1 X114.797 Y107.203 E14.74711
G1 X130.918 Y123.324 E15.83221
G1 X130.823 Y123.691 E15.85025
G1 X114.418 Y107.286 E16.95447
G1 X114.039 Y107.37 E16.97295
G1 X130.722 Y124.053 E18.09588
G1 X130.622 Y124.415 E18.11375
G1 X113.691 Y107.484 E19.25337
G1 X113.345 Y107.601 E19.27075
G1 X130.521 Y124.777 E20.42686
G1 X130.391 Y125.109 E20.44383
G1 X112.999 Y107.717 E21.61448
G1 X112.653 Y107.834 E21.63186
G1 X130.259 Y125.44 E22.81691
G1 X130.128 Y125.771 E22.83385
G1 X112.334 Y107.977 E24.03156
G1 X112.018 Y108.124 E24.04815
G1 X129.996 Y126.102 E25.25824
G1 X129.841 Y126.409 E25.27461
G1 X111.701 Y108.27 E26.49557
G1 X111.385 Y108.416 E26.51214
G1 X129.68 Y126.712 E27.7436
G1 X129.52 Y127.014 E27.75987
G1 X111.088 Y108.581 E29.00056
G1 X110.799 Y108.755 E29.01662
G1 X129.36 Y127.316 E30.26596
G1 X129.186 Y127.605 E30.28202
G1 X110.51 Y108.929 E31.5391
G1 X110.221 Y109.103 E31.55516
G1 X128.999 Y127.88 E32.81907
G1 X128.812 Y128.156 E32.83494
G1 X109.941 Y109.285 E34.10514
G1 X109.678 Y109.485 E34.12087
G1 X128.625 Y128.432 E35.39619
G1 X128.436 Y128.705 E35.41199
G1 X109.415 Y109.684 E36.69229
G1 X109.153 Y109.884 E36.70798
G1 X128.223 Y128.955 E37.99161
G1 X128.011 Y129.205 E38.00721
G1 X108.89 Y110.084 E39.29424
G1 X108.649 Y110.306 E39.30984
G1 X127.798 Y129.455 E40.59875
G1 X127.586 Y129.705 E40.61435
G1 X108.411 Y110.531 E41.90498
G1 X108.174 Y110.756 E41.92053
G1 X127.358 Y129.94 E43.2118
G1 X127.12 Y130.165 E43.22739
G1 X107.936 Y110.981 E44.51866
G1 X107.788 Y111.121 E44.52836
G1 X107.708 Y111.215 E44.53423
G1 X126.883 Y130.39 E45.82489
G1 X126.645 Y130.615 E45.84048
G1 X107.496 Y111.465 E47.12943
G1 X107.283 Y111.715 E47.14506
G1 X126.404 Y130.836 E48.43209
G1 X126.141 Y131.036 E48.44782
G1 X107.071 Y111.966 E49.73142
G1 X106.858 Y112.216 E49.74705
G1 X125.879 Y131.236 E51.02731
G1 X125.616 Y131.436 E51.04304
G1 X106.669 Y112.489 E52.31836
G1 X106.482 Y112.764 E52.33419
G1 X125.353 Y131.635 E53.60439
G1 X125.073 Y131.818 E53.62031
G1 X106.295 Y113.04 E54.88425
G1 X106.108 Y113.316 E54.90012
G1 X124.784 Y131.991 E56.15716
G1 X124.495 Y132.165 E56.17322
G1 X105.934 Y113.604 E57.42256
G1 X105.774 Y113.906 E57.43883
G1 X124.206 Y132.339 E58.67952
G1 X123.909 Y132.504 E58.69569
G1 X105.613 Y114.209 E59.92715
G1 X105.453 Y114.511 E59.94342
G1 X123.592 Y132.65 E61.16435
G1 X123.276 Y132.797 E61.18094
G1 X105.298 Y114.818 E62.39107
G1 X105.166 Y115.149 E62.40803
G1 X122.96 Y132.943 E63.60574
G1 X122.641 Y133.087 E63.6224
G1 X105.034 Y115.48 E64.80752
G1 X104.903 Y115.811 E64.82446
G1 X122.295 Y133.203 E65.99511
G1 X121.949 Y133.32 E66.01249
G1 X104.773 Y116.143 E67.16864
G1 X104.672 Y116.505 E67.18653
G1 X121.603 Y133.436 E68.32615
G1 X121.255 Y133.551 E68.34359
G1 X104.571 Y116.867 E69.46659
G1 X104.471 Y117.229 E69.48446
G1 X120.876 Y133.634 E70.58868
G1 X120.497 Y133.718 E70.60716
G1 X104.375 Y117.596 E71.69233
G1 X104.31 Y117.994 E71.71152
G1 X120.117 Y133.801 E72.77548
G1 X119.728 Y133.874 E72.79432
G1 X104.245 Y118.391 E73.83648
G1 X104.18 Y118.789 E73.85567
G1 X119.311 Y133.919 E74.8741
G1 X118.893 Y133.965 E74.89411
G1 X104.135 Y119.206 E75.8875
G1 X104.111 Y119.645 E75.90843
G1 X118.476 Y134.01 E76.87533
G1 X118.024 Y134.02 E76.89685
G1 X104.087 Y120.084 E77.83491
G1 X104.071 Y120.53 E77.85615
G1 X117.561 Y134.02 E78.76416
G1 X117.099 Y134.02 E78.78615
G1 X104.097 Y121.019 E79.66128
G1 X104.124 Y121.508 E79.68459
G1 X116.602 Y133.987 E80.52451
G1 X116.083 Y133.93 E80.54936
G1 X104.159 Y122.006 E81.35196
G1 X104.25 Y122.559 E81.37863
G1 X115.564 Y133.874 E82.14021
G1 X114.988 Y133.759 E82.16817
G1 X104.341 Y123.113 E82.88478
G1 X104.384 Y123.379 E82.8976
G1 X104.477 Y123.711 E82.91401
G1 X114.394 Y133.629 E83.58155
G1 X114.014 Y133.545 E83.60007
G1 X113.764 Y133.461 E83.61262
G1 X104.654 Y124.351 E84.22581
G1 X104.778 Y124.796 E84.2478
G1 X104.871 Y125.031 E84.25983
G1 X113.066 Y133.226 E84.81143
G1 X112.621 Y133.076 E84.83378
G1 X112.31 Y132.932 E84.85009
G1 X105.178 Y125.8 E85.33014
G1 X105.322 Y126.162 E85.34868
G1 X105.598 Y126.683 E85.37674
G1 X111.449 Y132.534 E85.77057
G1 X111.286 Y132.458 E85.77913
G1 X110.345 Y131.892 E85.83139
G1 X106.215 Y127.762 E86.10938
G1 X106.836 Y128.678 E86.16205
G1 X107.78 Y129.79 E86.23147
G1 X109.392 Y131.402 E86.33997
M106 S51
;LAYER_CHANGE
;Z:0.65
;HEIGHT:0.3
G1 Z.65 F24000
M104 S225 ; set temperature
M140 S60 ; set bed temperature
G1 E86.23997 F2400
G92 E0
G1 X122.189 Y107.474 F24000
G1 E.1 F2400
;TYPE:Perimeter
;WIDTH:0.6
G1 F6000
G1 X122.746 Y107.662 E.13927
G1 X124.1 Y108.288 E.23892
G1 X125.378 Y109.057 E.33856
G1 X126.566 Y109.96 E.43825
G1 X127.649 Y110.986 E.53791
G1 X128.615 Y112.123 E.63758
G1 X129.452 Y113.357 E.73719
G1 X130.151 Y114.675 E.83686
G1 X130.703 Y116.061 E.93653
G1 X131.102 Y117.499 E1.03623
G1 X131.343 Y118.971 E1.13588
G1 X131.424 Y120.46 E1.2355
G1 X131.343 Y121.95 E1.33519
G1 X131.102 Y123.422 E1.43484
G1 X130.703 Y124.859 E1.53447
G1 X130.151 Y126.245 E1.63414
G1 X129.452 Y127.563 E1.73381
G1 X128.615 Y128.798 E1.83348
G1 X127.649 Y129.935 E1.93315
G1 X126.566 Y130.96 E2.03277
G1 X125.378 Y131.863 E2.13246
G1 X124.1 Y132.632 E2.2321
G1 X122.746 Y133.259 E2.33178
G1 X121.333 Y133.735 E2.43139
G1 X119.876 Y134.056 E2.53106
G1 X118.393 Y134.217 E2.63071
G1 X116.901 Y134.217 E2.73038
G1 X115.418 Y134.056 E2.83003
G1 X113.961 Y133.735 E2.9297
G1 X112.548 Y133.259 E3.02931
G1 X111.194 Y132.632 E3.12899
G1 X109.915 Y131.863 E3.22869
G1 X108.728 Y130.96 E3.32833
G1 X107.645 Y129.935 E3.42795
G1 X106.679 Y128.798 E3.52762
G1 X105.842 Y127.563 E3.62729
G1 X105.143 Y126.245 E3.72696
G1 X104.591 Y124.859 E3.82663
G1 X104.192 Y123.422 E3.92626
G1 X103.951 Y121.95 E4.02591
G1 X103.87 Y120.46 E4.1256
G1 X103.951 Y118.971 E4.22522
G1 X104.192 Y117.499 E4.32487
G1 X104.591 Y116.061 E4.42457
G1 X105.143 Y114.675 E4.52424
G1 X105.842 Y113.357 E4.62391
G1 X106.679 Y112.123 E4.72352
G1 X107.645 Y110.986 E4.82319
G1 X108.728 Y109.96 E4.92285
G1 X109.915 Y109.057 E5.02249
G1 X111.194 Y108.288 E5.12219
G1 X112.548 Y107.662 E5.22184
G1 X113.961 Y107.185 E5.32147
G1 X115.418 Y106.865 E5.42113
G1 X116.901 Y106.703 E5.52079
G1 X118.393 Y106.703 E5.62046
G1 X119.876 Y106.865 E5.72012
G1 X121.333 Y107.185 E5.81978
G1 X122.132 Y107.455 E5.87612
G1 X122.045 Y106.86 F24000
G1 F6000
G1 X122.945 Y107.163 E5.93956
G1 X124.351 Y107.814 E6.04307
G1 X125.679 Y108.613 E6.14661
G1 X126.913 Y109.551 E6.25016
G1 X128.038 Y110.617 E6.3537
G1 X129.042 Y111.798 E6.45725
G1 X129.911 Y113.081 E6.56077
G1 X130.637 Y114.45 E6.66429
G1 X131.211 Y115.89 E6.76785
G1 X131.626 Y117.383 E6.87137
G1 X131.876 Y118.913 E6.97494
G1 X131.96 Y120.46 E7.07844
G1 X131.876 Y122.008 E7.18201
G1 X131.626 Y123.537 E7.28551
G1 X131.211 Y125.03 E7.38903
G1 X130.637 Y126.47 E7.49259
G1 X129.911 Y127.839 E7.59611
G1 X129.042 Y129.122 E7.69963
G1 X128.038 Y130.303 E7.80318
G1 X126.913 Y131.369 E7.90672
G1 X125.679 Y132.307 E8.01027
G1 X124.351 Y133.106 E8.11381
