; generated by PrusaSlicer 2.6.1+linux-x64-GTK3 on 2023-11-04 at 01:32:22 UTC

; 

; external perimeters extrusion width = 0.45mm
; perimeters extrusion width = 0.60mm
; infill extrusion width = 0.60mm
; solid infill extrusion width = 0.60mm
; top infill extrusion width = 0.60mm
; first layer extrusion width = 0.40mm

;TYPE:Custom
; M190 R30 ; Because of probe temperature drift,
; M109 R30 ; Let the beds and hotend cool down before homing the axis

G28 ; home all axes
G1 Z100.0 F3000 ; Raise head above brush
M190 S65 ; set bed temperature and wait for it to be reached
M109 S230 ; set hot end temp and wait for it

; Brush any crap off the nozzle
G1 X232.0 Y0.0 F3000 ; Goto Start of movement
G1 Z19.0 F3000 ; Lower into brush
G1 X221.0 Y2.0 F3000 ; Goto Start of movement
G1 X229.0 Y4.0 F3000 ; 
G1 X221.0 Y6.0 F3000 ; 
G1 X229.0 Y8.0 F3000 ; 
G1 X221.0 Y10.0 F3000 ;
G1 X229.0 Y12.0 F3000 ;
G1 X221.0 Y14.0 F3000 ;
G1 X229.0 Y16.0 F3000 ;
G1 X221.0 Y18.0 F3000 ;
G1 X229.0 Y20.0 F3000 ;
G1 X221.0 Y22.0 F3000 ;
G1 X229.0 Y24.0 F3000 ;
G1 X221.0 Y26.0 F3000 ;
G1 X229.0 Y28.0 F3000 ;
G1 X221.0 Y30.0 F3000 ;
G1 X229.0 Y28.0 F3000 ;
G1 X221.0 Y26.0 F3000 ;
G1 X229.0 Y24.0 F3000 ;
G1 X221.0 Y22.0 F3000 ;
G1 X229.0 Y20.0 F3000 ;
G1 X221.0 Y18.0 F3000 ;
G1 X229.0 Y16.0 F3000 ;
G1 X221.0 Y14.0 F3000 ;
G1 X229.0 Y12.0 F3000 ;
G1 X221.0 Y10.0 F3000 ;
G1 X229.0 Y8.0 F3000 ; 
G1 X221.0 Y6.0 F3000 ; 
G1 X229.0 Y4.0 F3000 ; 
G1 X221.0 Y2.0 F3000 ; 
G1 X229.0 Y0.0 F3000 ; 
G1 X225.0 Y0.0 F3000 ; 
G1 X225.0 Y30.0 F5000 ; 
G1 X225.0 Y0.0 F5000 ; 
G1 X225.0 Y30.0 F5000 ; 
G1 X225.0 Y0.0 F5000 ; 
G1 X225.0 Y30.0 F5000 ; 

; Do a purge line to prime the extruder
G92 E0 ;Reset Extruder
G1 X227.0 Y80.0 F5000 ; Goto Start of purge
G1 Z0.28 F5000 ;Move Head to start height
G1 X227.0 Y230.0 Z0.28 F1500.0 E15; Draw first line
G1 X226.7 Y230.0 Z0.28 F5000.0 ;Move to side a little
G1 X226.7 Y80.0 Z0.28 F1500.0 E30; Draw the second line
G1 Z0.4 F5000; Move Z Axis Up
G1 Y120 F1500; Wipe to the back
G1 X117.5 Y117.5 Z27.0 F5000 ; Raise head above brush
G92 E0 ;Reset Extruder
G21 ; set units to millimeters
G90 ; use absolute coordinates
M82 ; use absolute distances for extrusion
G92 E0
; Filament gcode
SET_PRESSURE_ADVANCE ADVANCE=0.063
M107
;LAYER_CHANGE
;Z:0.35
;HEIGHT:0.35
G1 Z.35 F24000
G1 E-.1 F2400
G92 E0
G1 X90.078 Y107.239 F24000
G1 E.1 F2400
;TYPE:Perimeter
;WIDTH:0.4
G1 F3000
G1 X101.378 Y107.231 E.63421
G1 X101.661 Y107.134 E.64835
G1 X101.909 Y106.916 E.66396
G1 X102.054 Y106.598 E.68048
G1 X102.056 Y106.263 E.69632
G1 X101.897 Y105.923 E.71406
G1 X100.746 Y104.469 E.80173
G1 X99.824 Y103.005 E.88352
G1 X99.063 Y101.451 E.96532
G1 X98.473 Y99.824 E1.04714
G1 X98.06 Y98.143 E1.12897
G1 X97.83 Y96.427 E1.21082
G1 X97.785 Y94.697 E1.29263
G1 X97.925 Y92.972 E1.37445
G1 X98.249 Y91.272 E1.45627
G1 X98.698 Y89.795 E1.52925
G1 X98.949 Y89.226 E1.55865
G1 X99.222 Y88.884 E1.57934
G1 X99.561 Y88.609 E1.59998
G1 X99.952 Y88.414 E1.62064
G1 X100.372 Y88.308 E1.64112
G1 X100.813 Y88.294 E1.66198
G1 X101.242 Y88.375 E1.68262
G1 X101.643 Y88.547 E1.70325
G1 X101.999 Y88.801 E1.72392
G1 X102.292 Y89.125 E1.74457
G1 X102.506 Y89.501 E1.76502
G1 X102.637 Y89.922 E1.78586
G1 X102.674 Y90.357 E1.8065
G1 X102.614 Y90.812 E1.8282
G1 X102.193 Y92.194 E1.8965
G1 X101.934 Y93.545 E1.96153
G1 X101.835 Y94.744 E2.01841
G1 X101.862 Y96.034 E2.07941
G1 X102.026 Y97.313 E2.14037
G1 X102.33 Y98.584 E2.20215
G1 X102.789 Y99.864 E2.26644
G1 X103.355 Y101.022 E2.32737
G1 X104.042 Y102.115 E2.3884
G1 X104.795 Y103.074 E2.44604
G1 X105.742 Y104.049 E2.5103
G1 X106.205 Y104.434 E2.53877
G1 X106.737 Y104.87 E2.57129
G1 X107.814 Y105.58 E2.63227
G1 X108.96 Y106.172 E2.69325
G1 X110.163 Y106.638 E2.75424
G1 X111.409 Y106.973 E2.81524
G1 X112.597 Y107.165 E2.87213
G1 X113.884 Y107.238 E2.93307
G1 X115.259 Y107.165 E2.99817
G1 X116.531 Y106.955 E3.05912
G1 X117.774 Y106.611 E3.12009
G1 X118.45 Y106.346 E3.15442
G1 X119.206 Y106.015 E3.19344
G1 X120.116 Y105.536 E3.24206
G1 X121.187 Y104.818 E3.30302
G1 X121.65 Y104.434 E3.33146
G1 X122.176 Y103.99 E3.364
G1 X123.069 Y103.066 E3.42475
G1 X123.861 Y102.047 E3.48576
G1 X124.54 Y100.95 E3.54675
G1 X125.066 Y99.864 E3.6038
G1 X125.53 Y98.57 E3.66879
G1 X125.829 Y97.315 E3.72978
G1 X125.993 Y96.036 E3.79074
G1 X126.02 Y94.746 E3.85174
G1 X125.921 Y93.545 E3.90871
G1 X125.683 Y92.277 E3.9697
G1 X125.29 Y90.97 E4.03422
G1 X125.181 Y90.357 E4.06365
G1 X125.218 Y89.922 E4.08429
G1 X125.347 Y89.505 E4.10493
G1 X125.563 Y89.125 E4.12559
G1 X125.856 Y88.801 E4.14624
G1 X126.212 Y88.547 E4.16691
G1 X126.614 Y88.375 E4.18758
G1 X127.039 Y88.295 E4.20802
G1 X127.48 Y88.308 E4.22888
G1 X127.903 Y88.414 E4.2495
G1 X128.294 Y88.61 E4.27018
G1 X128.631 Y88.882 E4.29065
G1 X128.907 Y89.226 E4.3115
G1 X129.109 Y89.638 E4.33319
G1 X129.607 Y91.272 E4.41395
G1 X129.93 Y92.972 E4.49576
G1 X130.071 Y94.697 E4.57758
G1 X130.025 Y96.427 E4.6594
G1 X129.795 Y98.143 E4.74125
G1 X129.388 Y99.801 E4.82196
G1 X128.792 Y101.451 E4.9049
G1 X128.032 Y103.005 E4.98668
G1 X127.109 Y104.469 E5.0685
G1 X126.058 Y105.797 E5.14856
G1 X125.822 Y106.179 E5.16979
G1 X125.783 Y106.414 E5.18105
G1 X125.85 Y106.75 E5.19725
G1 X126.03 Y107.01 E5.2122
G1 X126.285 Y107.178 E5.22664
G1 X126.595 Y107.239 E5.24158
G1 X138.344 Y107.235 E5.79702
G1 X138.649 Y107.14 E5.81212
G1 X138.909 Y106.916 E5.82834
G1 X139.054 Y106.598 E5.84486
G1 X139.056 Y106.263 E5.8607
G1 X138.897 Y105.923 E5.87844
G1 X137.746 Y104.469 E5.96611
G1 X136.824 Y103.005 E6.0479
G1 X136.063 Y101.451 E6.1297
G1 X135.481 Y99.845 E6.21046
G1 X135.06 Y98.142 E6.29339
G1 X134.83 Y96.427 E6.37519
G1 X134.785 Y94.697 E6.457
G1 X134.925 Y92.972 E6.53882
G1 X135.249 Y91.272 E6.62064
G1 X135.698 Y89.795 E6.69362
G1 X135.949 Y89.225 E6.72306
G1 X136.219 Y88.887 E6.74351
G1 X136.562 Y88.609 E6.76438
G1 X136.949 Y88.416 E6.78482
G1 X137.376 Y88.307 E6.80565
G1 X137.809 Y88.294 E6.82613
G1 X138.242 Y88.376 E6.84696
G1 X138.643 Y88.547 E6.86757
G1 X138.999 Y88.801 E6.88824
G1 X139.292 Y89.125 E6.90889
G1 X139.508 Y89.505 E6.92955
G1 X139.637 Y89.922 E6.95019
G1 X139.674 Y90.357 E6.97083
G1 X139.614 Y90.812 E6.99253
G1 X139.193 Y92.194 E7.06083
G1 X138.934 Y93.545 E7.12586
G1 X138.833 Y94.831 E7.18684
G1 X138.869 Y96.12 E7.2478
G1 X139.042 Y97.4 E7.30886
G1 X139.355 Y98.666 E7.37051
G1 X139.789 Y99.864 E7.43075
G1 X140.314 Y100.947 E7.48765
G1 X140.992 Y102.044 E7.54862
G1 X141.784 Y103.062 E7.6096
G1 X142.742 Y104.049 E7.67463
G1 X143.737 Y104.87 E7.73561
G1 X144.814 Y105.58 E7.79659
G1 X145.96 Y106.172 E7.85757
G1 X146.863 Y106.525 E7.90341
G1 X147.409 Y106.705 E7.93059
G1 X148.409 Y106.973 E7.97953
G1 X149.683 Y107.174 E8.0405
G1 X150.971 Y107.238 E8.10147
G1 X152.259 Y107.165 E8.16246
G1 X153.531 Y106.955 E8.22341
G1 X154.774 Y106.611 E8.28438
G1 X155.974 Y106.136 E8.34539
G1 X156.507 Y105.858 E8.37381
G1 X157.116 Y105.536 E8.40638
G1 X158.187 Y104.818 E8.46734
G1 X159.176 Y103.99 E8.52832
G1 X160.07 Y103.065 E8.58914
G1 X160.861 Y102.047 E8.65009
G1 X161.54 Y100.95 E8.71108
G1 X162.099 Y99.785 E8.77217
G1 X162.53 Y98.57 E8.83312
G1 X162.829 Y97.315 E8.89411
G1 X162.987 Y96.12 E8.9511
G1 X163.022 Y94.831 E9.01206
G1 X162.921 Y93.545 E9.07304
G1 X162.683 Y92.277 E9.13403
G1 X162.29 Y90.97 E9.19855
G1 X162.181 Y90.357 E9.22798
G1 X162.218 Y89.922 E9.24862
G1 X162.347 Y89.505 E9.26926
G1 X162.563 Y89.125 E9.28992
G1 X162.856 Y88.801 E9.31057
G1 X163.212 Y88.547 E9.33124
G1 X163.614 Y88.375 E9.35191
G1 X164.152 Y88.288 E9.37767
G1 X164.694 Y88.349 E9.40346
G1 X165.104 Y88.501 E9.42413
G1 X165.471 Y88.738 E9.44478
G1 X165.779 Y89.047 E9.46541
G1 X166.103 Y89.617 E9.49641
G1 X166.607 Y91.272 E9.5782
G1 X166.93 Y92.972 E9.66001
G1 X167.071 Y94.697 E9.74183
G1 X167.025 Y96.427 E9.82365
G1 X166.795 Y98.143 E9.9055
G1 X166.388 Y99.801 E9.98621
G1 X165.792 Y101.451 E10.06915
G1 X165.032 Y103.005 E10.15093
G1 X164.121 Y104.45 E10.23169
G1 X163.059 Y105.795 E10.31271
G1 X162.822 Y106.179 E10.33404
G1 X162.783 Y106.414 E10.3453
G1 X162.85 Y106.75 E10.3615
G1 X163.053 Y107.031 E10.37789
G1 X163.298 Y107.183 E10.39152
G1 X163.595 Y107.239 E10.40581
G1 X167.578 Y107.239 E10.59411
G1 X167.578 Y111.455 E10.79342
G1 X167.622 Y111.719 E10.80607
G1 X167.796 Y112.009 E10.82206
G1 X168.13 Y112.224 E10.84084
G1 X168.319 Y112.264 E10.84997
G1 X168.796 Y112.158 E10.87307
G1 X169.578 Y111.707 E10.91575
G1 X169.578 Y115.093 E11.07583
G1 X168.796 Y114.641 E11.11853
G1 X168.413 Y114.533 E11.13734
G1 X168.13 Y114.575 E11.15087
G1 X167.796 Y114.791 E11.16967
G1 X167.652 Y115.005 E11.18186
G1 X167.578 Y115.345 E11.19831
G1 X167.578 Y119.635 E11.40112
G1 X165.691 Y119.815 E11.49073
G1 X163.072 Y120.342 E11.61703
G1 X160.522 Y121.14 E11.74335
G1 X158.069 Y122.199 E11.86966
G1 X155.812 Y123.462 E11.99193
G1 X153.56 Y125.052 E12.12226
G1 X151.555 Y126.813 E12.24842
G1 X149.74 Y128.778 E12.37488
G1 X148.142 Y130.919 E12.50118
G1 X146.776 Y133.215 E12.62748
G1 X145.657 Y135.64 E12.75374
G1 X144.796 Y138.17 E12.88008
G1 X144.205 Y140.768 E13.00604
G1 X143.886 Y143.427 E13.13265
G1 X143.847 Y146.099 E13.25898
G1 X144.074 Y148.676 E13.38128
G1 X144.581 Y151.299 E13.50758
G1 X145.436 Y154.111 E13.64653
G1 X145.503 Y154.619 E13.67075
G1 X145.462 Y155.108 E13.69395
G1 X145.317 Y155.577 E13.71716
G1 X145.074 Y156.003 E13.74035
G1 X144.745 Y156.368 E13.76358
G1 X144.345 Y156.653 E13.7868
G1 X143.894 Y156.846 E13.80999
G1 X143.411 Y156.937 E13.83323
G1 X142.92 Y156.922 E13.85645
G1 X142.444 Y156.802 E13.87966
G1 X142.008 Y156.585 E13.90268
G1 X141.623 Y156.274 E13.92608
G1 X141.317 Y155.89 E13.94929
G1 X141.09 Y155.429 E13.97358
G1 X140.183 Y152.47 E14.11989
G1 X139.583 Y149.411 E14.26726
G1 X139.305 Y146.348 E14.41266
G1 X139.342 Y143.189 E14.56201
G1 X139.704 Y140.093 E14.70937
G1 X140.633 Y135.917 E14.91162
G1 X140.754 Y134.889 E14.96055
G1 X140.764 Y134.44 E14.98178
G1 X140.77 Y133.687 E15.01738
G1 X140.678 Y132.656 E15.06631
G1 X140.448 Y131.476 E15.12315
G1 X140.146 Y130.486 E15.17208
G1 X139.679 Y129.378 E15.22892
G1 X139.181 Y128.471 E15.27784
G1 X138.813 Y127.931 E15.30873
G1 X138.258 Y127.204 E15.35197
G1 X137.772 Y126.637 E15.38727
G1 X137.485 Y126.44 E15.40373
G1 X137.146 Y126.381 E15.42
G1 X136.835 Y126.457 E15.43514
G1 X136.561 Y126.666 E15.45143
G1 X135.774 Y127.597 E15.50906
G1 X135.161 Y128.498 E15.56058
G1 X134.562 Y129.628 E15.62104
G1 X134.137 Y130.704 E15.67573
G1 X133.824 Y131.845 E15.73166
G1 X133.648 Y132.92 E15.78316
G1 X133.623 Y133.29 E15.80069
G1 X130.739 Y133.29 E15.93703
G1 X130.438 Y133.336 E15.95143
G1 X130.143 Y133.519 E15.96784
G1 X129.962 Y133.78 E15.98286
G1 X129.903 Y133.996 E15.99345
G1 X130.004 Y134.508 E16.01812
G1 X130.456 Y135.29 E16.06082
G1 X126.399 Y135.29 E16.25262
G1 X126.851 Y134.508 E16.29532
G1 X126.953 Y133.996 E16.32
G1 X126.893 Y133.78 E16.3306
G1 X126.712 Y133.519 E16.34562
G1 X126.479 Y133.361 E16.35893
G1 X126.147 Y133.29 E16.37498
G1 X123.232 Y133.29 E16.51279
G1 X123.208 Y132.92 E16.53032
G1 X123.012 Y131.759 E16.58598
G1 X122.692 Y130.626 E16.64164
G1 X122.288 Y129.615 E16.69311
G1 X121.694 Y128.498 E16.75292
G1 X121.081 Y127.597 E16.80444
G1 X120.76 Y127.212 E16.82814
G1 X120.254 Y126.622 E16.86489
G1 X119.971 Y126.436 E16.8809
G1 X119.654 Y126.381 E16.89611
G1 X119.336 Y126.455 E16.91155
G1 X119.059 Y126.664 E16.92795
G1 X118.359 Y127.482 E16.97885
G1 X117.668 Y128.483 E17.03635
G1 X117.176 Y129.378 E17.08463
G1 X116.709 Y130.486 E17.14147
G1 X116.408 Y131.476 E17.19039
G1 X116.306 Y131.974 E17.21442
G1 X116.177 Y132.656 E17.24723
G1 X116.085 Y133.687 E17.29616
G1 X116.102 Y134.889 E17.35299
G1 X116.222 Y135.917 E17.40192
G1 X117.151 Y140.093 E17.60417
G1 X117.514 Y143.19 E17.75158
G1 X117.554 Y146.307 E17.89895
G1 X117.272 Y149.411 E18.0463
G1 X116.672 Y152.47 E18.19367
G1 X115.765 Y155.429 E18.33998
G1 X115.538 Y155.89 E18.36427
G1 X115.232 Y156.274 E18.38748
G1 X114.853 Y156.58 E18.41051
G1 X114.41 Y156.802 E18.43394
G1 X113.935 Y156.922 E18.4571
G1 X113.444 Y156.937 E18.48032
G1 X112.962 Y156.846 E18.50351
G1 X112.51 Y156.653 E18.52675
G1 X112.111 Y156.368 E18.54993
G1 X111.782 Y156.003 E18.57316
G1 X111.539 Y155.577 E18.59635
G1 X111.394 Y155.112 E18.61938
G1 X111.352 Y154.618 E18.64282
G1 X111.42 Y154.11 E18.66705
G1 X112.287 Y151.246 E18.80852
G1 X112.796 Y148.567 E18.93744
G1 X113.017 Y145.841 E19.06674
G1 X112.957 Y143.392 E19.18255
G1 X112.946 Y143.113 E19.19575
G1 X112.585 Y140.408 E19.32476
G1 X111.938 Y137.756 E19.45381
G1 X111.013 Y135.189 E19.5828
G1 X109.823 Y132.74 E19.71152
G1 X108.372 Y130.421 E19.84084
G1 X106.686 Y128.275 E19.96986
G1 X104.781 Y126.321 E20.09887
G1 X102.679 Y124.58 E20.2279
G1 X100.404 Y123.074 E20.35688
G1 X98.841 Y122.26 E20.44019
G1 X97.981 Y121.818 E20.4859
G1 X95.521 Y120.854 E20.61081
G1 X92.889 Y120.13 E20.73986
G1 X90.196 Y119.691 E20.86885
G1 X87.384 Y119.541 E21.00198
G1 X84.659 Y119.691 E21.131
G1 X81.966 Y120.13 E21.25999
G1 X79.335 Y120.854 E21.389
G1 X76.799 Y121.852 E21.51784
G1 X74.451 Y123.074 E21.64298
G1 X72.106 Y124.632 E21.77608
G1 X70.01 Y126.38 E21.90511
G1 X68.112 Y128.341 E22.03413
G1 X66.483 Y130.421 E22.15903
G1 X64.979 Y132.841 E22.29373
G1 X63.809 Y135.269 E22.42115
G1 X62.892 Y137.839 E22.55015
G1 X62.254 Y140.493 E22.67919
G1 X61.909 Y143.113 E22.80412
G1 X61.838 Y145.841 E22.93313
G1 X62.059 Y148.561 E23.06214
G1 X62.588 Y151.326 E23.19523
G1 X63.436 Y154.11 E23.33282
G1 X63.503 Y154.619 E23.35709
G1 X63.462 Y155.108 E23.38029
G1 X63.317 Y155.577 E23.4035
G1 X63.074 Y156.003 E23.42669
G1 X62.745 Y156.368 E23.44992
G1 X62.345 Y156.653 E23.47314
G1 X61.894 Y156.846 E23.49633
G1 X61.411 Y156.937 E23.51957
G1 X60.92 Y156.922 E23.54279
G1 X60.444 Y156.802 E23.566
G1 X60.005 Y156.583 E23.58919
G1 X59.626 Y156.276 E23.61225
G1 X59.317 Y155.89 E23.63563
G1 X59.09 Y155.428 E23.65997
G1 X58.217 Y152.604 E23.79971
G1 X57.623 Y149.684 E23.94058
G1 X57.32 Y146.72 E24.08144
G1 X57.311 Y143.74 E24.22232
G1 X57.596 Y140.774 E24.36319
G1 X58.173 Y137.85 E24.50409
G1 X59.035 Y134.998 E24.64494
G1 X60.175 Y132.245 E24.78581
G1 X61.581 Y129.617 E24.92671
G1 X63.794 Y126.318 E25.11451
G1 X64.321 Y125.347 E25.16674
G1 X64.721 Y124.398 E25.21543
G1 X65.058 Y123.28 E25.27063
G1 X65.242 Y122.408 E25.31276
G1 X65.36 Y121.373 E25.36201
G1 X65.381 Y120.395 E25.40826
G1 X65.097 Y109.332 E25.93144
G1 X65.036 Y108.518 E25.97003
G1 X64.872 Y107.538 E26.017
G1 X64.619 Y106.576 E26.06403
G1 X64.307 Y105.711 E26.1075
G1 X63.857 Y104.746 E26.15784
G1 X62.544 Y102.482 E26.28157
G1 X61.868 Y100.97 E26.35987
G1 X61.35 Y99.397 E26.43816
G1 X60.996 Y97.778 E26.51651
G1 X60.809 Y96.132 E26.59483
G1 X60.792 Y94.475 E26.67317
G1 X60.943 Y92.847 E26.75047
G1 X61.267 Y91.2 E26.82983
G1 X61.698 Y89.793 E26.8994
G1 X61.949 Y89.225 E26.92876
G1 X62.219 Y88.887 E26.94921
G1 X62.562 Y88.609 E26.97008
G1 X62.952 Y88.414 E26.99069
G1 X63.376 Y88.307 E27.01136
G1 X63.812 Y88.294 E27.03198
G1 X64.242 Y88.375 E27.05267
G1 X64.643 Y88.547 E27.0733
G1 X64.999 Y88.801 E27.09397
G1 X65.292 Y89.125 E27.11462
G1 X65.508 Y89.505 E27.13528
G1 X65.637 Y89.922 E27.15592
G1 X65.674 Y90.357 E27.17656
G1 X65.614 Y90.812 E27.19826
G1 X65.173 Y92.274 E27.27045
G1 X64.946 Y93.459 E27.32749
G1 X64.837 Y94.725 E27.38756
G1 X64.869 Y96.12 E27.45353
G1 X65.008 Y97.182 E27.50416
G1 X65.042 Y97.398 E27.5145
G1 X65.35 Y98.651 E27.5755
G1 X65.789 Y99.864 E27.63649
G1 X66.355 Y101.022 E27.69742
G1 X66.992 Y102.044 E27.75435
G1 X67.443 Y102.627 E27.7892
G1 X68.069 Y103.362 E27.83484
G1 X68.742 Y104.049 E27.88031
G1 X69.737 Y104.87 E27.94129
G1 X70.53 Y105.397 E27.9863
G1 X71.169 Y105.765 E28.02116
G1 X71.96 Y106.172 E28.06321
G1 X73.081 Y106.611 E28.12012
G1 X74.324 Y106.955 E28.18109
G1 X75.683 Y107.174 E28.24617
G1 X76.884 Y107.238 E28.30303
G1 X78.259 Y107.165 E28.36813
G1 X79.531 Y106.955 E28.42908
G1 X80.692 Y106.638 E28.48598
G1 X81.974 Y106.136 E28.55107
G1 X83.116 Y105.536 E28.61206
G1 X84.187 Y104.818 E28.67302
G1 X85.176 Y103.99 E28.734
G1 X86.07 Y103.065 E28.79482
G1 X86.813 Y102.115 E28.85184
G1 X87.54 Y100.95 E28.91676
G1 X88.099 Y99.785 E28.97785
G1 X88.53 Y98.57 E29.0388
