; generated by PrusaSlicer 2.6.1+linux-x64-GTK3 on 2023-11-02 at 14:27:28 UTC

; 

; external perimeters extrusion width = 0.45mm
; perimeters extrusion width = 0.60mm
; infill extrusion width = 0.60mm
; solid infill extrusion width = 0.60mm
; top infill extrusion width = 0.60mm
; first layer extrusion width = 0.40mm

;TYPE:Custom
; M190 R30 ; Because of probe temperature drift,
; M109 R30 ; Let the beds and hotend cool down before homing the axis

G28 ; home all axes
G1 Z100.0 F3000 ; Raise head above brush
M190 S65 ; set bed temperature and wait for it to be reached
M109 S230 ; set hot end temp and wait for it

; Brush any crap off the nozzle
G1 X232.0 Y0.0 F3000 ; Goto Start of movement
G1 Z19.0 F3000 ; Lower into brush
G1 X221.0 Y2.0 F3000 ; Goto Start of movement
G1 X229.0 Y4.0 F3000 ; 
G1 X221.0 Y6.0 F3000 ; 
G1 X229.0 Y8.0 F3000 ; 
G1 X221.0 Y10.0 F3000 ;
G1 X229.0 Y12.0 F3000 ;
G1 X221.0 Y14.0 F3000 ;
G1 X229.0 Y16.0 F3000 ;
G1 X221.0 Y18.0 F3000 ;
G1 X229.0 Y20.0 F3000 ;
G1 X221.0 Y22.0 F3000 ;
G1 X229.0 Y24.0 F3000 ;
G1 X221.0 Y26.0 F3000 ;
G1 X229.0 Y28.0 F3000 ;
G1 X221.0 Y30.0 F3000 ;
G1 X229.0 Y28.0 F3000 ;
G1 X221.0 Y26.0 F3000 ;
G1 X229.0 Y24.0 F3000 ;
G1 X221.0 Y22.0 F3000 ;
G1 X229.0 Y20.0 F3000 ;
G1 X221.0 Y18.0 F3000 ;
G1 X229.0 Y16.0 F3000 ;
G1 X221.0 Y14.0 F3000 ;
G1 X229.0 Y12.0 F3000 ;
G1 X221.0 Y10.0 F3000 ;
G1 X229.0 Y8.0 F3000 ; 
G1 X221.0 Y6.0 F3000 ; 
G1 X229.0 Y4.0 F3000 ; 
G1 X221.0 Y2.0 F3000 ; 
G1 X229.0 Y0.0 F3000 ; 
G1 X225.0 Y0.0 F3000 ; 
G1 X225.0 Y30.0 F5000 ; 
G1 X225.0 Y0.0 F5000 ; 
G1 X225.0 Y30.0 F5000 ; 
G1 X225.0 Y0.0 F5000 ; 
G1 X225.0 Y30.0 F5000 ; 

; Do a purge line to prime the extruder
G92 E0 ;Reset Extruder
G1 X227.0 Y80.0 F5000 ; Goto Start of purge
G1 Z0.28 F5000 ;Move Head to start height
G1 X227.0 Y230.0 Z0.28 F1500.0 E15; Draw first line
G1 X226.7 Y230.0 Z0.28 F5000.0 ;Move to side a little
G1 X226.7 Y80.0 Z0.28 F1500.0 E30; Draw the second line
G1 Z0.4 F5000; Move Z Axis Up
G1 Y120 F1500; Wipe to the back
G1 X117.5 Y117.5 Z27.0 F5000 ; Raise head above brush
G92 E0 ;Reset Extruder
G21 ; set units to millimeters
G90 ; use absolute coordinates
M82 ; use absolute distances for extrusion
G92 E0
; Filament gcode
SET_PRESSURE_ADVANCE ADVANCE=0.063
M107
;LAYER_CHANGE
;Z:0.35
;HEIGHT:0.35
G1 Z.35 F24000
G1 E-.1 F2400
G92 E0
G1 X80.729 Y87.812 F24000
G1 E.1 F2400
;TYPE:Perimeter
;WIDTH:0.4
G1 F3000
G1 X82.528 Y88.008 E.18555
G1 X85.343 Y88.628 E.32182
G1 X88.075 Y89.548 E.4581
G1 X90.691 Y90.758 E.59436
G1 X93.161 Y92.245 E.73066
G1 X95.456 Y93.989 E.86693
G1 X97.549 Y95.972 E1.00324
G1 X99.416 Y98.169 E1.13954
G1 X101.033 Y100.555 E1.2758
G1 X102.384 Y103.102 E1.4121
G1 X103.451 Y105.78 E1.54838
G1 X104.222 Y108.558 E1.68468
G1 X104.688 Y111.402 E1.82092
G1 X104.844 Y114.281 E1.95723
G1 X104.688 Y117.16 E2.09354
G1 X104.222 Y120.004 E2.22978
G1 X103.451 Y122.782 E2.36608
G1 X102.384 Y125.46 E2.50236
G1 X101.033 Y128.007 E2.63866
G1 X99.416 Y130.393 E2.77492
G1 X97.549 Y132.59 E2.91122
G1 X95.456 Y134.573 E3.04753
G1 X93.161 Y136.317 E3.1838
G1 X90.691 Y137.804 E3.3201
G1 X88.075 Y139.014 E3.45636
G1 X85.343 Y139.935 E3.59266
G1 X82.528 Y140.554 E3.72892
G1 X79.662 Y140.866 E3.86521
G1 X76.779 Y140.866 E4.00151
G1 X73.913 Y140.554 E4.1378
G1 X71.098 Y139.935 E4.27406
G1 X68.366 Y139.014 E4.41036
G1 X65.749 Y137.804 E4.54666
G1 X63.279 Y136.317 E4.68296
G1 X60.984 Y134.573 E4.81923
G1 X58.891 Y132.59 E4.95554
G1 X57.025 Y130.393 E5.09181
G1 X55.407 Y128.007 E5.2281
G1 X54.057 Y125.46 E5.36438
G1 X52.99 Y122.782 E5.50066
G1 X52.219 Y120.004 E5.63696
G1 X51.752 Y117.16 E5.77321
G1 X51.596 Y114.281 E5.90952
G1 X51.752 Y111.402 E6.04583
G1 X52.219 Y108.558 E6.18208
G1 X52.99 Y105.78 E6.31838
G1 X54.057 Y103.102 E6.45466
G1 X55.407 Y100.555 E6.59094
G1 X57.025 Y98.169 E6.72723
G1 X58.891 Y95.972 E6.8635
G1 X60.984 Y93.989 E6.99981
G1 X63.279 Y92.245 E7.13608
G1 X65.749 Y90.758 E7.27238
G1 X68.366 Y89.548 E7.40868
G1 X71.098 Y88.628 E7.54496
G1 X73.913 Y88.008 E7.68123
G1 X76.779 Y87.696 E7.81752
G1 X79.662 Y87.696 E7.95382
G1 X80.669 Y87.806 E8.00171
G1 X80.518 Y87.462 F24000
G1 F3000
G1 X82.58 Y87.687 E8.09977
G1 X85.43 Y88.314 E8.23773
G1 X88.195 Y89.246 E8.37567
G1 X90.844 Y90.471 E8.51365
G1 X93.344 Y91.975 E8.65158
G1 X95.667 Y93.741 E8.78953
G1 X97.785 Y95.748 E8.92747
G1 X99.675 Y97.972 E9.06545
G1 X101.312 Y100.387 E9.20338
G1 X102.679 Y102.965 E9.34133
G1 X103.759 Y105.676 E9.47929
G1 X104.54 Y108.488 E9.61726
G1 X105.012 Y111.367 E9.75518
G1 X105.17 Y114.281 E9.89314
G1 X105.012 Y117.195 E10.0311
G1 X104.54 Y120.074 E10.16902
G1 X103.759 Y122.886 E10.30699
G1 X102.679 Y125.597 E10.44495
G1 X101.312 Y128.175 E10.5829
G1 X99.675 Y130.59 E10.72083
G1 X97.785 Y132.814 E10.85881
G1 X95.667 Y134.821 E10.99675
G1 X93.344 Y136.587 E11.1347
G1 X90.844 Y138.091 E11.27263
G1 X88.195 Y139.316 E11.41061
G1 X85.43 Y140.248 E11.54855
G1 X82.58 Y140.875 E11.68651
G1 X79.679 Y141.191 E11.82447
G1 X76.761 Y141.191 E11.96242
G1 X73.86 Y140.875 E12.10038
G1 X71.011 Y140.248 E12.23829
G1 X68.245 Y139.316 E12.37628
G1 X65.597 Y138.091 E12.51421
G1 X63.097 Y136.587 E12.65214
G1 X60.774 Y134.821 E12.79009
G1 X58.655 Y132.814 E12.92807
G1 X56.766 Y130.59 E13.06602
G1 X55.129 Y128.175 E13.20395
G1 X53.762 Y125.597 E13.3419
G1 X52.682 Y122.886 E13.47986
G1 X51.901 Y120.074 E13.61783
G1 X51.429 Y117.195 E13.75575
G1 X51.271 Y114.281 E13.89371
G1 X51.429 Y111.367 E14.03167
G1 X51.901 Y108.488 E14.16959
G1 X52.682 Y105.676 E14.30756
G1 X53.762 Y102.965 E14.44552
G1 X55.129 Y100.387 E14.58347
G1 X56.766 Y97.972 E14.7214
G1 X58.655 Y95.748 E14.85935
G1 X60.774 Y93.741 E14.99733
G1 X63.097 Y91.975 E15.13528
G1 X65.597 Y90.471 E15.27321
G1 X68.245 Y89.246 E15.41114
G1 X71.011 Y88.314 E15.54913
G1 X73.86 Y87.687 E15.68704
G1 X76.761 Y87.371 E15.825
G1 X79.679 Y87.371 E15.96295
G1 X80.458 Y87.456 E16
G1 X79.697 Y87.046 F24000
;TYPE:External perimeter
G1 F1500
G1 X82.633 Y87.366 E16.13962
G1 X85.517 Y88.001 E16.27923
G1 X88.316 Y88.944 E16.41886
G1 X90.996 Y90.184 E16.55846
G1 X93.527 Y91.706 E16.69808
G1 X95.878 Y93.493 E16.83769
G1 X98.022 Y95.524 E16.97731
G1 X99.934 Y97.775 E17.11694
G1 X101.591 Y100.219 E17.25653
G1 X102.974 Y102.829 E17.39617
G1 X104.067 Y105.572 E17.53576
G1 X104.857 Y108.418 E17.67539
G1 X105.335 Y111.332 E17.81499
G1 X105.495 Y114.281 E17.95461
G1 X105.335 Y117.23 E18.09423
G1 X104.857 Y120.144 E18.23383
G1 X104.067 Y122.99 E18.37346
G1 X102.974 Y125.733 E18.51305
G1 X101.591 Y128.343 E18.65269
G1 X99.934 Y130.787 E18.79228
G1 X98.022 Y133.038 E18.93191
G1 X95.878 Y135.069 E19.07153
G1 X93.527 Y136.856 E19.21114
G1 X90.996 Y138.379 E19.35079
G1 X88.316 Y139.619 E19.49039
G1 X85.517 Y140.562 E19.63002
G1 X82.633 Y141.196 E19.76962
G1 X79.697 Y141.516 E19.90924
G1 X76.744 Y141.516 E20.04884
G1 X73.808 Y141.196 E20.18846
G1 X70.924 Y140.562 E20.32806
G1 X68.125 Y139.619 E20.46769
G1 X65.445 Y138.379 E20.60729
G1 X62.914 Y136.856 E20.74694
G1 X60.563 Y135.069 E20.88655
G1 X58.419 Y133.038 E21.02617
G1 X56.507 Y130.787 E21.1658
G1 X54.85 Y128.343 E21.30539
G1 X53.466 Y125.733 E21.44505
G1 X52.373 Y122.99 E21.58464
G1 X51.583 Y120.144 E21.72427
G1 X51.106 Y117.23 E21.86386
G1 X50.946 Y114.281 E22.00348
G1 X51.106 Y111.332 E22.1431
G1 X51.583 Y108.418 E22.28269
G1 X52.373 Y105.572 E22.42232
G1 X53.466 Y102.829 E22.56191
G1 X54.85 Y100.219 E22.70157
G1 X56.507 Y97.775 E22.84116
G1 X58.419 Y95.524 E22.98079
G1 X60.563 Y93.493 E23.12041
G1 X62.914 Y91.706 E23.26002
G1 X65.445 Y90.184 E23.39964
G1 X68.125 Y88.944 E23.53924
G1 X70.924 Y88.001 E23.67887
G1 X73.808 Y87.366 E23.81848
G1 X76.744 Y87.046 E23.9581
G1 X79.637 Y87.046 E24.09487
G1 X79.878 Y87.403 F24000
G1 E23.99487 F2400
G92 E0
G1 X94.988 Y93.755 F24000
G1 E.1 F2400
;TYPE:Solid infill
;WIDTH:0.400668
G1 F2250
G1 X97.374 Y96.142 E.25988
G1 X99.221 Y98.317 E.39505
G1 X99.501 Y98.729 E.41865
G1 X93.833 Y93.062 E.79835
G1 X93.024 Y92.447 E.84649
G1 X92.356 Y92.044 E.88345
G1 X100.471 Y100.159 E1.42712
G1 X100.824 Y100.681 E1.45697
G1 X101.154 Y101.303 E1.49033
G1 X91.2 Y91.349 E2.1572
G1 X90.577 Y90.974 E2.19165
G1 X90.182 Y90.791 E2.21227
G1 X101.674 Y102.283 E2.98218
G1 X102.18 Y103.25 E3.03388
G1 X89.325 Y90.395 E3.8951
G1 X88.468 Y89.998 E3.93984
G1 X102.485 Y104.016 E4.87895
G1 X102.79 Y104.781 E4.91796
G1 X87.682 Y89.673 E5.93012
G1 X86.988 Y89.439 E5.96482
G1 X103.095 Y105.546 E7.04391
G1 X103.219 Y105.858 E7.05981
G1 X103.324 Y106.236 E7.07839
G1 X86.293 Y89.205 E8.21939
G1 X85.599 Y88.971 E8.25409
G1 X103.501 Y106.873 E9.45344
G1 X103.678 Y107.511 E9.48481
G1 X84.961 Y88.793 E10.73879
G1 X84.37 Y88.663 E10.76746
G1 X103.855 Y108.148 E12.07286
G1 X103.984 Y108.61 E12.09558
G1 X104.008 Y108.761 E12.10282
G1 X83.78 Y88.533 E13.458
G1 X83.19 Y88.403 E13.48662
G1 X104.099 Y109.312 E14.88742
G1 X104.189 Y109.863 E14.91387
G1 X82.599 Y88.273 E16.3603
G1 X82.069 Y88.203 E16.38563
G1 X104.279 Y110.414 E17.87363
G1 X104.369 Y110.964 E17.90003
G1 X81.552 Y88.147 E19.42866
G1 X81.036 Y88.091 E19.45325
G1 X104.45 Y111.505 E21.02188
G1 X104.476 Y111.992 E21.04498
G1 X80.519 Y88.034 E22.65002
G1 X80.002 Y87.978 E22.67465
G1 X104.503 Y112.479 E24.3161
G1 X104.529 Y112.965 E24.33916
G1 X79.503 Y87.94 E26.01575
G1 X79.043 Y87.94 E26.03754
G1 X104.555 Y113.452 E27.74672
G1 X104.582 Y113.939 E27.76983
G1 X78.583 Y87.94 E29.51164
G1 X78.122 Y87.94 E29.53348
G1 X104.593 Y114.411 E31.30691
G1 X104.57 Y114.848 E31.32764
G1 X77.662 Y87.94 E33.13035
G1 X77.201 Y87.94 E33.15219
G1 X104.546 Y115.284 E34.98414
G1 X104.522 Y115.721 E35.00487
G1 X76.746 Y87.945 E36.86573
G1 X76.331 Y87.99 E36.8855
G1 X104.499 Y116.158 E38.77262
G1 X104.475 Y116.594 E38.79331
G1 X75.916 Y88.035 E40.70663
G1 X75.5 Y88.08 E40.72645
G1 X104.451 Y117.031 E42.66603
G1 X104.396 Y117.436 E42.68539
G1 X75.085 Y88.125 E44.64909
G1 X74.67 Y88.171 E44.66887
G1 X104.331 Y117.832 E46.65602
G1 X104.266 Y118.227 E46.67498
G1 X74.255 Y88.216 E48.68557
G1 X73.85 Y88.271 E48.70493
G1 X104.201 Y118.623 E50.73834
G1 X104.137 Y119.019 E50.75734
G1 X73.472 Y88.354 E52.81175
G1 X73.095 Y88.437 E52.83004
G1 X104.072 Y119.414 E54.90535
G1 X104.007 Y119.81 E54.92436
G1 X72.718 Y88.52 E57.02061
G1 X72.34 Y88.604 E57.03895
G1 X103.919 Y120.183 E59.15459
G1 X103.819 Y120.543 E59.17229
G1 X71.963 Y88.687 E61.30649
G1 X71.586 Y88.77 E61.32478
G1 X103.719 Y120.903 E63.47754
G1 X103.619 Y121.264 E63.49529
G1 X71.208 Y88.853 E65.66667
G1 X70.86 Y88.965 E65.68399
G1 X103.519 Y121.624 E67.87199
G1 X103.419 Y121.985 E67.88974
G1 X70.516 Y89.081 E70.09412
G1 X70.171 Y89.197 E70.11136
G1 X103.319 Y122.345 E72.33212
G1 X103.219 Y122.705 E72.34982
G1 X69.827 Y89.313 E74.58693
G1 X69.482 Y89.429 E74.60417
G1 X103.088 Y123.034 E76.85558
G1 X102.957 Y123.364 E76.8724
G1 X69.138 Y89.545 E79.13811
G1 X68.794 Y89.661 E79.15531
G1 X102.826 Y123.693 E81.43529
G1 X102.694 Y124.022 E81.45208
G1 X68.45 Y89.778 E83.74627
G1 X68.135 Y89.923 E83.7627
G1 X102.563 Y124.351 E86.06921
G1 X102.432 Y124.681 E86.08603
G1 X67.82 Y90.069 E88.40487
G1 X67.506 Y90.214 E88.42125
G1 X102.301 Y125.01 E90.75238
G1 X102.17 Y125.339 E90.76916
G1 X67.191 Y90.36 E93.11259
G1 X66.876 Y90.506 E93.12904
G1 X102.012 Y125.641 E95.48295
G1 X101.852 Y125.942 E95.4991
G1 X66.561 Y90.651 E97.86343
G1 X66.246 Y90.797 E97.87988
G1 X101.693 Y126.243 E100.25463
G1 X101.533 Y126.544 E100.27078
G1 X65.932 Y90.943 E102.65588
G1 X65.638 Y91.11 E102.6719
G1 X101.374 Y126.845 E105.06601
G1 X101.214 Y127.146 E105.08216
G1 X65.351 Y91.283 E107.48481
G1 X65.063 Y91.456 E107.50073
G1 X101.055 Y127.447 E109.91199
G1 X100.895 Y127.748 E109.92814
G1 X64.776 Y91.629 E112.34794
G1 X64.489 Y91.802 E112.36382
G1 X100.721 Y128.034 E114.79119
G1 X100.535 Y128.308 E114.80688
G1 X64.201 Y91.974 E117.24109
G1 X63.914 Y92.147 E117.25697
G1 X100.349 Y128.583 E119.69798
G1 X100.163 Y128.857 E119.71367
G1 X63.626 Y92.32 E122.16148
G1 X63.346 Y92.5 E122.17725
G1 X99.977 Y129.131 E124.63135
G1 X99.791 Y129.406 E124.64708
G1 X63.084 Y92.699 E127.10628
G1 X62.823 Y92.898 E127.12183
G1 X99.605 Y129.68 E129.58605
G1 X99.419 Y129.954 E129.60174
G1 X62.561 Y93.097 E132.07102
G1 X62.299 Y93.296 E132.08661
G1 X99.233 Y130.229 E134.56098
G1 X99.221 Y130.246 E134.56197
G1 X99.023 Y130.479 E134.57646
G1 X62.038 Y93.495 E137.05425
G1 X61.776 Y93.693 E137.06981
G1 X98.811 Y130.728 E139.55098
G1 X98.6 Y130.977 E139.56644
G1 X61.515 Y93.892 E142.05096
G1 X61.253 Y94.091 E142.06655
G1 X98.388 Y131.226 E144.55442
G1 X98.177 Y131.475 E144.56988
G1 X61.006 Y94.304 E147.06016
G1 X60.77 Y94.528 E147.07557
G1 X97.965 Y131.724 E149.56749
G1 X97.754 Y131.973 E149.58295
G1 X60.533 Y94.752 E152.07658
G1 X60.297 Y94.976 E152.09199
G1 X97.542 Y132.222 E154.58726
G1 X97.326 Y132.466 E154.6027
G1 X60.06 Y95.2 E157.09935
G1 X59.824 Y95.424 E157.11476
G1 X97.09 Y132.69 E159.61141
G1 X96.853 Y132.914 E159.62686
G1 X59.587 Y95.648 E162.12351
G1 X59.351 Y95.872 E162.13892
G1 X96.617 Y133.138 E164.63557
G1 X96.38 Y133.362 E164.65102
G1 X59.115 Y96.096 E167.14763
G1 X58.898 Y96.34 E167.1631
G1 X96.144 Y133.586 E169.65841
G1 X95.907 Y133.81 E169.67386
G1 X58.687 Y96.589 E172.16746
G1 X58.475 Y96.838 E172.18295
G1 X95.671 Y134.034 E174.67491
G1 X95.435 Y134.258 E174.69032
G1 X58.264 Y97.087 E177.1806
G1 X58.052 Y97.336 E177.19609
G1 X95.188 Y134.471 E179.68399
G1 X94.926 Y134.67 E179.69958
G1 X57.841 Y97.585 E182.1841
G1 X57.629 Y97.834 E182.19959
G1 X94.664 Y134.869 E184.68076
G1 X94.403 Y135.068 E184.69631
G1 X57.418 Y98.083 E187.17413
G1 X57.208 Y98.333 E187.1896
G1 X94.141 Y135.266 E189.66394
G1 X93.88 Y135.465 E189.67949
G1 X57.022 Y98.608 E192.14877
G1 X56.836 Y98.882 E192.16446
G1 X93.618 Y135.664 E194.62868
G1 X93.357 Y135.863 E194.64423
G1 X56.65 Y99.156 E197.10343
G1 X56.464 Y99.431 E197.11916
G1 X93.095 Y136.062 E199.57326
G1 X92.815 Y136.242 E199.58903
G1 X56.278 Y99.705 E202.03684
G1 X56.092 Y99.98 E202.05257
G1 X92.527 Y136.415 E204.49354
G1 X92.24 Y136.588 E204.50942
G1 X55.906 Y100.254 E206.94363
G1 X55.72 Y100.528 E206.95932
G1 X91.952 Y136.761 E209.38673
G1 X91.665 Y136.934 E209.40261
G1 X55.546 Y100.815 E211.82241
G1 X55.386 Y101.115 E211.83852
G1 X91.377 Y137.107 E214.24978
G1 X91.09 Y137.28 E214.26566
G1 X55.227 Y101.416 E216.66834
G1 X55.067 Y101.717 E216.68449
G1 X90.802 Y137.452 E219.07857
G1 X90.509 Y137.62 E219.09457
G1 X54.908 Y102.018 E221.4797
G1 X54.748 Y102.319 E221.49585
G1 X90.194 Y137.765 E223.87056
G1 X89.879 Y137.911 E223.88701
G1 X54.588 Y102.62 E226.25134
G1 X54.429 Y102.921 E226.26747
G1 X89.565 Y138.056 E228.62138
G1 X89.25 Y138.202 E228.63783
G1 X54.271 Y103.223 E230.98126
G1 X54.14 Y103.552 E230.99804
G1 X88.935 Y138.348 E233.32917
G1 X88.62 Y138.493 E233.3456
G1 X54.009 Y103.882 E235.66437
G1 X53.878 Y104.211 E235.68115
G1 X88.306 Y138.639 E237.98766
G1 X87.991 Y138.785 E238.00411
G1 X53.746 Y104.54 E240.29836
G1 X53.615 Y104.869 E240.31514
G1 X87.647 Y138.901 E242.59512
G1 X87.303 Y139.017 E242.61232
G1 X53.484 Y105.199 E244.878
G1 X53.353 Y105.528 E244.89478
G1 X86.958 Y139.133 E247.14616
G1 X86.614 Y139.249 E247.16336
G1 X53.222 Y105.857 E249.40047
G1 X53.122 Y106.217 E249.41817
G1 X86.269 Y139.365 E251.6389
G1 X85.925 Y139.481 E251.6561
G1 X53.021 Y106.578 E253.86048
G1 X52.921 Y106.938 E253.87818
G1 X85.581 Y139.597 E256.06621
G1 X85.232 Y139.709 E256.08357
G1 X52.821 Y107.298 E258.25495
G1 X52.721 Y107.659 E258.2727
G1 X84.855 Y139.793 E260.42553
G1 X84.478 Y139.876 E260.44382
G1 X52.621 Y108.019 E262.57809
G1 X52.521 Y108.379 E262.59579
G1 X84.1 Y139.959 E264.71147
G1 X83.723 Y140.042 E264.72976
G1 X52.434 Y108.752 E266.82601
G1 X52.369 Y109.148 E266.84502
G1 X83.346 Y140.125 E268.92033
G1 X82.968 Y140.208 E268.93866
G1 X52.304 Y109.544 E270.993
G1 X52.239 Y109.939 E271.01196
G1 X82.591 Y140.291 E273.0454
G1 X82.186 Y140.346 E273.06476
G1 X52.174 Y110.335 E275.07539
G1 X52.11 Y110.73 E275.09435
G1 X81.771 Y140.392 E277.08153
G1 X81.356 Y140.437 E277.1013
G1 X52.045 Y111.126 E279.065
G1 X51.99 Y111.531 E279.08436
G1 X80.94 Y140.482 E281.02391
G1 X80.525 Y140.527 E281.04368
G1 X51.966 Y111.968 E282.957
G1 X51.942 Y112.405 E282.97773
