; generated by PrusaSlicer 2.6.1+linux-x64-GTK3 on 2023-11-03 at 14:10:06 UTC

; 

; external perimeters extrusion width = 0.45mm
; perimeters extrusion width = 0.60mm
; infill extrusion width = 0.60mm
; solid infill extrusion width = 0.60mm
; top infill extrusion width = 0.60mm
; first layer extrusion width = 0.40mm

;TYPE:Custom
; M190 R30 ; Because of probe temperature drift,
; M109 R30 ; Let the beds and hotend cool down before homing the axis

G28 ; home all axes
G1 Z100.0 F3000 ; Raise head above brush
M190 S65 ; set bed temperature and wait for it to be reached
M109 S230 ; set hot end temp and wait for it

; Brush any crap off the nozzle
G1 X232.0 Y0.0 F3000 ; Goto Start of movement
G1 Z19.0 F3000 ; Lower into brush
G1 X221.0 Y2.0 F3000 ; Goto Start of movement
G1 X229.0 Y4.0 F3000 ; 
G1 X221.0 Y6.0 F3000 ; 
G1 X229.0 Y8.0 F3000 ; 
G1 X221.0 Y10.0 F3000 ;
G1 X229.0 Y12.0 F3000 ;
G1 X221.0 Y14.0 F3000 ;
G1 X229.0 Y16.0 F3000 ;
G1 X221.0 Y18.0 F3000 ;
G1 X229.0 Y20.0 F3000 ;
G1 X221.0 Y22.0 F3000 ;
G1 X229.0 Y24.0 F3000 ;
G1 X221.0 Y26.0 F3000 ;
G1 X229.0 Y28.0 F3000 ;
G1 X221.0 Y30.0 F3000 ;
G1 X229.0 Y28.0 F3000 ;
G1 X221.0 Y26.0 F3000 ;
G1 X229.0 Y24.0 F3000 ;
G1 X221.0 Y22.0 F3000 ;
G1 X229.0 Y20.0 F3000 ;
G1 X221.0 Y18.0 F3000 ;
G1 X229.0 Y16.0 F3000 ;
G1 X221.0 Y14.0 F3000 ;
G1 X229.0 Y12.0 F3000 ;
G1 X221.0 Y10.0 F3000 ;
G1 X229.0 Y8.0 F3000 ; 
G1 X221.0 Y6.0 F3000 ; 
G1 X229.0 Y4.0 F3000 ; 
G1 X221.0 Y2.0 F3000 ; 
G1 X229.0 Y0.0 F3000 ; 
G1 X225.0 Y0.0 F3000 ; 
G1 X225.0 Y30.0 F5000 ; 
G1 X225.0 Y0.0 F5000 ; 
G1 X225.0 Y30.0 F5000 ; 
G1 X225.0 Y0.0 F5000 ; 
G1 X225.0 Y30.0 F5000 ; 

; Do a purge line to prime the extruder
G92 E0 ;Reset Extruder
G1 X227.0 Y80.0 F5000 ; Goto Start of purge
G1 Z0.28 F5000 ;Move Head to start height
G1 X227.0 Y230.0 Z0.28 F1500.0 E15; Draw first line
G1 X226.7 Y230.0 Z0.28 F5000.0 ;Move to side a little
G1 X226.7 Y80.0 Z0.28 F1500.0 E30; Draw the second line
G1 Z0.4 F5000; Move Z Axis Up
G1 Y120 F1500; Wipe to the back
G1 X117.5 Y117.5 Z27.0 F5000 ; Raise head above brush
G92 E0 ;Reset Extruder
G21 ; set units to millimeters
G90 ; use absolute coordinates
M82 ; use absolute distances for extrusion
G92 E0
; Filament gcode
SET_PRESSURE_ADVANCE ADVANCE=0.063
M107
;LAYER_CHANGE
;Z:0.25
;HEIGHT:0.25
G1 Z.25 F6000
G1 E-.1 F2400
G92 E0
G1 X99.59 Y97.257 F6000
G1 E.1 F2400
;TYPE:Skirt/Brim
;WIDTH:0.4
G1 F1800
G1 X100.551 Y96.414 E.14602
G1 X101.632 Y95.652 E.19363
G1 X102.805 Y95.002 E.24191
G1 X104.417 Y94.358 E.3044
G1 X105.603 Y94.045 E.34856
G1 X106.819 Y93.85 E.39289
G1 X108.047 Y93.779 E.43717
G1 X109.274 Y93.829 E.48138
G1 X110.988 Y94.111 E.54391
G1 X112.273 Y94.493 E.59217
G1 X113.492 Y95.004 E.63975
G1 X114.613 Y95.621 E.68581
G1 X115.662 Y96.35 E.7318
G1 X116.618 Y97.173 E.77721
G1 X117.495 Y98.103 E.82323
G1 X118.26 Y99.104 E.86858
G1 X118.927 Y100.193 E.91455
G1 X119.477 Y101.346 E.96054
G1 X119.904 Y102.551 E1.00656
G1 X120.212 Y103.837 E1.05416
G1 X120.381 Y105.167 E1.10242
G1 X120.382 Y106.91 E1.16517
G1 X120.225 Y108.174 E1.21102
G1 X119.938 Y109.419 E1.25701
G1 X119.523 Y110.627 E1.30299
G1 X118.984 Y111.786 E1.349
G1 X118.328 Y112.883 E1.39501
G1 X117.56 Y113.906 E1.44106
G1 X116.691 Y114.842 E1.48704
G1 X115.733 Y115.681 E1.53288
G1 X114.29 Y116.659 E1.59563
G1 X113.095 Y117.265 E1.64386
G1 X111.863 Y117.731 E1.69128
G1 X110.689 Y118.041 E1.73499
G1 X109.473 Y118.235 E1.77932
G1 X108.246 Y118.307 E1.82357
G1 X107.02 Y118.256 E1.86774
G1 X105.306 Y117.974 E1.93027
G1 X104.021 Y117.592 E1.97853
G1 X102.802 Y117.081 E2.02611
G1 X101.697 Y116.474 E2.0715
G1 X100.646 Y115.746 E2.11752
G1 X99.677 Y114.913 E2.16352
G1 X98.8 Y113.983 E2.20954
G1 X98.034 Y112.982 E2.25492
G1 X97.368 Y111.892 E2.3009
G1 X96.818 Y110.739 E2.34689
G1 X96.39 Y109.535 E2.39289
G1 X96.083 Y108.249 E2.44049
G1 X95.913 Y106.919 E2.48876
G1 X95.913 Y105.176 E2.55151
G1 X96.069 Y103.914 E2.59729
G1 X96.356 Y102.669 E2.64328
G1 X96.771 Y101.46 E2.6893
G1 X97.309 Y100.302 E2.73527
G1 X97.966 Y99.205 E2.7813
G1 X98.722 Y98.195 E2.82672
G1 X99.549 Y97.301 E2.87056
G1 X99.803 Y97.537 F6000
G1 F1800
G1 X100.772 Y96.68 E2.91713
G1 X101.824 Y95.94 E2.96343
G1 X102.963 Y95.31 E3.01029
G1 X104.516 Y94.69 E3.07049
G1 X105.667 Y94.386 E3.11335
G1 X106.848 Y94.196 E3.15641
G1 X108.041 Y94.125 E3.19943
G1 X109.249 Y94.175 E3.24295
G1 X110.9 Y94.446 E3.30318
G1 X112.148 Y94.816 E3.35004
G1 X113.334 Y95.312 E3.39632
G1 X114.423 Y95.91 E3.44104
G1 X115.443 Y96.619 E3.48576
G1 X116.385 Y97.43 E3.53051
G1 X117.237 Y98.334 E3.57523
G1 X117.98 Y99.307 E3.6193
G1 X118.627 Y100.366 E3.66397
G1 X119.161 Y101.487 E3.70867
G1 X119.575 Y102.657 E3.75335
G1 X119.873 Y103.908 E3.79964
G1 X120.036 Y105.2 E3.84652
G1 X120.037 Y106.878 E3.90693
G1 X119.886 Y108.105 E3.95143
G1 X119.607 Y109.315 E3.99613
G1 X119.205 Y110.49 E4.04084
G1 X118.682 Y111.616 E4.08553
G1 X118.045 Y112.682 E4.13023
G1 X117.299 Y113.677 E4.175
G1 X116.456 Y114.587 E4.21966
G1 X115.513 Y115.413 E4.26479
G1 X114.124 Y116.355 E4.32521
G1 X112.963 Y116.945 E4.37209
G1 X111.766 Y117.399 E4.41818
G1 X110.609 Y117.704 E4.46125
G1 X109.427 Y117.892 E4.50434
G1 X108.235 Y117.961 E4.54732
G1 X107.045 Y117.911 E4.5902
G1 X105.394 Y117.639 E4.65044
G1 X104.146 Y117.269 E4.6973
G1 X102.961 Y116.773 E4.74354
G1 X101.872 Y116.175 E4.78826
G1 X100.851 Y115.466 E4.83301
G1 X99.91 Y114.656 E4.87771
G1 X99.058 Y113.752 E4.92243
G1 X98.315 Y112.779 E4.9665
G1 X97.668 Y111.719 E5.01121
G1 X97.134 Y110.598 E5.05591
G1 X96.72 Y109.428 E5.10059
G1 X96.422 Y108.178 E5.14685
G1 X96.258 Y106.886 E5.19373
G1 X96.258 Y105.208 E5.25414
G1 X96.408 Y103.983 E5.29857
G1 X96.687 Y102.773 E5.34327
G1 X97.089 Y101.598 E5.38798
G1 X97.611 Y100.471 E5.43269
G1 X98.248 Y99.406 E5.47736
G1 X98.994 Y98.41 E5.52216
G1 X99.762 Y97.581 E5.56284
G1 X100.016 Y97.816 F6000
G1 F1800
G1 X100.993 Y96.947 E5.60991
G1 X102.015 Y96.229 E5.65487
G1 X103.121 Y95.619 E5.70034
G1 X104.615 Y95.023 E5.75824
G1 X105.747 Y94.723 E5.8004
G1 X106.894 Y94.539 E5.84222
G1 X108.053 Y94.471 E5.88401
G1 X109.224 Y94.52 E5.9262
G1 X110.813 Y94.782 E5.98417
G1 X112.024 Y95.139 E6.02962
G1 X113.175 Y95.62 E6.07453
G1 X114.233 Y96.2 E6.11796
G1 X115.224 Y96.887 E6.16137
G1 X116.139 Y97.674 E6.20482
G1 X116.967 Y98.551 E6.24824
G1 X117.699 Y99.51 E6.29167
G1 X118.326 Y100.539 E6.33505
G1 X118.844 Y101.627 E6.37843
G1 X119.245 Y102.764 E6.42183
G1 X119.534 Y103.979 E6.46679
G1 X119.691 Y105.232 E6.51225
G1 X119.692 Y106.846 E6.57035
G1 X119.543 Y108.053 E6.61413
G1 X119.272 Y109.229 E6.65757
G1 X118.88 Y110.368 E6.70093
G1 X118.372 Y111.462 E6.74435
G1 X117.752 Y112.496 E6.78775
G1 X117.028 Y113.462 E6.83121
G1 X116.209 Y114.345 E6.87457
G1 X115.293 Y115.146 E6.91837
G1 X113.957 Y116.051 E6.97646
G1 X112.831 Y116.624 E7.02194
G1 X111.668 Y117.066 E7.06673
G1 X110.546 Y117.363 E7.10851
G1 X109.398 Y117.547 E7.15036
G1 X108.241 Y117.614 E7.19208
G1 X107.07 Y117.565 E7.23427
G1 X105.482 Y117.304 E7.2922
G1 X104.271 Y116.946 E7.33766
G1 X103.119 Y116.465 E7.3826
G1 X102.061 Y115.885 E7.42603
G1 X101.07 Y115.198 E7.46944
G1 X100.156 Y114.412 E7.51284
G1 X99.328 Y113.535 E7.55626
G1 X98.596 Y112.576 E7.59969
G1 X97.968 Y111.547 E7.64309
G1 X97.451 Y110.458 E7.68649
G1 X97.05 Y109.322 E7.72986
G1 X96.761 Y108.107 E7.77482
G1 X96.603 Y106.854 E7.82028
G1 X96.603 Y105.24 E7.87838
G1 X96.751 Y104.035 E7.92208
G1 X97.022 Y102.859 E7.96552
G1 X97.414 Y101.719 E8.00892
G1 X97.922 Y100.626 E8.05231
G1 X98.541 Y99.591 E8.09572
G1 X99.266 Y98.625 E8.1392
G1 X99.975 Y97.86 E8.17675
G1 X100.229 Y98.096 F6000
G1 F1800
G1 X100.333 Y97.984 E8.18225
G1 X101.214 Y97.214 E8.22437
G1 X102.206 Y96.518 E8.26799
G1 X103.279 Y95.927 E8.31209
G1 X104.714 Y95.355 E8.3677
G1 X105.81 Y95.063 E8.40853
G1 X106.94 Y94.882 E8.44973
G1 X108.064 Y94.818 E8.49026
G1 X109.199 Y94.866 E8.53116
G1 X110.725 Y95.117 E8.58683
G1 X111.899 Y95.463 E8.63089
G1 X113.017 Y95.929 E8.67449
G1 X114.043 Y96.49 E8.71659
G1 X115.006 Y97.156 E8.75874
G1 X115.894 Y97.918 E8.80086
G1 X116.697 Y98.769 E8.84298
G1 X117.418 Y99.713 E8.88574
G1 X118.026 Y100.711 E8.92781
G1 X118.527 Y101.768 E8.96992
G1 X118.915 Y102.87 E9.01198
G1 X119.194 Y104.049 E9.05559
G1 X119.346 Y105.264 E9.09967
G1 X119.347 Y106.815 E9.1555
G1 X119.204 Y107.984 E9.1979
G1 X118.937 Y109.142 E9.24068
G1 X118.556 Y110.247 E9.28276
G1 X118.062 Y111.307 E9.32486
G1 X117.46 Y112.31 E9.36697
G1 X116.756 Y113.247 E9.40916
G1 X115.961 Y114.102 E9.45119
G1 X115.073 Y114.878 E9.49364
G1 X113.79 Y115.748 E9.54944
G1 X112.699 Y116.304 E9.59352
G1 X111.571 Y116.734 E9.63698
G1 X110.482 Y117.023 E9.67754
G1 X109.352 Y117.203 E9.71873
G1 X108.23 Y117.268 E9.75919
G1 X107.095 Y117.219 E9.80009
G1 X105.57 Y116.969 E9.85572
G1 X104.395 Y116.623 E9.89981
G1 X103.277 Y116.157 E9.94341
G1 X102.251 Y115.595 E9.98552
G1 X101.288 Y114.929 E10.02767
G1 X100.401 Y114.167 E10.06977
G1 X99.598 Y113.317 E10.11186
G1 X98.877 Y112.373 E10.15462
G1 X98.269 Y111.375 E10.19669
G1 X97.768 Y110.318 E10.2388
G1 X97.379 Y109.215 E10.2809
G1 X97.1 Y108.036 E10.32451
G1 X96.948 Y106.821 E10.36859
G1 X96.948 Y105.271 E10.42439
G1 X97.091 Y104.103 E10.46675
G1 X97.353 Y102.963 E10.50886
G1 X97.732 Y101.856 E10.55098
G1 X98.224 Y100.796 E10.59305
G1 X98.823 Y99.792 E10.63514
G1 X99.537 Y98.84 E10.67798
G1 X100.188 Y98.14 E10.71239
G1 X100.441 Y98.376 F6000
G1 F1800
G1 X100.58 Y98.227 E10.71973
G1 X101.435 Y97.481 E10.76058
G1 X102.397 Y96.807 E10.80286
G1 X103.436 Y96.236 E10.84554
G1 X104.813 Y95.687 E10.8989
G1 X105.874 Y95.404 E10.93843
G1 X106.969 Y95.228 E10.97835
G1 X108.075 Y95.164 E11.01823
G1 X109.173 Y95.212 E11.05779
G1 X110.638 Y95.452 E11.11123
G1 X111.775 Y95.786 E11.15389
G1 X112.859 Y96.237 E11.19616
G1 X113.869 Y96.79 E11.23761
G1 X114.801 Y97.436 E11.27843
G1 X115.661 Y98.175 E11.31925
G1 X116.439 Y99 E11.36007
G1 X117.137 Y99.915 E11.4015
G1 X117.725 Y100.883 E11.44227
G1 X118.21 Y101.907 E11.48306
G1 X118.585 Y102.976 E11.52384
G1 X118.855 Y104.119 E11.56612
G1 X119.001 Y105.296 E11.60882
G1 X119.002 Y106.783 E11.66235
G1 X118.864 Y107.916 E11.70344
G1 X118.606 Y109.038 E11.74488
G1 X118.238 Y110.109 E11.78565
G1 X117.76 Y111.137 E11.82646
G1 X117.178 Y112.11 E11.86727
G1 X116.485 Y113.031 E11.90876
G1 X115.714 Y113.86 E11.94951
G1 X114.854 Y114.61 E11.99059
G1 X113.623 Y115.444 E12.04412
G1 X112.567 Y115.984 E12.08682
G1 X111.473 Y116.401 E12.12897
G1 X110.419 Y116.682 E12.16824
G1 X109.324 Y116.858 E12.20816
G1 X108.219 Y116.922 E12.24801
G1 X107.121 Y116.874 E12.28757
G1 X105.657 Y116.633 E12.34098
G1 X104.519 Y116.299 E12.38367
G1 X103.435 Y115.849 E12.42592
G1 X102.44 Y115.305 E12.46674
G1 X101.493 Y114.649 E12.50821
G1 X100.634 Y113.911 E12.54898
G1 X99.856 Y113.086 E12.5898
G1 X99.158 Y112.17 E12.63126
G1 X98.57 Y111.203 E12.672
G1 X98.085 Y110.178 E12.71282
G1 X97.709 Y109.109 E12.75361
G1 X97.44 Y107.966 E12.79588
G1 X97.293 Y106.789 E12.83858
G1 X97.293 Y105.303 E12.89207
G1 X97.43 Y104.172 E12.93308
G1 X97.688 Y103.05 E12.97452
G1 X98.056 Y101.977 E13.01536
G1 X98.534 Y100.95 E13.05614
G1 X99.116 Y99.978 E13.09692
G1 X99.808 Y99.056 E13.13842
G1 X100.401 Y98.42 E13.16972
G1 X100.654 Y98.656 F6000
G1 F1800
G1 X100.827 Y98.47 E13.17886
G1 X101.655 Y97.749 E13.21838
G1 X102.588 Y97.097 E13.25936
G1 X103.594 Y96.545 E13.30067
G1 X104.913 Y96.019 E13.35179
G1 X105.955 Y95.741 E13.39061
G1 X107.015 Y95.571 E13.42926
G1 X108.086 Y95.51 E13.46788
G1 X109.148 Y95.557 E13.50615
G1 X110.551 Y95.787 E13.55733
G1 X111.651 Y96.11 E13.5986
G1 X112.701 Y96.545 E13.63951
G1 X113.68 Y97.08 E13.67967
G1 X114.582 Y97.704 E13.71915
G1 X115.415 Y98.419 E13.75867
G1 X116.181 Y99.231 E13.79886
G1 X116.856 Y100.118 E13.83899
G1 X117.424 Y101.055 E13.87843
G1 X117.893 Y102.047 E13.91793
G1 X118.255 Y103.082 E13.9574
G1 X118.516 Y104.189 E13.99834
G1 X118.656 Y105.328 E14.03965
G1 X118.657 Y106.752 E14.09091
G1 X118.524 Y107.848 E14.13065
G1 X118.275 Y108.935 E14.17079
G1 X117.92 Y109.971 E14.21021
G1 X117.45 Y110.983 E14.25038
G1 X116.886 Y111.924 E14.28987
G1 X116.214 Y112.815 E14.33004
G1 X115.467 Y113.617 E14.36949
G1 X114.634 Y114.342 E14.40924
G1 X113.455 Y115.141 E14.46051
G1 X112.434 Y115.664 E14.50181
G1 X111.375 Y116.069 E14.54263
G1 X110.338 Y116.345 E14.58126
G1 X109.278 Y116.515 E14.61991
G1 X108.208 Y116.575 E14.65849
G1 X107.147 Y116.528 E14.69672
G1 X105.744 Y116.298 E14.7479
G1 X104.643 Y115.976 E14.7892
G1 X103.593 Y115.54 E14.83013
G1 X102.629 Y115.014 E14.86966
G1 X101.711 Y114.381 E14.9098
G1 X100.88 Y113.666 E14.94926
G1 X100.114 Y112.855 E14.98942
G1 X99.439 Y111.968 E15.02955
G1 X98.871 Y111.031 E15.06899
G1 X98.402 Y110.038 E15.10852
G1 X98.039 Y109.004 E15.14797
G1 X97.779 Y107.896 E15.18894
G1 X97.639 Y106.758 E15.23022
G1 X97.638 Y105.334 E15.28148
G1 X97.77 Y104.24 E15.32115
G1 X98.019 Y103.153 E15.36129
G1 X98.374 Y102.115 E15.40078
G1 X98.844 Y101.104 E15.44092
G1 X99.408 Y100.164 E15.48038
G1 X100.08 Y99.271 E15.52061
G1 X100.613 Y98.699 E15.54876
G1 X100.866 Y98.936 F6000
G1 F1800
G1 X101.074 Y98.712 E15.55976
G1 X101.875 Y98.016 E15.59796
G1 X102.778 Y97.386 E15.6376
G1 X103.751 Y96.854 E15.67752
G1 X105.012 Y96.35 E15.72641
G1 X106.019 Y96.081 E15.76393
G1 X107.044 Y95.916 E15.8013
G1 X108.079 Y95.857 E15.83862
G1 X109.122 Y95.903 E15.8762
G1 X110.464 Y96.123 E15.92516
G1 X111.528 Y96.434 E15.96507
G1 X112.544 Y96.854 E16.00465
G1 X113.49 Y97.37 E16.04344
G1 X114.364 Y97.973 E16.08166
G1 X115.17 Y98.664 E16.11988
G1 X115.911 Y99.448 E16.15871
G1 X116.564 Y100.305 E16.1975
G1 X117.115 Y101.211 E16.23567
G1 X117.569 Y102.17 E16.27387
G1 X117.925 Y103.187 E16.31266
G1 X118.176 Y104.259 E16.35229
G1 X118.311 Y105.36 E16.39222
G1 X118.312 Y106.721 E16.44121
G1 X118.185 Y107.779 E16.47957
G1 X117.945 Y108.831 E16.51841
G1 X117.602 Y109.834 E16.55657
G1 X117.148 Y110.813 E16.59542
G1 X116.603 Y111.723 E16.6336
G1 X115.954 Y112.586 E16.67247
G1 X115.22 Y113.374 E16.71124
G1 X114.415 Y114.073 E16.74962
G1 X113.288 Y114.837 E16.79863
G1 X112.302 Y115.344 E16.83854
G1 X111.276 Y115.737 E16.87809
G1 X110.274 Y116.005 E16.91543
G1 X109.249 Y116.169 E16.9528
G1 X108.214 Y116.229 E16.99012
G1 X107.172 Y116.183 E17.02767
G1 X105.831 Y115.963 E17.07659
G1 X104.767 Y115.652 E17.1165
G1 X103.75 Y115.231 E17.15612
G1 X102.818 Y114.724 E17.19431
G1 X101.93 Y114.112 E17.23313
G1 X101.125 Y113.422 E17.2713
G1 X100.384 Y112.638 E17.31013
G1 X99.73 Y111.78 E17.34897
G1 X99.18 Y110.874 E17.38712
G1 X98.726 Y109.915 E17.42532
G1 X98.369 Y108.898 E17.46412
G1 X98.118 Y107.826 E17.50375
G1 X97.984 Y106.726 E17.54364
G1 X97.983 Y105.365 E17.59263
G1 X98.11 Y104.308 E17.63095
G1 X98.349 Y103.256 E17.66979
G1 X98.692 Y102.252 E17.70798
G1 X99.146 Y101.274 E17.7468
G1 X99.69 Y100.364 E17.78497
G1 X100.339 Y99.501 E17.82384
G1 X100.825 Y98.979 E17.84952
G1 X101.078 Y99.216 F6000
G1 F1800
G1 X101.321 Y98.956 E17.86233
G1 X102.095 Y98.284 E17.89923
G1 X102.968 Y97.676 E17.93753
G1 X103.907 Y97.163 E17.97605
G1 X105.112 Y96.682 E18.02276
G1 X106.083 Y96.422 E18.05895
G1 X107.073 Y96.261 E18.09506
G1 X108.09 Y96.203 E18.13173
G1 X109.096 Y96.248 E18.16798
G1 X110.377 Y96.458 E18.21471
G1 X111.404 Y96.757 E18.25322
G1 X112.387 Y97.163 E18.29151
G1 X113.301 Y97.66 E18.32896
G1 X114.16 Y98.253 E18.36654
G1 X114.937 Y98.921 E18.40343
G1 X115.652 Y99.679 E18.44094
G1 X116.283 Y100.508 E18.47844
G1 X116.814 Y101.383 E18.51529
G1 X117.252 Y102.31 E18.5522
G1 X117.595 Y103.293 E18.58968
G1 X117.837 Y104.329 E18.62798
G1 X117.966 Y105.391 E18.66649
G1 X117.966 Y106.691 E18.71329
G1 X117.845 Y107.712 E18.7503
G1 X117.614 Y108.728 E18.78781
G1 X117.284 Y109.697 E18.82466
G1 X116.846 Y110.643 E18.86219
G1 X116.311 Y111.537 E18.8997
G1 X115.683 Y112.37 E18.93725
G1 X114.973 Y113.131 E18.97472
G1 X114.196 Y113.805 E19.01175
G1 X113.12 Y114.534 E19.05854
G1 X112.168 Y115.024 E19.09708
G1 X111.178 Y115.405 E19.13527
G1 X110.21 Y115.664 E19.17134
G1 X109.203 Y115.826 E19.20806
G1 X108.204 Y115.883 E19.24408
G1 X107.198 Y115.837 E19.28033
G1 X105.918 Y115.627 E19.32702
G1 X104.89 Y115.328 E19.36556
G1 X103.907 Y114.923 E19.40383
