; generated by PrusaSlicer 2.6.1+linux-x64-GTK3 on 2023-11-04 at 02:42:31 UTC

; 

; external perimeters extrusion width = 0.45mm
; perimeters extrusion width = 0.60mm
; infill extrusion width = 0.60mm
; solid infill extrusion width = 0.60mm
; top infill extrusion width = 0.60mm
; first layer extrusion width = 0.40mm

;TYPE:Custom
; M190 R30 ; Because of probe temperature drift,
; M109 R30 ; Let the beds and hotend cool down before homing the axis

G28 ; home all axes
G1 Z100.0 F3000 ; Raise head above brush
M190 S65 ; set bed temperature and wait for it to be reached
M109 S230 ; set hot end temp and wait for it

; Brush any crap off the nozzle
G1 X232.0 Y0.0 F3000 ; Goto Start of movement
G1 Z19.0 F3000 ; Lower into brush
G1 X221.0 Y2.0 F3000 ; Goto Start of movement
G1 X229.0 Y4.0 F3000 ; 
G1 X221.0 Y6.0 F3000 ; 
G1 X229.0 Y8.0 F3000 ; 
G1 X221.0 Y10.0 F3000 ;
G1 X229.0 Y12.0 F3000 ;
G1 X221.0 Y14.0 F3000 ;
G1 X229.0 Y16.0 F3000 ;
G1 X221.0 Y18.0 F3000 ;
G1 X229.0 Y20.0 F3000 ;
G1 X221.0 Y22.0 F3000 ;
G1 X229.0 Y24.0 F3000 ;
G1 X221.0 Y26.0 F3000 ;
G1 X229.0 Y28.0 F3000 ;
G1 X221.0 Y30.0 F3000 ;
G1 X229.0 Y28.0 F3000 ;
G1 X221.0 Y26.0 F3000 ;
G1 X229.0 Y24.0 F3000 ;
G1 X221.0 Y22.0 F3000 ;
G1 X229.0 Y20.0 F3000 ;
G1 X221.0 Y18.0 F3000 ;
G1 X229.0 Y16.0 F3000 ;
G1 X221.0 Y14.0 F3000 ;
G1 X229.0 Y12.0 F3000 ;
G1 X221.0 Y10.0 F3000 ;
G1 X229.0 Y8.0 F3000 ; 
G1 X221.0 Y6.0 F3000 ; 
G1 X229.0 Y4.0 F3000 ; 
G1 X221.0 Y2.0 F3000 ; 
G1 X229.0 Y0.0 F3000 ; 
G1 X225.0 Y0.0 F3000 ; 
G1 X225.0 Y30.0 F5000 ; 
G1 X225.0 Y0.0 F5000 ; 
G1 X225.0 Y30.0 F5000 ; 
G1 X225.0 Y0.0 F5000 ; 
G1 X225.0 Y30.0 F5000 ; 

; Do a purge line to prime the extruder
G92 E0 ;Reset Extruder
G1 X227.0 Y80.0 F5000 ; Goto Start of purge
G1 Z0.28 F5000 ;Move Head to start height
G1 X227.0 Y230.0 Z0.28 F1500.0 E15; Draw first line
G1 X226.7 Y230.0 Z0.28 F5000.0 ;Move to side a little
G1 X226.7 Y80.0 Z0.28 F1500.0 E30; Draw the second line
G1 Z0.4 F5000; Move Z Axis Up
G1 Y120 F1500; Wipe to the back
G1 X117.5 Y117.5 Z27.0 F5000 ; Raise head above brush
G92 E0 ;Reset Extruder
G21 ; set units to millimeters
G90 ; use absolute coordinates
M82 ; use absolute distances for extrusion
G92 E0
; Filament gcode
SET_PRESSURE_ADVANCE ADVANCE=0.063
M107
;LAYER_CHANGE
;Z:0.35
;HEIGHT:0.35
G1 Z.35 F24000
G1 E-.1 F2400
G92 E0
G1 X105.53 Y139.285 F24000
G1 E.1 F2400
;TYPE:Perimeter
;WIDTH:0.4
G1 F3000
G1 X105.842 Y139.826 E.12952
G1 X101.786 Y139.826 E.32127
G1 X102.237 Y139.044 E.36395
G1 X102.339 Y138.532 E.38863
G1 X102.28 Y138.316 E.39922
G1 X102.099 Y138.055 E.41424
G1 X101.866 Y137.897 E.42755
G1 X101.534 Y137.826 E.4436
G1 X98.621 Y137.826 E.58131
G1 X98.599 Y137.499 E.5968
G1 X98.435 Y136.462 E.64643
G1 X98.145 Y135.364 E.70012
G1 X97.742 Y134.302 E.75382
G1 X97.188 Y133.214 E.81154
G1 X96.566 Y132.264 E.86522
G1 X95.905 Y131.448 E.91487
G1 X95.467 Y131.004 E.94435
G1 X95.042 Y130.585 E.97256
G1 X94.225 Y129.924 E1.02224
G1 X93.202 Y129.259 E1.07992
G1 X92.188 Y128.747 E1.13362
G1 X91.471 Y128.472 E1.16992
G1 X90.88 Y128.279 E1.19931
G1 X90.028 Y128.055 E1.24096
G1 X88.906 Y127.882 E1.29463
G1 X87.815 Y127.826 E1.34628
G1 X86.109 Y127.826 E1.42693
G1 X85.352 Y127.847 E1.46273
G1 X85.054 Y127.986 E1.47828
G1 X84.841 Y128.22 E1.49324
G1 X84.733 Y128.526 E1.50858
G1 X84.741 Y128.797 E1.5214
G1 X84.913 Y129.158 E1.5403
G1 X86.909 Y131.553 E1.68769
G1 X88.588 Y134.034 E1.82931
G1 X90.013 Y136.668 E1.97089
G1 X91.17 Y139.432 E2.11255
G1 X92.035 Y142.258 E2.25227
G1 X92.634 Y145.233 E2.39574
G1 X92.928 Y148.214 E2.53735
G1 X92.924 Y151.209 E2.67894
G1 X92.624 Y154.189 E2.82053
G1 X92.029 Y157.125 E2.96215
G1 X91.152 Y159.964 E3.10262
G1 X90.927 Y160.423 E3.12679
G1 X90.618 Y160.81 E3.1502
G1 X90.237 Y161.119 E3.17339
G1 X89.797 Y161.338 E3.19663
G1 X89.321 Y161.458 E3.21984
G1 X88.831 Y161.473 E3.24302
G1 X88.348 Y161.382 E3.26626
G1 X87.897 Y161.189 E3.28945
G1 X87.497 Y160.904 E3.31267
G1 X87.168 Y160.539 E3.3359
G1 X86.925 Y160.113 E3.35909
G1 X86.78 Y159.644 E3.3823
G1 X86.738 Y159.155 E3.4055
G1 X86.806 Y158.646 E3.42978
G1 X87.686 Y155.731 E3.57373
G1 X88.196 Y153.002 E3.70498
G1 X88.407 Y150.234 E3.83622
G1 X88.35 Y148.395 E3.9232
G1 X88.317 Y147.458 E3.96752
G1 X87.935 Y144.762 E4.09625
G1 X87.267 Y142.104 E4.22582
G1 X86.304 Y139.5 E4.35707
G1 X85.063 Y137.016 E4.48834
G1 X83.562 Y134.681 E4.61957
G1 X81.816 Y132.522 E4.75084
G1 X79.78 Y130.507 E4.88626
G1 X77.605 Y128.782 E5.0175
G1 X75.255 Y127.303 E5.14877
G1 X72.765 Y126.09 E5.27971
G1 X70.146 Y125.149 E5.41127
G1 X67.447 Y124.499 E5.54251
G1 X64.693 Y124.146 E5.67377
G1 X62.839 Y124.107 E5.76144
G1 X62.839 Y121.721 E5.87424
G1 X63.621 Y122.172 E5.91692
G1 X64.01 Y122.281 E5.93602
G1 X64.335 Y122.22 E5.95165
G1 X64.681 Y121.95 E5.9724
G1 X64.806 Y121.697 E5.98574
G1 X64.839 Y121.469 E5.99663
G1 X64.839 Y114.403 E6.33068
G1 X64.816 Y114.209 E6.33992
G1 X64.725 Y113.987 E6.35126
G1 X64.537 Y113.77 E6.36483
G1 X64.246 Y113.621 E6.38029
G1 X64.027 Y113.59 E6.39075
G1 X63.621 Y113.699 E6.41062
G1 X62.839 Y114.151 E6.45332
G1 X62.839 Y111.775 E6.56565
G1 X68.786 Y111.763 E6.8468
G1 X69.051 Y111.668 E6.86011
G1 X69.295 Y111.452 E6.87552
G1 X69.441 Y111.134 E6.89206
G1 X69.442 Y110.799 E6.9079
G1 X69.284 Y110.459 E6.92562
G1 X68.133 Y109.005 E7.01329
G1 X67.21 Y107.541 E7.09511
G1 X66.449 Y105.987 E7.17691
G1 X65.859 Y104.36 E7.25873
G1 X65.447 Y102.679 E7.34055
G1 X65.217 Y100.963 E7.4224
G1 X65.171 Y99.233 E7.50422
G1 X65.311 Y97.508 E7.58604
G1 X65.635 Y95.808 E7.66786
G1 X66.085 Y94.331 E7.74085
G1 X66.335 Y93.762 E7.77023
G1 X66.608 Y93.42 E7.79092
G1 X66.948 Y93.145 E7.81159
G1 X67.335 Y92.952 E7.83203
G1 X67.763 Y92.843 E7.85291
G1 X68.199 Y92.83 E7.87353
G1 X68.628 Y92.911 E7.89417
G1 X69.03 Y93.083 E7.91484
G1 X69.386 Y93.337 E7.93551
G1 X69.678 Y93.661 E7.95613
G1 X69.895 Y94.041 E7.97682
G1 X70.024 Y94.458 E7.99746
G1 X70.061 Y94.893 E8.0181
G1 X70 Y95.348 E8.0398
G1 X69.559 Y96.813 E8.11213
G1 X69.333 Y97.995 E8.16902
G1 X69.222 Y99.28 E8.23
G1 X69.249 Y100.57 E8.291
G1 X69.412 Y101.849 E8.35195
G1 X69.717 Y103.12 E8.41374
G1 X70.176 Y104.4 E8.47803
G1 X70.742 Y105.558 E8.53896
G1 X71.428 Y106.651 E8.59997
G1 X72.17 Y107.598 E8.65685
G1 X73.129 Y108.585 E8.72191
G1 X74.124 Y109.406 E8.78289
G1 X75.201 Y110.116 E8.84387
G1 X76.347 Y110.708 E8.90485
G1 X77.544 Y111.172 E8.96554
G1 X78.795 Y111.509 E9.02679
G1 X79.983 Y111.701 E9.08368
G1 X81.358 Y111.774 E9.14878
G1 X82.645 Y111.701 E9.20972
G1 X83.918 Y111.491 E9.27072
G1 X85.161 Y111.147 E9.33169
G1 X86.36 Y110.672 E9.39266
G1 X87.2 Y110.235 E9.43742
G1 X87.78 Y109.888 E9.46937
G1 X88.574 Y109.354 E9.51461
G1 X89.563 Y108.526 E9.57559
G1 X90.435 Y107.626 E9.63483
G1 X91.397 Y106.344 E9.7106
G1 X91.928 Y105.483 E9.75842
G1 X92.486 Y104.32 E9.8194
G1 X92.917 Y103.104 E9.88039
G1 X93.216 Y101.849 E9.94138
G1 X93.373 Y100.656 E9.99827
G1 X93.39 Y100.164 E10.02154
G1 X93.385 Y99.014 E10.07591
G1 X93.296 Y97.995 E10.12427
G1 X93.05 Y96.733 E10.18505
G1 X92.676 Y95.506 E10.24569
G1 X92.568 Y94.893 E10.27512
G1 X92.604 Y94.458 E10.29576
G1 X92.734 Y94.041 E10.31641
G1 X92.95 Y93.661 E10.33707
G1 X93.243 Y93.337 E10.35772
G1 X93.598 Y93.083 E10.37836
G1 X94 Y92.911 E10.39903
G1 X94.429 Y92.83 E10.41967
G1 X94.866 Y92.843 E10.44034
G1 X95.29 Y92.95 E10.46101
G1 X95.678 Y93.144 E10.48152
G1 X96.021 Y93.421 E10.50236
G1 X96.293 Y93.762 E10.52298
G1 X96.497 Y94.176 E10.5448
G1 X96.952 Y95.644 E10.61746
G1 X97.269 Y97.174 E10.69133
G1 X97.436 Y98.728 E10.76522
G1 X97.452 Y100.29 E10.83907
G1 X97.317 Y101.847 E10.91295
G1 X97.032 Y103.383 E10.9868
G1 X96.6 Y104.885 E11.06069
G1 X95.857 Y106.796 E11.15762
G1 X95.721 Y107.419 E11.18777
G1 X95.701 Y107.866 E11.20892
G1 X95.716 Y108.394 E11.23389
G1 X95.898 Y109.18 E11.27203
G1 X96.239 Y109.911 E11.31016
G1 X96.726 Y110.554 E11.34829
G1 X97.336 Y111.082 E11.38643
G1 X97.887 Y111.402 E11.41655
G1 X98.287 Y111.551 E11.43673
G1 X98.815 Y111.704 E11.46272
G1 X99.548 Y111.775 E11.49754
G1 X100.428 Y111.759 E11.53915
G1 X100.705 Y111.715 E11.55241
G1 X101.368 Y111.555 E11.58465
G1 X102.097 Y111.21 E11.62278
G1 X102.738 Y110.72 E11.66092
G1 X103.263 Y110.107 E11.69908
G1 X103.648 Y109.399 E11.73718
G1 X103.877 Y108.625 E11.77534
G1 X103.94 Y107.821 E11.81347
G1 X103.87 Y107.188 E11.84358
G1 X103.734 Y106.671 E11.86885
G1 X103.028 Y104.885 E11.95964
G1 X102.596 Y103.383 E12.03353
G1 X102.312 Y101.847 E12.10738
G1 X102.177 Y100.29 E12.18126
G1 X102.193 Y98.728 E12.25511
G1 X102.36 Y97.174 E12.329
G1 X102.676 Y95.644 E12.40286
G1 X103.085 Y94.327 E12.46806
G1 X103.335 Y93.762 E12.49727
G1 X103.608 Y93.42 E12.51796
G1 X103.948 Y93.145 E12.53863
G1 X104.339 Y92.95 E12.55929
G1 X104.762 Y92.843 E12.57992
G1 X105.199 Y92.83 E12.60059
G1 X105.628 Y92.911 E12.62123
G1 X106.03 Y93.083 E12.6419
G1 X106.386 Y93.337 E12.66257
G1 X106.679 Y93.661 E12.68322
G1 X106.893 Y94.037 E12.70367
G1 X107.024 Y94.458 E12.72451
G1 X107.061 Y94.893 E12.74515
G1 X107 Y95.348 E12.76685
G1 X106.58 Y96.73 E12.83514
G1 X106.321 Y98.081 E12.90017
G1 X106.219 Y99.367 E12.96116
G1 X106.255 Y100.656 E13.02212
G1 X106.428 Y101.936 E13.08318
G1 X106.717 Y103.12 E13.1408
G1 X106.864 Y103.544 E13.16202
G1 X107.176 Y104.4 E13.20509
G1 X107.615 Y105.308 E13.25277
G1 X107.889 Y105.794 E13.27915
G1 X108.428 Y106.651 E13.32701
G1 X109.206 Y107.641 E13.38654
G1 X110.13 Y108.586 E13.44902
G1 X111.068 Y109.364 E13.50663
G1 X112.2 Y110.116 E13.57088
G1 X112.759 Y110.407 E13.60067
G1 X113.347 Y110.708 E13.6319
G1 X114.468 Y111.147 E13.68881
G1 X115.795 Y111.509 E13.75384
G1 X117.069 Y111.71 E13.81481
G1 X118.357 Y111.774 E13.87578
G1 X119.645 Y111.701 E13.93677
G1 X120.918 Y111.491 E13.99777
G1 X122.161 Y111.147 E14.05874
G1 X123.36 Y110.672 E14.11971
G1 X124.224 Y110.222 E14.16576
G1 X124.779 Y109.888 E14.19638
G1 X125.574 Y109.354 E14.24166
G1 X126.563 Y108.526 E14.30264
G1 X127.435 Y107.626 E14.36188
G1 X128.397 Y106.344 E14.43765
G1 X128.928 Y105.483 E14.48547
G1 X129.486 Y104.32 E14.54645
G1 X129.917 Y103.104 E14.60744
G1 X130.216 Y101.849 E14.66843
G1 X130.373 Y100.656 E14.72532
G1 X130.39 Y100.164 E14.74859
G1 X130.385 Y99.014 E14.80296
G1 X130.296 Y97.995 E14.85132
G1 X130.05 Y96.733 E14.9121
G1 X129.676 Y95.506 E14.97274
G1 X129.568 Y94.893 E15.00217
G1 X129.604 Y94.458 E15.02281
G1 X129.734 Y94.041 E15.04346
G1 X129.95 Y93.661 E15.06412
G1 X130.243 Y93.337 E15.08477
G1 X130.598 Y93.083 E15.10541
G1 X131 Y92.911 E15.12608
G1 X131.426 Y92.831 E15.14657
G1 X131.867 Y92.844 E15.16743
G1 X132.29 Y92.95 E15.18805
G1 X132.681 Y93.145 E15.20871
G1 X133.02 Y93.42 E15.22935
G1 X133.293 Y93.762 E15.25004
G1 X133.497 Y94.176 E15.27186
G1 X133.952 Y95.644 E15.34452
G1 X134.269 Y97.174 E15.41839
G1 X134.436 Y98.728 E15.49228
G1 X134.452 Y100.29 E15.56613
G1 X134.317 Y101.847 E15.64001
G1 X134.032 Y103.383 E15.71386
G1 X133.6 Y104.885 E15.78775
G1 X132.857 Y106.796 E15.88468
G1 X132.721 Y107.419 E15.91483
G1 X132.701 Y107.866 E15.93598
G1 X132.716 Y108.394 E15.96095
G1 X132.898 Y109.181 E15.99914
G1 X133.242 Y109.915 E16.03746
G1 X133.726 Y110.554 E16.07536
G1 X134.198 Y110.982 E16.10548
G1 X134.526 Y111.193 E16.12392
G1 X135.042 Y111.471 E16.15163
G1 X135.648 Y111.669 E16.18177
G1 X136.2 Y111.759 E16.20821
G1 X137.181 Y111.771 E16.25459
G1 X137.98 Y111.669 E16.29267
G1 X138.742 Y111.402 E16.33084
G1 X139.293 Y111.082 E16.36096
G1 X139.701 Y110.737 E16.38622
G1 X140.06 Y110.368 E16.41056
G1 X140.474 Y109.763 E16.44522
G1 X140.731 Y109.18 E16.47534
G1 X140.818 Y108.849 E16.49152
G1 X140.93 Y108.215 E16.52196
G1 X140.908 Y107.419 E16.55961
G1 X140.734 Y106.671 E16.59592
G1 X140.028 Y104.885 E16.68671
G1 X139.596 Y103.383 E16.7606
G1 X139.312 Y101.847 E16.83445
G1 X139.177 Y100.29 E16.90833
G1 X139.193 Y98.728 E16.98218
G1 X139.36 Y97.174 E17.05607
G1 X139.676 Y95.644 E17.12993
G1 X140.085 Y94.327 E17.19513
G1 X140.335 Y93.762 E17.22434
G1 X140.608 Y93.42 E17.24503
G1 X140.948 Y93.145 E17.2657
G1 X141.339 Y92.95 E17.28636
G1 X141.762 Y92.843 E17.30699
G1 X142.199 Y92.83 E17.32766
G1 X142.628 Y92.911 E17.3483
G1 X143.03 Y93.083 E17.36897
G1 X143.386 Y93.337 E17.38964
G1 X143.678 Y93.661 E17.41026
G1 X143.895 Y94.041 E17.43095
G1 X144.024 Y94.458 E17.45159
G1 X144.061 Y94.893 E17.47223
G1 X144 Y95.348 E17.49393
G1 X143.559 Y96.813 E17.56626
G1 X143.321 Y98.081 E17.62725
G1 X143.219 Y99.367 E17.68824
G1 X143.255 Y100.656 E17.7492
G1 X143.428 Y101.934 E17.81017
G1 X143.711 Y103.104 E17.86708
G1 X143.864 Y103.544 E17.8891
G1 X144.176 Y104.4 E17.93217
G1 X144.603 Y105.283 E17.97854
G1 X144.892 Y105.798 E18.00646
G1 X145.428 Y106.651 E18.05409
G1 X146.227 Y107.663 E18.11505
G1 X147.129 Y108.585 E18.17603
G1 X147.621 Y108.994 E18.20628
G1 X148.125 Y109.407 E18.23708
G1 X149.215 Y110.123 E18.29873
G1 X150.268 Y110.672 E18.35487
G1 X151.55 Y111.174 E18.41996
G1 X152.711 Y111.491 E18.47686
G1 X154.069 Y111.71 E18.54189
G1 X155.358 Y111.774 E18.6029
G1 X156.559 Y111.71 E18.65976
G1 X157.918 Y111.491 E18.72484
G1 X159.161 Y111.147 E18.78581
G1 X160.36 Y110.672 E18.84678
G1 X161.502 Y110.072 E18.90777
G1 X162.037 Y109.717 E18.93812
G1 X162.796 Y109.169 E18.98238
G1 X163.563 Y108.526 E19.0297
G1 X164.458 Y107.598 E19.09065
G1 X165.25 Y106.58 E19.15163
G1 X165.886 Y105.558 E19.20854
G1 X166.061 Y105.208 E19.22704
G1 X166.569 Y104.09 E19.28509
G1 X166.966 Y102.9 E19.3444
G1 X167.216 Y101.849 E19.39547
G1 X167.38 Y100.57 E19.45643
G1 X167.407 Y99.28 E19.51743
G1 X167.296 Y97.995 E19.57841
G1 X167.07 Y96.813 E19.6353
G1 X166.676 Y95.506 E19.69984
G1 X166.568 Y94.893 E19.72927
G1 X166.604 Y94.458 E19.74991
G1 X166.734 Y94.041 E19.77056
G1 X166.95 Y93.661 E19.79122
G1 X167.243 Y93.337 E19.81187
G1 X167.598 Y93.083 E19.83251
G1 X168 Y92.911 E19.85318
G1 X168.539 Y92.824 E19.87899
G1 X169.081 Y92.885 E19.90478
G1 X169.49 Y93.037 E19.92541
G1 X169.858 Y93.274 E19.9461
G1 X170.166 Y93.583 E19.96673
G1 X170.49 Y94.153 E19.99773
G1 X170.975 Y95.736 E20.076
G1 X171.297 Y97.361 E20.15432
G1 X171.45 Y99.011 E20.23266
G1 X171.433 Y100.668 E20.311
G1 X171.246 Y102.314 E20.38932
G1 X170.897 Y103.911 E20.4666
G1 X170.374 Y105.507 E20.546
G1 X169.698 Y107.018 E20.62426
G1 X168.352 Y109.346 E20.75139
G1 X167.934 Y110.247 E20.79835
G1 X167.601 Y111.184 E20.84536
G1 X167.37 Y112.073 E20.88878
G1 X167.18 Y113.379 E20.95117
G1 X167.131 Y114.081 E20.98444
G1 X166.861 Y124.931 E21.49754
G1 X166.888 Y125.998 E21.548
G1 X167.012 Y127.02 E21.59667
G1 X167.233 Y128.026 E21.64536
G1 X167.548 Y129.006 E21.69402
G1 X167.921 Y129.883 E21.73907
G1 X168.448 Y130.854 E21.7913
G1 X170.661 Y134.153 E21.9791
G1 X172.067 Y136.781 E22.12
G1 X173.206 Y139.534 E22.26085
G1 X174.069 Y142.386 E22.40172
G1 X174.638 Y145.271 E22.54074
G1 X174.931 Y148.391 E22.68889
G1 X174.922 Y151.256 E22.82434
G1 X174.619 Y154.22 E22.9652
G1 X174.025 Y157.14 E23.10607
G1 X173.152 Y159.964 E23.24581
G1 X172.925 Y160.426 E23.27015
G1 X172.618 Y160.81 E23.29339
G1 X172.237 Y161.119 E23.31658
G1 X171.797 Y161.338 E23.33982
G1 X171.321 Y161.458 E23.36303
G1 X170.831 Y161.473 E23.38621
G1 X170.348 Y161.382 E23.40945
G1 X169.897 Y161.189 E23.43264
G1 X169.497 Y160.904 E23.45586
G1 X169.168 Y160.539 E23.47909
G1 X168.925 Y160.113 E23.50228
G1 X168.78 Y159.644 E23.52549
G1 X168.738 Y159.155 E23.54869
G1 X168.806 Y158.646 E23.57297
G1 X169.675 Y155.778 E23.71464
G1 X170.183 Y153.097 E23.84364
G1 X170.403 Y150.377 E23.97265
G1 X170.333 Y147.649 E24.10166
G1 X169.972 Y144.944 E24.23067
G1 X169.325 Y142.292 E24.35972
G1 X168.4 Y139.725 E24.48871
G1 X167.248 Y137.346 E24.61367
G1 X165.808 Y135.028 E24.74268
G1 X164.073 Y132.811 E24.87577
G1 X162.168 Y130.857 E25.00478
G1 X160.497 Y129.469 E25.10748
G1 X160.066 Y129.116 E25.13382
G1 X157.791 Y127.61 E25.2628
G1 X155.368 Y126.354 E25.39182
G1 X152.825 Y125.363 E25.52085
G1 X150.191 Y124.648 E25.64988
G1 X148.684 Y124.405 E25.72204
G1 X147.496 Y124.218 E25.77889
G1 X144.771 Y124.077 E25.90789
G1 X142.046 Y124.227 E26.03691
G1 X139.353 Y124.666 E26.1659
G1 X136.831 Y125.355 E26.2895
G1 X134.182 Y126.389 E26.42394
G1 X131.763 Y127.654 E26.55299
G1 X129.493 Y129.168 E26.68198
G1 X128.138 Y130.294 E26.76527
