; generated by PrusaSlicer 2.6.1+linux-x64-GTK3 on 2023-10-08 at 02:54:39 UTC

; 

; external perimeters extrusion width = 0.45mm
; perimeters extrusion width = 0.45mm
; infill extrusion width = 0.45mm
; solid infill extrusion width = 0.45mm
; top infill extrusion width = 0.40mm
; first layer extrusion width = 0.70mm

;TYPE:Custom
; M192 S200 ; set hot end to bed levelling temp and wait for it
; G28 ; home all axes
; G1 Z5 F5000 ; lift nozzle
M190 S65 ; set bed temperature and wait for it to be reached
M109 S205 ; set hot end temp and wait for it
G21 ; set units to millimeters
G90 ; use absolute coordinates
M82 ; use absolute distances for extrusion
G92 E0
; Filament gcode
M107
;LAYER_CHANGE
;Z:0.35
;HEIGHT:0.35
G1 Z.35 F30000
G1 E-.1 F2400
G92 E0
G1 X92.36 Y90.731 F30000
G1 E.1 F2400
;TYPE:Skirt/Brim
;WIDTH:0.7
G1 F3600
G1 X94.646 Y89.494 E.33635
G1 X97.5 Y89 E.59972
G1 X127.5 Y89 E3.32761
G1 X130.069 Y89.398 E3.56399
G1 X132.398 Y90.554 E3.80042
G1 X134.269 Y92.36 E4.03688
G1 X135.506 Y94.646 E4.27323
G1 X136 Y97.5 E4.5366
G1 X136 Y127.5 E7.26449
G1 X135.602 Y130.069 E7.50087
G1 X134.446 Y132.398 E7.7373
G1 X132.64 Y134.269 E7.97376
G1 X130.354 Y135.506 E8.21011
G1 X127.5 Y136 E8.47348
G1 X97.5 Y136 E11.20137
G1 X94.931 Y135.602 E11.43775
G1 X92.602 Y134.446 E11.67418
G1 X90.731 Y132.64 E11.91064
G1 X89.494 Y130.354 E12.14699
G1 X89 Y127.5 E12.41036
G1 X89 Y97.5 E15.13825
G1 X89.398 Y94.931 E15.37463
G1 X90.554 Y92.602 E15.61106
G1 X92.318 Y90.774 E15.84205
G1 X92.778 Y91.245 F30000
G1 F3600
G1 X92.966 Y91.062 E15.86591
G1 X95.214 Y89.964 E16.0934
G1 X97.5 Y89.625 E16.30354
G1 X127.5 Y89.625 E19.03143
G1 X129.97 Y90.023 E19.25892
G1 X132.191 Y91.175 E19.48642
G1 X133.938 Y92.966 E19.71392
G1 X135.036 Y95.214 E19.94141
G1 X135.375 Y97.5 E20.15155
G1 X135.375 Y127.5 E22.87944
G1 X134.977 Y129.97 E23.10693
G1 X133.825 Y132.191 E23.33443
G1 X132.034 Y133.938 E23.56193
G1 X129.786 Y135.036 E23.78942
G1 X127.5 Y135.375 E23.99956
G1 X97.5 Y135.375 E26.72745
G1 X95.03 Y134.977 E26.95494
G1 X92.809 Y133.825 E27.18244
G1 X91.062 Y132.034 E27.40994
G1 X89.964 Y129.786 E27.63743
G1 X89.625 Y127.5 E27.84757
G1 X89.625 Y97.5 E30.57546
G1 X90.023 Y95.03 E30.80295
G1 X91.175 Y92.809 E31.03045
G1 X92.735 Y91.287 E31.22863
G1 X93.174 Y91.769 F30000
G1 F3600
G1 X93.569 Y91.409 E31.27723
G1 X95.773 Y90.459 E31.49546
G1 X97.5 Y90.25 E31.65364
G1 X127.5 Y90.25 E34.38153
G1 X129.867 Y90.647 E34.59977
G1 X131.974 Y91.796 E34.81799
G1 X133.591 Y93.569 E35.03619
G1 X134.541 Y95.773 E35.25442
G1 X134.75 Y97.5 E35.4126
G1 X134.75 Y127.5 E38.14049
G1 X134.353 Y129.867 E38.35873
G1 X133.204 Y131.974 E38.57695
G1 X131.431 Y133.591 E38.79515
G1 X129.227 Y134.541 E39.01338
G1 X127.5 Y134.75 E39.17156
G1 X97.5 Y134.75 E41.89945
G1 X95.133 Y134.353 E42.11769
G1 X93.026 Y133.204 E42.33591
G1 X91.409 Y131.431 E42.55411
G1 X90.459 Y129.227 E42.77234
G1 X90.25 Y127.5 E42.93052
G1 X90.25 Y97.5 E45.65841
G1 X90.647 Y95.133 E45.87665
G1 X91.796 Y93.026 E46.09487
G1 X93.129 Y91.809 E46.259
G1 X93.544 Y92.301 F30000
G1 F3600
G1 X94.168 Y91.774 E46.33327
G1 X96.32 Y90.981 E46.54181
G1 X97.5 Y90.875 E46.64954
G1 X127.5 Y90.875 E49.37743
G1 X129.759 Y91.272 E49.58599
G1 X131.747 Y92.415 E49.79451
G1 X133.226 Y94.168 E50.00306
G1 X134.019 Y96.32 E50.2116
G1 X134.125 Y97.5 E50.31933
G1 X134.125 Y127.5 E53.04722
G1 X133.728 Y129.759 E53.25578
G1 X132.585 Y131.747 E53.4643
G1 X130.832 Y133.226 E53.67285
G1 X128.68 Y134.019 E53.88139
G1 X127.5 Y134.125 E53.98912
G1 X97.5 Y134.125 E56.71701
G1 X95.241 Y133.728 E56.92557
G1 X93.253 Y132.585 E57.13409
G1 X91.774 Y130.832 E57.34264
G1 X90.981 Y128.68 E57.55118
G1 X90.875 Y127.5 E57.65891
G1 X90.875 Y97.5 E60.3868
G1 X91.272 Y95.241 E60.59536
G1 X92.415 Y93.253 E60.80388
G1 X93.498 Y92.339 E60.93274
G1 E60.83274 F2400
G92 E0
G1 X125.9 Y125.9 F30000
G1 E.1 F2400
;TYPE:Perimeter
;WIDTH:0.7
G1 F3600
G1 X99.1 Y125.9 E2.53691
G1 X99.1 Y99.1 E4.97382
G1 X125.9 Y99.1 E7.41073
G1 X125.9 Y125.84 E9.84219
G1 X126.525 Y126.525 F30000
G1 F3600
G1 X98.475 Y126.525 E12.39276
G1 X98.475 Y98.475 E14.94333
G1 X126.525 Y98.475 E17.4939
G1 X126.525 Y126.465 E20.03902
G1 X127.15 Y127.15 F30000
;TYPE:External perimeter
G1 F3600
G1 X97.85 Y127.15 E22.70326
G1 X97.85 Y97.85 E25.3675
G1 X127.15 Y97.85 E28.03174
G1 X127.15 Y127.09 E30.69052
G1 X126.764 Y127.046 F30000
G1 E30.59052 F2400
G92 E0
G1 X124.428 Y99.287 F30000
G1 E.1 F2400
;TYPE:Solid infill
;WIDTH:0.710021
G1 F3600
G1 X125.432 Y100.29 E.23111
G1 X125.432 Y101.188 E.31407
G1 X123.812 Y99.568 E.52573
G1 X122.914 Y99.568 E.60869
G1 X125.432 Y102.086 E.93768
G1 X125.432 Y102.984 E1.02064
G1 X122.016 Y99.568 E1.46696
G1 X121.118 Y99.568 E1.54992
G1 X125.432 Y103.882 E2.11357
G1 X125.432 Y104.78 E2.19653
G1 X120.22 Y99.568 E2.87751
G1 X119.322 Y99.568 E2.96047
G1 X125.432 Y105.678 E3.75878
G1 X125.432 Y106.576 E3.84174
G1 X118.424 Y99.568 E4.75738
G1 X117.526 Y99.568 E4.84034
G1 X125.432 Y107.474 E5.87331
G1 X125.432 Y108.372 E5.95627
G1 X116.628 Y99.568 E7.10657
G1 X115.731 Y99.568 E7.18944
G1 X125.432 Y109.269 E8.45693
G1 X125.432 Y110.167 E8.53989
G1 X114.833 Y99.568 E9.92471
G1 X113.935 Y99.568 E10.00767
G1 X125.432 Y111.065 E11.50982
G1 X125.432 Y111.963 E11.59278
G1 X113.037 Y99.568 E13.21226
G1 X112.139 Y99.568 E13.29522
G1 X125.432 Y112.861 E15.03203
G1 X125.432 Y113.759 E15.11499
G1 X111.241 Y99.568 E16.96913
G1 X110.343 Y99.568 E17.05209
G1 X125.432 Y114.657 E19.02356
G1 X125.432 Y115.555 E19.10652
G1 X109.445 Y99.568 E21.19532
G1 X108.547 Y99.568 E21.27828
G1 X125.432 Y116.453 E23.48441
G1 X125.432 Y117.351 E23.56737
G1 X107.649 Y99.568 E25.89082
G1 X106.752 Y99.568 E25.97369
G1 X125.432 Y118.248 E28.41434
G1 X125.432 Y119.146 E28.4973
G1 X105.854 Y99.568 E31.05528
G1 X104.956 Y99.568 E31.13824
G1 X125.432 Y120.044 E33.81355
G1 X125.432 Y120.942 E33.89651
G1 X104.058 Y99.568 E36.68915
G1 X103.16 Y99.568 E36.77211
G1 X125.432 Y121.84 E39.68208
G1 X125.432 Y122.738 E39.76504
G1 X102.262 Y99.568 E42.79234
G1 X101.364 Y99.568 E42.8753
G1 X125.432 Y123.636 E46.01993
G1 X125.432 Y124.534 E46.10289
G1 X100.466 Y99.568 E49.36485
G1 X99.568 Y99.569 E49.44781
G1 X125.431 Y125.432 E52.82696
G1 X124.534 Y125.432 E52.90983
G1 X99.568 Y100.466 E56.17179
G1 X99.568 Y101.364 E56.25475
G1 X123.636 Y125.432 E59.39938
G1 X122.738 Y125.432 E59.48234
G1 X99.568 Y102.262 E62.50964
G1 X99.568 Y103.16 E62.5926
G1 X121.84 Y125.432 E65.50257
G1 X120.942 Y125.432 E65.58553
G1 X99.568 Y104.058 E68.37817
G1 X99.568 Y104.956 E68.46113
G1 X120.044 Y125.432 E71.13644
G1 X119.146 Y125.432 E71.2194
G1 X99.568 Y105.854 E73.77738
G1 X99.568 Y106.752 E73.86034
G1 X118.248 Y125.432 E76.30099
G1 X117.35 Y125.432 E76.38395
G1 X99.568 Y107.65 E78.70727
G1 X99.568 Y108.547 E78.79014
G1 X116.453 Y125.432 E80.99627
G1 X115.555 Y125.432 E81.07923
G1 X99.568 Y109.445 E83.16803
G1 X99.568 Y110.343 E83.25099
G1 X114.657 Y125.432 E85.22246
G1 X113.759 Y125.432 E85.30542
G1 X99.568 Y111.241 E87.15956
G1 X99.568 Y112.139 E87.24252
G1 X112.861 Y125.432 E88.97933
G1 X111.963 Y125.432 E89.06229
G1 X99.568 Y113.037 E90.68177
G1 X99.568 Y113.935 E90.76473
G1 X111.065 Y125.432 E92.26688
G1 X110.167 Y125.432 E92.34984
G1 X99.568 Y114.833 E93.73466
G1 X99.568 Y115.731 E93.81762
G1 X109.269 Y125.432 E95.08511
G1 X108.371 Y125.432 E95.16807
G1 X99.568 Y116.629 E96.31823
G1 X99.568 Y117.526 E96.4011
G1 X107.474 Y125.432 E97.43407
G1 X106.576 Y125.432 E97.51703
G1 X99.568 Y118.424 E98.43267
G1 X99.568 Y119.322 E98.51563
G1 X105.678 Y125.432 E99.31394
G1 X104.78 Y125.432 E99.3969
G1 X99.568 Y120.22 E100.07788
G1 X99.568 Y121.118 E100.16084
G1 X103.882 Y125.432 E100.72449
G1 X102.984 Y125.432 E100.80745
G1 X99.568 Y122.016 E101.25377
G1 X99.568 Y122.914 E101.33673
G1 X102.086 Y125.432 E101.66572
G1 X101.188 Y125.432 E101.74868
G1 X99.568 Y123.812 E101.96034
G1 X99.568 Y124.71 E102.0433
G1 X100.572 Y125.713 E102.17441
G1 E102.07441 F2400
G92 E0
M107
;TYPE:Custom
; Filament-specific end gcode
M104 S0 ; turn off temperature
M140 S0 ; turn off both beds
G28 X0  ; home X axis
M84     ; disable motors
; filament used [mm] = 193.50
; filament used [cm3] = 0.47
; filament used [g] = 0.58
; filament cost = 0.01
; total filament used [g] = 0.58
; total filament cost = 0.01
; estimated printing time (normal mode) = 43s
; estimated first layer printing time (normal mode) = 43s

; prusaslicer_config = begin
; autoemit_temperature_commands = 0
; avoid_crossing_curled_overhangs = 0
; avoid_crossing_perimeters = 0
; avoid_crossing_perimeters_max_detour = 0
; bed_custom_model = 
; bed_custom_texture = /home/jacques/.config/PrusaSlicer/printer/Grid Texture 220x220.png
; bed_shape = 0x0,225x0,225x225,0x225
; bed_temperature = 60
; before_layer_gcode = 
; between_objects_gcode = 
; bottom_fill_pattern = monotonic
; bottom_solid_layers = 3
; bottom_solid_min_thickness = 0
; bridge_acceleration = 0
; bridge_angle = 0
; bridge_fan_speed = 100
; bridge_flow_ratio = 1
; bridge_speed = 150
; brim_separation = 0
; brim_type = outer_only
; brim_width = 0
; color_change_gcode = M600
; compatible_printers_condition_cummulative = ;"printer_notes!~/.*PRINTER_VENDOR_TRILAB.*/ and printer_notes!~/.*PRINTER_MODEL_MK4IS.*/ and ! (printer_notes=~/.*PRINTER_VENDOR_PRUSA3D.*/ and num_extruders>1)"
; complete_objects = 0
; cooling = 0
; cooling_tube_length = 5
; cooling_tube_retraction = 91.5
; default_acceleration = 0
; default_filament_profile = 
; default_print_profile = 
; deretract_speed = 0
; disable_fan_first_layers = 3
; dont_support_bridges = 0
; draft_shield = disabled
; duplicate_distance = 6
; elefant_foot_compensation = 0
; enable_dynamic_fan_speeds = 0
; enable_dynamic_overhang_speeds = 1
; end_filament_gcode = "; Filament-specific end gcode"
; end_gcode = M104 S0 ; turn off temperature\nM140 S0 ; turn off both beds\nG28 X0  ; home X axis\nM84     ; disable motors\n
; external_perimeter_acceleration = 0
; external_perimeter_extrusion_width = 0
; external_perimeter_speed = 50%
; external_perimeters_first = 0
; extra_loading_move = -2
; extra_perimeters = 1
; extra_perimeters_on_overhangs = 0
; extruder_clearance_height = 20
; extruder_clearance_radius = 20
; extruder_colour = ""
; extruder_offset = 0x0
; extrusion_axis = E
; extrusion_multiplier = 1
; extrusion_width = 0
; fan_always_on = 0
; fan_below_layer_time = 60
; filament_colour = #000000
; filament_cooling_final_speed = 3.4
; filament_cooling_initial_speed = 2.2
; filament_cooling_moves = 4
; filament_cost = 16.9
; filament_density = 1.24
; filament_diameter = 1.75
; filament_load_time = 0
; filament_loading_speed = 14
; filament_loading_speed_start = 19
; filament_max_volumetric_speed = 25
; filament_minimal_purge_on_wipe_tower = 15
; filament_multitool_ramming = 0
; filament_multitool_ramming_flow = 10
; filament_multitool_ramming_volume = 10
; filament_notes = ""
; filament_ramming_parameters = "120 100 6.6 6.8 7.2 7.6 7.9 8.2 8.7 9.4 9.9 10.0| 0.05 6.6 0.45 6.8 0.95 7.8 1.45 8.3 1.95 9.7 2.45 10 2.95 7.6 3.45 7.6 3.95 7.6 4.45 7.6 4.95 7.6"
; filament_retract_length = 0.1
; filament_retract_speed = 40
; filament_settings_id = "Elegoo Black PLA"
; filament_soluble = 0
; filament_spool_weight = 1000
; filament_toolchange_delay = 0
; filament_type = PLA
; filament_unload_time = 0
; filament_unloading_speed = 20
; filament_unloading_speed_start = 100
; filament_vendor = Generic
; fill_angle = 45
; fill_density = 20%
; fill_pattern = adaptivecubic
; first_layer_acceleration = 0
; first_layer_acceleration_over_raft = 0
; first_layer_bed_temperature = 65
; first_layer_extrusion_width = 200%
; first_layer_height = 0.35
; first_layer_speed = 60
; first_layer_speed_over_raft = 30
; first_layer_temperature = 205
; full_fan_speed_layer = 0
; fuzzy_skin = none
; fuzzy_skin_point_dist = 0.8
; fuzzy_skin_thickness = 0.3
; gap_fill_enabled = 1
; gap_fill_speed = 50
; gcode_comments = 0
; gcode_flavor = klipper
; gcode_label_objects = 0
; gcode_resolution = 0.0125
; gcode_substitutions = ;;;
; high_current_on_filament_swap = 0
; host_type = prusalink
; infill_acceleration = 0
; infill_anchor = 600%
; infill_anchor_max = 50
; infill_every_layers = 1
; infill_extruder = 1
; infill_extrusion_width = 0
; infill_first = 0
; infill_overlap = 25%
; infill_speed = 100
; interface_shells = 0
; ironing = 0
; ironing_flowrate = 15%
; ironing_spacing = 0.1
; ironing_speed = 15
; ironing_type = top
; layer_gcode = 
; layer_height = 0.3
; machine_limits_usage = time_estimate_only
; machine_max_acceleration_e = 10000,5000
; machine_max_acceleration_extruding = 1500,1250
; machine_max_acceleration_retracting = 1500,1250
; machine_max_acceleration_travel = 1500,1250
; machine_max_acceleration_x = 9000,1000
; machine_max_acceleration_y = 9000,1000
; machine_max_acceleration_z = 500,200
; machine_max_feedrate_e = 199,199
; machine_max_feedrate_x = 500,200
; machine_max_feedrate_y = 500,200
; machine_max_feedrate_z = 12,12
; machine_max_jerk_e = 2.5,2.5
; machine_max_jerk_x = 10,10
; machine_max_jerk_y = 10,10
; machine_max_jerk_z = 0.2,0.4
; machine_min_extruding_rate = 0,0
; machine_min_travel_rate = 0,0
; max_fan_speed = 100
; max_layer_height = 0
; max_print_height = 265
; max_print_speed = 500
; max_volumetric_extrusion_rate_slope_negative = 0
; max_volumetric_extrusion_rate_slope_positive = 0
; max_volumetric_speed = 25
; min_bead_width = 85%
; min_fan_speed = 35
; min_feature_size = 25%
; min_layer_height = 0.07
; min_print_speed = 10
; min_skirt_length = 0
; mmu_segmented_region_interlocking_depth = 0
; mmu_segmented_region_max_width = 0
; notes = 
; nozzle_diameter = 0.4
; only_retract_when_crossing_perimeters = 0
; ooze_prevention = 0
; output_filename_format = [input_filename_base].gcode
; overhang_fan_speed_0 = 0
; overhang_fan_speed_1 = 0
; overhang_fan_speed_2 = 0
; overhang_fan_speed_3 = 0
; overhang_speed_0 = 15
; overhang_speed_1 = 15
; overhang_speed_2 = 20
; overhang_speed_3 = 25
; overhangs = 1
; parking_pos_retraction = 92
; pause_print_gcode = M601
; perimeter_acceleration = 0
; perimeter_extruder = 1
; perimeter_extrusion_width = 0
; perimeter_generator = arachne
; perimeter_speed = 75
; perimeters = 3
; physical_printer_settings_id = 
; post_process = 
; print_settings_id = Elegoo Neptune4 Pro Prototyping
; printer_model = 
; printer_notes = This is my (Jacques Blain) custom Elegoo Neptune 4 Pro setup
; printer_settings_id = Elegoo Neptune 4 Pro
; printer_technology = FFF
; printer_variant = 
; printer_vendor = 
; raft_contact_distance = 0.1
; raft_expansion = 1.5
; raft_first_layer_density = 90%
; raft_first_layer_expansion = 3
; raft_layers = 0
; remaining_times = 0
; resolution = 0
; retract_before_travel = 2
; retract_before_wipe = 0%
; retract_layer_change = 0
; retract_length = 2
; retract_length_toolchange = 10
; retract_lift = 0
; retract_lift_above = 0
; retract_lift_below = 0
; retract_restart_extra = 0
; retract_restart_extra_toolchange = 0
; retract_speed = 40
; seam_position = aligned
; silent_mode = 1
; single_extruder_multi_material = 0
; single_extruder_multi_material_priming = 1
; skirt_distance = 6
; skirt_height = 1
; skirts = 4
; slice_closing_radius = 0.049
; slicing_mode = regular
; slowdown_below_layer_time = 5
; small_perimeter_speed = 25%
; solid_infill_acceleration = 0
; solid_infill_below_area = 70
; solid_infill_every_layers = 0
; solid_infill_extruder = 1
; solid_infill_extrusion_width = 0
; solid_infill_speed = 70
; spiral_vase = 0
; staggered_inner_seams = 0
; standby_temperature_delta = -5
; start_filament_gcode = "; Filament gcode\n"
; start_gcode = ; M192 S200 ; set hot end to bed levelling temp and wait for it\n; G28 ; home all axes\n; G1 Z5 F5000 ; lift nozzle\nM190 S[first_layer_bed_temperature] ; set bed temperature and wait for it to be reached\nM109 S[first_layer_temperature] ; set hot end temp and wait for it
; support_material = 0
; support_material_angle = 0
; support_material_auto = 1
; support_material_bottom_contact_distance = 0
; support_material_bottom_interface_layers = -1
; support_material_buildplate_only = 1
