; generated by PrusaSlicer 2.6.1+linux-x64-GTK3 on 2023-10-09 at 23:26:22 UTC

; 

; external perimeters extrusion width = 0.45mm
; perimeters extrusion width = 0.45mm
; infill extrusion width = 0.45mm
; solid infill extrusion width = 0.45mm
; top infill extrusion width = 0.40mm
; first layer extrusion width = 0.70mm

;TYPE:Custom
; M190 R30 ; Because of probe temperature drift,
; M109 R30 ; Let the beds and hotend cool down before homing the axis

G28 ; home all axes
G1 Z5 F5000 ; lift nozzle
M190 S65 ; set bed temperature and wait for it to be reached
M109 S230 ; set hot end temp and wait for it

; Do a purge line to prime the extruder
G92 E0 ;Reset Extruder
G1 Z2.0 F3000 ;Move Z Axis up
G1 X20 Y5.1 Z0.28 F5000.0 ;Move to start position
G1 X200.0 Y5.1 Z0.28 F1500.0 E15 ;Draw the first line
G1 X200.0 Y5.4 Z0.28 F5000.0 ;Move to side a little
G1 X20 Y5.4 Z0.28 F1500.0 E30 ;Draw the second line
G1 Z0.4 F3000; Move Z Axis Up
G1 X50 F1500; Wipe to the right
G92 E0 ;Reset Extruder

; Brush any crap off the nozzle
; """""
G21 ; set units to millimeters
G90 ; use absolute coordinates
M82 ; use absolute distances for extrusion
G92 E0
; Filament gcode
M107
;LAYER_CHANGE
;Z:0.35
;HEIGHT:0.35
G1 Z.35 F30000
G1 E-.1 F2400
G92 E0
G1 X147.15 Y141.175 F30000
G1 E.1 F2400
;TYPE:External perimeter
;WIDTH:0.7
G1 F1800
G1 X147.824 Y141.475 E.16708
G1 X148.61 Y142.046 E.25542
G1 X149.26 Y142.768 E.34376
G1 X149.746 Y143.609 E.43208
G1 X150.046 Y144.534 E.5205
G1 X150.148 Y145.5 E.60883
G1 X150.046 Y146.466 E.69716
G1 X149.746 Y147.391 E.78558
G1 X149.26 Y148.232 E.8739
G1 X148.61 Y148.954 E.96224
G1 X147.824 Y149.525 E1.05058
G1 X146.936 Y149.921 E1.13899
G1 X145.986 Y150.123 E1.2273
G1 X145.014 Y150.123 E1.31568
G1 X144.064 Y149.921 E1.40399
G1 X143.176 Y149.525 E1.4924
G1 X142.39 Y148.954 E1.58074
G1 X141.74 Y148.233 E1.66901
G1 X141.125 Y147.15 E1.78226
G1 X93.875 Y147.15 E6.07868
G1 X93.26 Y148.233 E6.19193
G1 X92.61 Y148.954 E6.2802
G1 X91.824 Y149.525 E6.36854
G1 X90.936 Y149.921 E6.45695
G1 X89.986 Y150.123 E6.54526
G1 X89.014 Y150.123 E6.63364
G1 X88.064 Y149.921 E6.72195
G1 X87.176 Y149.525 E6.81036
G1 X86.39 Y148.954 E6.8987
G1 X85.74 Y148.232 E6.98704
G1 X85.254 Y147.391 E7.07536
G1 X84.953 Y146.466 E7.16381
G1 X84.852 Y145.5 E7.25213
G1 X84.953 Y144.534 E7.34045
G1 X85.254 Y143.609 E7.4289
G1 X85.74 Y142.768 E7.51722
G1 X86.39 Y142.046 E7.60556
G1 X87.176 Y141.475 E7.6939
G1 X87.85 Y141.175 E7.76098
G1 X87.85 Y93.825 E12.0665
G1 X87.176 Y93.525 E12.13358
G1 X86.39 Y92.954 E12.22192
G1 X85.74 Y92.232 E12.31026
G1 X85.254 Y91.391 E12.39858
G1 X84.953 Y90.466 E12.48703
G1 X84.852 Y89.5 E12.57535
G1 X84.953 Y88.534 E12.66367
G1 X85.254 Y87.609 E12.75212
G1 X85.74 Y86.768 E12.84044
G1 X86.39 Y86.046 E12.92878
G1 X87.176 Y85.475 E13.01712
G1 X88.064 Y85.079 E13.10553
G1 X89.014 Y84.877 E13.19384
G1 X89.986 Y84.877 E13.28222
G1 X90.936 Y85.079 E13.37053
G1 X91.824 Y85.475 E13.45894
G1 X92.61 Y86.046 E13.54728
G1 X93.26 Y86.767 E13.63555
G1 X93.875 Y87.85 E13.7488
G1 X141.125 Y87.85 E18.04522
G1 X141.74 Y86.767 E18.15847
G1 X142.39 Y86.046 E18.24674
G1 X143.176 Y85.475 E18.33508
G1 X144.064 Y85.079 E18.42349
G1 X145.014 Y84.877 E18.5118
G1 X145.986 Y84.877 E18.60018
G1 X146.936 Y85.079 E18.68849
G1 X147.824 Y85.475 E18.7769
G1 X148.61 Y86.046 E18.86524
G1 X149.26 Y86.768 E18.95358
G1 X149.746 Y87.609 E19.0419
G1 X150.046 Y88.534 E19.13032
G1 X150.148 Y89.5 E19.21865
G1 X150.046 Y90.466 E19.30698
G1 X149.746 Y91.391 E19.3954
G1 X149.26 Y92.232 E19.48372
G1 X148.61 Y92.954 E19.57206
G1 X147.824 Y93.525 E19.6604
G1 X147.15 Y93.825 E19.72748
G1 X147.15 Y141.115 E24.02754
G1 E23.92754 F2400
G92 E0
G1 X92.15 Y92.15 F30000
G1 E.1 F2400
G1 F1800
G1 X116.15 Y92.15 E2.28231
G1 X116.15 Y91.65 E2.32777
G1 X118.85 Y91.65 E2.57328
G1 X118.85 Y92.15 E2.61874
G1 X142.85 Y92.15 E4.80105
G1 X142.85 Y116.15 E6.98336
G1 X143.35 Y116.15 E7.02882
G1 X143.35 Y118.85 E7.27433
G1 X142.85 Y118.85 E7.31979
G1 X142.85 Y142.85 E9.5021
G1 X118.85 Y142.85 E11.68441
G1 X118.85 Y143.35 E11.72987
G1 X116.15 Y143.35 E11.97538
G1 X116.15 Y142.85 E12.02084
G1 X92.15 Y142.85 E14.20315
G1 X92.15 Y114.85 E16.74918
G1 X91.65 Y114.85 E16.79464
G1 X91.65 Y112.15 E17.04015
G1 X92.15 Y112.15 E17.08561
G1 X92.15 Y92.21 E18.89875
G1 E18.79875 F2400
G92 E0
G1 X146.112 Y85.096 F30000
G1 E.1 F2400
;TYPE:Solid infill
;WIDTH:0.700399
G1 F1800
G1 X149.556 Y88.54 E.54316
G1 X149.586 Y88.632 E.55196
G1 X149.673 Y89.541 E.63505
G1 X145.478 Y85.346 E1.17485
G1 X145.063 Y85.346 E1.21261
G1 X144.676 Y85.428 E1.2486
G1 X149.588 Y90.341 E1.88072
G1 X149.376 Y91.013 E1.94483
G1 X143.989 Y85.626 E2.63801
G1 X143.383 Y85.904 E2.69867
G1 X149.082 Y91.603 E3.43199
G1 X148.879 Y91.955 E3.46896
G1 X148.723 Y92.128 E3.49016
G1 X142.87 Y86.276 E4.24324
G1 X142.705 Y86.396 E4.2618
G1 X142.421 Y86.711 E4.30039
G1 X148.304 Y92.594 E5.05739
G1 X147.794 Y92.968 E5.11493
G1 X142.031 Y87.205 E5.85649
G1 X141.71 Y87.769 E5.91554
G1 X147.222 Y93.28 E6.62474
G1 X146.681 Y93.521 E6.67863
G1 X146.681 Y93.624 E6.688
G1 X141.376 Y88.319 E7.37063
G1 X140.492 Y88.319 E7.45106
G1 X146.681 Y94.508 E8.24744
G1 X146.681 Y95.392 E8.32787
G1 X139.608 Y88.319 E9.23799
G1 X138.723 Y88.319 E9.31851
G1 X142.086 Y91.681 E9.75118
G1 X141.202 Y91.681 E9.83161
G1 X137.839 Y88.319 E10.26428
G1 X136.955 Y88.319 E10.34471
G1 X140.317 Y91.681 E10.77732
G1 X139.433 Y91.681 E10.85775
G1 X136.07 Y88.319 E11.29042
G1 X135.186 Y88.319 E11.37085
G1 X138.549 Y91.681 E11.80352
G1 X137.664 Y91.681 E11.88404
G1 X134.302 Y88.319 E12.31665
G1 X133.417 Y88.319 E12.39717
G1 X136.78 Y91.681 E12.82984
G1 X135.896 Y91.681 E12.91027
G1 X132.533 Y88.319 E13.34294
G1 X131.649 Y88.319 E13.42337
G1 X135.012 Y91.681 E13.85604
G1 X134.127 Y91.681 E13.93656
G1 X130.765 Y88.319 E14.36917
G1 X129.88 Y88.319 E14.44969
G1 X133.243 Y91.681 E14.88236
G1 X132.359 Y91.681 E14.96279
G1 X128.996 Y88.319 E15.39546
G1 X128.112 Y88.319 E15.47589
G1 X131.474 Y91.681 E15.9085
G1 X130.59 Y91.681 E15.98893
G1 X127.227 Y88.319 E16.4216
G1 X126.343 Y88.319 E16.50203
G1 X129.706 Y91.681 E16.9347
G1 X128.822 Y91.681 E17.01513
G1 X125.459 Y88.319 E17.4478
G1 X124.575 Y88.319 E17.52823
G1 X127.937 Y91.681 E17.96084
G1 X127.053 Y91.681 E18.04127
G1 X123.69 Y88.319 E18.47394
G1 X122.806 Y88.319 E18.55437
G1 X126.169 Y91.681 E18.98704
G1 X125.284 Y91.681 E19.06756
G1 X121.922 Y88.319 E19.50017
G1 X121.037 Y88.319 E19.58069
G1 X124.4 Y91.681 E20.01336
G1 X123.516 Y91.681 E20.09379
G1 X120.153 Y88.319 E20.52646
G1 X119.269 Y88.319 E20.60689
G1 X122.631 Y91.681 E21.0395
G1 X121.747 Y91.681 E21.11993
G1 X118.385 Y88.319 E21.55254
G1 X117.5 Y88.319 E21.63306
G1 X120.863 Y91.681 E22.06573
G1 X119.979 Y91.681 E22.14616
G1 X116.616 Y88.319 E22.57883
G1 X115.732 Y88.319 E22.65926
G1 X118.594 Y91.181 E23.02753
G1 X117.71 Y91.181 E23.10796
G1 X114.847 Y88.319 E23.47629
G1 X113.963 Y88.319 E23.55672
G1 X116.826 Y91.181 E23.92505
G1 X115.941 Y91.181 E24.00557
G1 X113.079 Y88.319 E24.37384
G1 X112.195 Y88.319 E24.45427
G1 X115.557 Y91.681 E24.88688
G1 X114.673 Y91.681 E24.96731
G1 X111.31 Y88.319 E25.39998
G1 X110.426 Y88.319 E25.48041
G1 X113.789 Y91.681 E25.91308
G1 X112.904 Y91.681 E25.9936
G1 X109.542 Y88.319 E26.42621
G1 X108.657 Y88.319 E26.50673
G1 X112.02 Y91.681 E26.9394
G1 X111.136 Y91.681 E27.01983
G1 X107.773 Y88.319 E27.4525
G1 X106.889 Y88.319 E27.53293
G1 X110.251 Y91.681 E27.96554
G1 X109.367 Y91.681 E28.04597
G1 X106.004 Y88.319 E28.47864
G1 X105.12 Y88.319 E28.55907
G1 X108.483 Y91.681 E28.99174
G1 X107.599 Y91.681 E29.07217
G1 X104.236 Y88.319 E29.50484
G1 X103.352 Y88.319 E29.58527
G1 X106.714 Y91.681 E30.01788
G1 X105.83 Y91.681 E30.09831
G1 X102.467 Y88.319 E30.53098
G1 X101.583 Y88.319 E30.61141
G1 X104.946 Y91.681 E31.04408
G1 X104.061 Y91.681 E31.1246
G1 X100.699 Y88.319 E31.55721
G1 X99.814 Y88.319 E31.63773
G1 X103.177 Y91.681 E32.0704
G1 X102.293 Y91.681 E32.15083
G1 X98.93 Y88.319 E32.5835
G1 X98.046 Y88.319 E32.66393
G1 X101.409 Y91.681 E33.0966
G1 X100.524 Y91.681 E33.17712
G1 X97.162 Y88.319 E33.60973
G1 X96.277 Y88.319 E33.69025
G1 X99.64 Y91.681 E34.12292
G1 X98.756 Y91.681 E34.20335
G1 X95.393 Y88.319 E34.63602
G1 X94.509 Y88.319 E34.71645
G1 X97.871 Y91.681 E35.14906
G1 X96.987 Y91.681 E35.22949
G1 X90.868 Y85.562 E36.01686
G1 X90.791 Y85.528 E36.02452
G1 X89.937 Y85.346 E36.10397
G1 X89.767 Y85.346 E36.11944
G1 X96.103 Y91.681 E36.93467
G1 X95.218 Y91.681 E37.01519
G1 X88.915 Y85.378 E37.82623
G1 X88.209 Y85.528 E37.8919
G1 X88.189 Y85.536 E37.89386
G1 X94.334 Y91.681 E38.68457
G1 X93.45 Y91.681 E38.765
G1 X87.577 Y85.809 E39.52065
G1 X87.412 Y85.883 E39.5371
G1 X87.038 Y86.154 E39.57912
G1 X92.566 Y91.681 E40.29038
G1 X91.681 Y91.681 E40.3709
G1 X86.559 Y86.559 E41.02998
G1 X86.14 Y87.024 E41.08693
G1 X91.681 Y92.566 E41.79999
G1 X91.681 Y93.45 E41.88042
G1 X85.812 Y87.58 E42.63568
G1 X85.684 Y87.801 E42.65892
G1 X85.553 Y88.206 E42.69765
G1 X91.681 Y94.334 E43.48618
G1 X91.681 Y95.219 E43.5667
G1 X85.384 Y88.921 E44.37704
G1 X85.323 Y89.5 E44.43001
G1 X85.352 Y89.773 E44.45499
G1 X91.681 Y96.103 E45.26944
G1 X91.681 Y96.987 E45.34987
G1 X85.146 Y90.452 E46.19077
G1 E46.09077 F2400
G92 E0
G1 X88.037 Y94.228 F30000
G1 E.1 F2400
G1 F1800
G1 X91.681 Y97.871 E.56883
G1 X91.681 Y98.756 E.64935
G1 X88.319 Y95.393 E1.08202
G1 X88.319 Y96.277 E1.16245
G1 X91.681 Y99.64 E1.59512
G1 X91.681 Y100.524 E1.67555
G1 X88.319 Y97.162 E2.10816
G1 X88.319 Y98.046 E2.18859
G1 X91.681 Y101.409 E2.62126
G1 X91.681 Y102.293 E2.70169
G1 X88.319 Y98.93 E3.13436
G1 X88.319 Y99.814 E3.21479
G1 X91.681 Y103.177 E3.64746
G1 X91.681 Y104.061 E3.72789
G1 X88.319 Y100.699 E4.1605
G1 X88.319 Y101.583 E4.24093
G1 X91.681 Y104.946 E4.6736
G1 X91.681 Y105.83 E4.75403
G1 X88.319 Y102.467 E5.1867
G1 X88.319 Y103.352 E5.26722
G1 X91.681 Y106.714 E5.69983
G1 X91.681 Y107.599 E5.78035
G1 X88.319 Y104.236 E6.21302
G1 X88.319 Y105.12 E6.29345
G1 X91.681 Y108.483 E6.72612
G1 X91.681 Y109.367 E6.80655
G1 X88.319 Y106.005 E7.23916
G1 X88.319 Y106.889 E7.31959
G1 X91.681 Y110.251 E7.7522
G1 X91.681 Y111.136 E7.83272
G1 X88.319 Y107.773 E8.26539
G1 X88.319 Y108.657 E8.34582
G1 X91.343 Y111.681 E8.73494
G1 X91.181 Y111.681 E8.74968
G1 X91.181 Y112.404 E8.81546
G1 X88.319 Y109.542 E9.18373
G1 X88.319 Y110.426 E9.26416
G1 X91.181 Y113.289 E9.63249
G1 X91.181 Y114.173 E9.71292
G1 X88.319 Y111.31 E10.08125
G1 X88.319 Y112.195 E10.16177
G1 X91.681 Y115.557 E10.59438
G1 X91.681 Y116.441 E10.67481
G1 X88.319 Y113.079 E11.10742
G1 X88.319 Y113.963 E11.18785
G1 X91.681 Y117.326 E11.62052
G1 X91.681 Y118.21 E11.70095
G1 X88.319 Y114.847 E12.13362
G1 X88.319 Y115.732 E12.21414
G1 X91.681 Y119.094 E12.64675
G1 X91.681 Y119.979 E12.72727
G1 X88.319 Y116.616 E13.15994
G1 X88.319 Y117.5 E13.24037
G1 X91.681 Y120.863 E13.67304
G1 X91.681 Y121.747 E13.75347
G1 X88.319 Y118.385 E14.18608
G1 X88.319 Y119.269 E14.26651
G1 X91.681 Y122.632 E14.69918
G1 X91.681 Y123.516 E14.77961
G1 X88.319 Y120.153 E15.21228
G1 X88.319 Y121.037 E15.29271
G1 X91.681 Y124.4 E15.72538
G1 X91.681 Y125.284 E15.80581
G1 X88.319 Y121.922 E16.23842
G1 X88.319 Y122.806 E16.31885
G1 X91.681 Y126.169 E16.75152
G1 X91.681 Y127.053 E16.83195
G1 X88.319 Y123.69 E17.26462
G1 X88.319 Y124.575 E17.34514
G1 X91.681 Y127.937 E17.77775
G1 X91.681 Y128.822 E17.85827
G1 X88.319 Y125.459 E18.29094
G1 X88.319 Y126.343 E18.37137
G1 X91.681 Y129.706 E18.80404
G1 X91.681 Y130.59 E18.88447
G1 X88.319 Y127.227 E19.31714
G1 X88.319 Y128.112 E19.39766
G1 X91.681 Y131.474 E19.83027
G1 X91.681 Y132.359 E19.91079
G1 X88.319 Y128.996 E20.34346
G1 X88.319 Y129.88 E20.42389
G1 X91.681 Y133.243 E20.85656
G1 X91.681 Y134.127 E20.93699
G1 X88.319 Y130.765 E21.3696
G1 X88.319 Y131.649 E21.45003
G1 X91.681 Y135.012 E21.8827
G1 X91.681 Y135.896 E21.96313
G1 X88.319 Y132.533 E22.3958
G1 X88.319 Y133.418 E22.47632
G1 X91.681 Y136.78 E22.90893
G1 X91.681 Y137.664 E22.98936
G1 X88.319 Y134.302 E23.42197
G1 X88.319 Y135.186 E23.5024
G1 X91.681 Y138.549 E23.93507
G1 X91.681 Y139.433 E24.0155
G1 X88.319 Y136.07 E24.44817
G1 X88.319 Y136.955 E24.52869
G1 X91.681 Y140.317 E24.9613
G1 X91.681 Y141.202 E25.04182
G1 X88.319 Y137.839 E25.47449
G1 X88.319 Y138.723 E25.55492
G1 X91.963 Y142.367 E26.02381
G1 E25.92381 F2400
G92 E0
G1 X143.037 Y92.633 F30000
G1 E.1 F2400
G1 F1800
G1 X146.681 Y96.277 E.56889
G1 X146.681 Y97.161 E.64932
G1 X143.319 Y93.798 E1.08199
G1 X143.319 Y94.683 E1.16251
G1 X146.681 Y98.045 E1.59512
G1 X146.681 Y98.93 E1.67564
G1 X143.319 Y95.567 E2.10831
G1 X143.319 Y96.451 E2.18874
G1 X146.681 Y99.814 E2.62141
G1 X146.681 Y100.698 E2.70184
G1 X143.319 Y97.336 E3.13445
G1 X143.319 Y98.22 E3.21488
G1 X146.681 Y101.583 E3.64755
G1 X146.681 Y102.467 E3.72798
G1 X143.319 Y99.104 E4.16065
G1 X143.319 Y99.988 E4.24108
G1 X146.681 Y103.351 E4.67375
G1 X146.681 Y104.235 E4.75418
G1 X143.319 Y100.873 E5.18679
G1 X143.319 Y101.757 E5.26722
G1 X146.681 Y105.12 E5.69989
G1 X146.681 Y106.004 E5.78032
G1 X143.319 Y102.641 E6.21299
G1 X143.319 Y103.526 E6.29351
G1 X146.681 Y106.888 E6.72612
G1 X146.681 Y107.773 E6.80664
G1 X143.319 Y104.41 E7.23931
G1 X143.319 Y105.294 E7.31974
G1 X146.681 Y108.657 E7.75241
G1 X146.681 Y109.541 E7.83284
G1 X143.319 Y106.178 E8.26551
G1 X143.319 Y107.063 E8.34603
G1 X146.681 Y110.425 E8.77864
G1 X146.681 Y111.31 E8.85916
G1 X143.319 Y107.947 E9.29183
G1 X143.319 Y108.831 E9.37226
G1 X146.681 Y112.194 E9.80493
G1 X146.681 Y113.078 E9.88536
G1 X143.319 Y109.716 E10.31797
G1 X143.319 Y110.6 E10.3984
G1 X146.681 Y113.963 E10.83107
G1 X146.681 Y114.847 E10.9115
G1 X143.319 Y111.484 E11.34417
G1 X143.319 Y112.369 E11.42469
G1 X146.681 Y115.731 E11.8573
G1 X146.681 Y116.615 E11.93773
G1 X143.319 Y113.253 E12.37034
G1 X143.319 Y114.137 E12.45077
G1 X146.681 Y117.5 E12.88344
G1 X146.681 Y118.384 E12.96387
G1 X143.319 Y115.021 E13.39654
G1 X143.319 Y115.681 E13.45659
G1 X143.819 Y115.681 E13.50208
G1 X143.819 Y116.406 E13.56805
G1 X146.681 Y119.268 E13.93632
G1 X146.681 Y120.153 E14.01684
G1 X143.819 Y117.29 E14.38517
G1 X143.819 Y118.174 E14.4656
G1 X146.681 Y121.037 E14.83393
G1 X146.681 Y121.921 E14.91436
G1 X143.819 Y119.059 E15.28263
G1 X143.819 Y119.319 E15.30629
G1 X143.319 Y119.319 E15.35178
G1 X143.319 Y119.443 E15.36306
G1 X146.681 Y122.806 E15.79573
G1 X146.681 Y123.69 E15.87616
G1 X143.319 Y120.327 E16.30883
G1 X143.319 Y121.211 E16.38926
G1 X146.681 Y124.574 E16.82193
G1 X146.681 Y125.458 E16.90236
G1 X143.319 Y122.096 E17.33497
G1 X143.319 Y122.98 E17.4154
G1 X146.681 Y126.343 E17.84807
G1 X146.681 Y127.227 E17.9285
G1 X143.319 Y123.864 E18.36117
G1 X143.319 Y124.749 E18.44169
G1 X146.681 Y128.111 E18.8743
G1 X146.681 Y128.996 E18.95482
G1 X143.319 Y125.633 E19.38749
G1 X143.319 Y126.517 E19.46792
G1 X146.681 Y129.88 E19.90059
G1 X146.681 Y130.764 E19.98102
G1 X143.319 Y127.401 E20.41369
G1 X143.319 Y128.286 E20.49421
G1 X146.681 Y131.648 E20.92682
G1 X146.681 Y132.533 E21.00734
G1 X143.319 Y129.17 E21.44001
G1 X143.319 Y130.054 E21.52044
G1 X146.681 Y133.417 E21.95311
G1 X146.681 Y134.301 E22.03354
G1 X143.319 Y130.939 E22.46615
G1 X143.319 Y131.823 E22.54658
G1 X146.681 Y135.186 E22.97925
G1 X146.681 Y136.07 E23.05968
G1 X143.319 Y132.707 E23.49235
G1 X143.319 Y133.591 E23.57278
G1 X146.681 Y136.954 E24.00545
G1 X146.681 Y137.838 E24.08588
G1 X143.319 Y134.476 E24.51849
G1 X143.319 Y135.36 E24.59892
G1 X146.681 Y138.723 E25.03159
G1 X146.681 Y139.607 E25.11202
G1 X143.319 Y136.244 E25.54469
G1 X143.319 Y137.129 E25.62521
G1 X146.963 Y140.773 E26.0941
G1 E25.9941 F2400
G92 E0
G1 X149.854 Y144.548 F30000
G1 E.1 F2400
G1 F1800
G1 X143.319 Y138.013 E.9409
G1 X143.319 Y138.897 E1.02133
G1 X149.648 Y145.227 E1.83578
G1 X149.677 Y145.5 E1.86076
G1 X149.616 Y146.079 E1.91373
G1 X143.319 Y139.782 E2.724
G1 X143.319 Y140.666 E2.80443
G1 X149.447 Y146.794 E3.59296
G1 X149.316 Y147.199 E3.63169
G1 X149.188 Y147.42 E3.65493
G1 X143.319 Y141.55 E4.41019
G1 X143.319 Y142.434 E4.49062
G1 X148.86 Y147.976 E5.20368
G1 X148.441 Y148.441 E5.26063
G1 X143.319 Y143.319 E5.91971
G1 X142.434 Y143.319 E6.00023
G1 X147.962 Y148.846 E6.71149
