; generated by PrusaSlicer 2.6.1+linux-x64-GTK3 on 2023-09-15 at 18:45:57 UTC

; 

; external perimeters extrusion width = 0.45mm
; perimeters extrusion width = 0.45mm
; infill extrusion width = 0.45mm
; solid infill extrusion width = 0.45mm
; top infill extrusion width = 0.40mm
; first layer extrusion width = 0.42mm

M190 S65 ; set bed temperature and wait for it to be reached
M104 S225 ; set temperature
;TYPE:Custom
G28 ; home all axes
G1 Z5 F5000 ; lift nozzle
M109 S225 ; set temperature and wait for it to be reached
G21 ; set units to millimeters
G90 ; use absolute coordinates
M82 ; use absolute distances for extrusion
G92 E0
; Filament gcode
M107
;LAYER_CHANGE
;Z:0.25
;HEIGHT:0.25
G1 Z.25 F30000
G1 E-2 F2400
G92 E0
G1 X71.986 Y75.703 F30000
G1 E2 F2400
;TYPE:Skirt/Brim
;WIDTH:0.42
G1 X74.05 Y73.96 E2.10287
G1 X76.952 Y71.961 E2.23705
G1 X79.858 Y70.39 E2.36284
G1 X82.523 Y69.27 E2.47291
G1 X85.283 Y68.394 E2.58317
G1 X88.043 Y67.78 E2.69083
G1 X90.63 Y67.427 E2.79025
G1 X93.35 Y67.279 E2.89397
G1 X135.099 Y67.246 E4.48367
G1 X137.606 Y67.347 E4.57921
G1 X140.067 Y67.633 E4.67355
G1 X142.688 Y68.15 E4.77527
G1 X145.064 Y68.816 E4.86923
G1 X147.567 Y69.742 E4.97085
G1 X149.41 Y70.582 E5.04797
G1 X151.555 Y71.748 E5.14093
G1 X153.581 Y73.058 E5.2328
G1 X155.646 Y74.64 E5.33185
G1 X157.515 Y76.327 E5.42772
G1 X159.503 Y78.46 E5.53875
G1 X160.618 Y79.85 E5.6066
G1 X162.215 Y82.17 E5.71385
G1 X163.127 Y83.728 E5.78259
G1 X164.367 Y86.254 E5.88974
G1 X165.446 Y89.089 E6.00524
G1 X165.936 Y90.74 E6.07082
G1 X166.505 Y93.288 E6.17023
G1 X166.75 Y94.878 E6.23149
G1 X166.973 Y97.447 E6.32968
G1 X167.022 Y126.147 E7.42251
G1 X166.925 Y128.553 E7.5142
G1 X166.643 Y130.964 E7.60663
G1 X166.354 Y132.547 E7.6679
G1 X165.709 Y135.099 E7.76813
G1 X165.162 Y136.769 E7.83504
G1 X164.099 Y139.36 E7.94168
G1 X163.29 Y140.982 E8.0107
G1 X162.535 Y142.316 E8.06907
G1 X160.973 Y144.675 E8.1768
G1 X158.936 Y147.191 E8.30007
G1 X157.918 Y148.27 E8.35656
G1 X156.058 Y150.008 E8.45349
G1 X153.792 Y151.787 E8.56319
G1 X150.96 Y153.59 E8.69103
G1 X147.936 Y155.092 E8.8196
G1 X144.735 Y156.277 E8.94957
G1 X141.893 Y157.018 E9.0614
G1 X138.231 Y157.584 E9.2025
G1 X135.016 Y157.739 E9.32506
G1 X93.892 Y157.754 E10.89096
G1 X91.034 Y157.637 E10.99988
G1 X88.798 Y157.372 E11.08562
G1 X86.458 Y156.925 E11.17633
G1 X84.722 Y156.475 E11.24462
G1 X82.866 Y155.879 E11.31885
G1 X81.143 Y155.209 E11.38924
G1 X79.299 Y154.359 E11.46656
G1 X77.353 Y153.3 E11.55092
G1 X75.325 Y151.996 E11.64273
G1 X73.456 Y150.586 E11.73188
G1 X72.392 Y149.681 E11.78507
G1 X70.2 Y147.529 E11.90204
G1 X68.431 Y145.44 E12.00627
G1 X67.541 Y144.232 E12.0634
G1 X65.897 Y141.626 E12.18073
G1 X64.509 Y138.858 E12.29864
G1 X63.332 Y135.76 E12.42483
G1 X62.57 Y132.941 E12.53602
G1 X62.303 Y131.603 E12.58797
G1 X61.969 Y129.163 E12.68175
G1 X61.82 Y126.098 E12.7986
G1 X61.806 Y98.82 E13.83728
G1 X61.895 Y96.564 E13.92325
G1 X62.044 Y95.061 E13.98076
G1 X62.443 Y92.615 E14.07513
G1 X62.825 Y90.964 E14.13966
G1 X63.625 Y88.36 E14.24339
G1 X64.158 Y86.963 E14.30032
G1 X65.595 Y83.925 E14.42829
G1 X66.356 Y82.593 E14.4867
G1 X67.924 Y80.244 E14.59424
G1 X69.81 Y77.915 E14.70835
G1 X71.944 Y75.746 E14.82421
G1 X72.205 Y76.003 F30000
G1 F2400
G1 X74.275 Y74.249 E14.92752
G1 X77.142 Y72.275 E15.06006
G1 X80.015 Y70.722 E15.18442
G1 X82.649 Y69.614 E15.29323
G1 X85.377 Y68.748 E15.40221
G1 X88.105 Y68.141 E15.50863
G1 X90.666 Y67.792 E15.60705
G1 X93.354 Y67.645 E15.70956
G1 X134.982 Y67.612 E17.29466
G1 X137.576 Y67.713 E17.39351
G1 X140.012 Y67.995 E17.48689
G1 X142.604 Y68.506 E17.58749
G1 X144.951 Y69.165 E17.68031
G1 X147.425 Y70.079 E17.78074
G1 X149.247 Y70.91 E17.85699
G1 X151.369 Y72.063 E17.94895
G1 X153.371 Y73.359 E18.03976
G1 X155.413 Y74.922 E18.13768
G1 X157.258 Y76.588 E18.23234
G1 X159.223 Y78.696 E18.34207
G1 X160.327 Y80.072 E18.40924
G1 X161.903 Y82.362 E18.51509
G1 X162.806 Y83.906 E18.5832
G1 X164.031 Y86.399 E18.68897
G1 X165.097 Y89.201 E18.80312
G1 X165.582 Y90.836 E18.86806
G1 X166.144 Y93.352 E18.96622
G1 X166.386 Y94.926 E19.02686
G1 X166.607 Y97.466 E19.12394
G1 X166.655 Y126.147 E20.21605
G1 X166.56 Y128.526 E20.30671
G1 X166.281 Y130.907 E20.39799
G1 X165.995 Y132.474 E20.45864
G1 X165.359 Y134.993 E20.55757
G1 X164.817 Y136.646 E20.62381
G1 X163.767 Y139.205 E20.72913
G1 X162.966 Y140.811 E20.79747
G1 X162.22 Y142.129 E20.85514
G1 X160.678 Y144.459 E20.96153
G1 X158.662 Y146.947 E21.08346
G1 X157.657 Y148.014 E21.13927
G1 X155.82 Y149.73 E21.23499
G1 X153.578 Y151.489 E21.3435
G1 X150.781 Y153.271 E21.46978
G1 X147.79 Y154.756 E21.59693
G1 X144.627 Y155.927 E21.72536
G1 X141.816 Y156.66 E21.83598
G1 X138.195 Y157.219 E21.97549
G1 X135.015 Y157.373 E22.09672
G1 X93.739 Y157.387 E23.66841
G1 X91.064 Y157.272 E23.77036
G1 X88.852 Y157.01 E23.85518
G1 X86.542 Y156.568 E23.94473
G1 X84.822 Y156.123 E24.01238
G1 X82.988 Y155.533 E24.08574
G1 X81.284 Y154.871 E24.15535
G1 X79.462 Y154.031 E24.23175
G1 X77.538 Y152.984 E24.31516
G1 X75.533 Y151.695 E24.40592
G1 X73.688 Y150.303 E24.49393
G1 X72.637 Y149.408 E24.54649
G1 X70.469 Y147.28 E24.66216
G1 X68.722 Y145.217 E24.7651
G1 X67.842 Y144.023 E24.82158
G1 X66.217 Y141.447 E24.93755
G1 X64.845 Y138.711 E25.0541
G1 X63.681 Y135.646 E25.17894
G1 X62.927 Y132.86 E25.28884
G1 X62.664 Y131.538 E25.34017
G1 X62.334 Y129.128 E25.43279
G1 X62.186 Y126.098 E25.5483
G1 X62.172 Y98.82 E26.58698
G1 X62.26 Y96.593 E26.67185
G1 X62.408 Y95.104 E26.72883
G1 X62.802 Y92.69 E26.82197
G1 X63.18 Y91.055 E26.88587
G1 X63.969 Y88.484 E26.98827
G1 X64.497 Y87.104 E27.04453
G1 X65.918 Y84.097 E27.17117
G1 X66.67 Y82.781 E27.22888
G1 X68.218 Y80.462 E27.33505
G1 X70.082 Y78.16 E27.44784
G1 X72.163 Y76.045 E27.56082
G1 X72.424 Y76.302 F30000
G1 F2400
G1 X74.5 Y74.538 E27.66455
G1 X77.331 Y72.588 E27.79545
G1 X80.171 Y71.053 E27.91838
G1 X82.775 Y69.958 E28.02594
G1 X85.47 Y69.102 E28.13361
G1 X88.167 Y68.502 E28.23882
G1 X90.703 Y68.156 E28.33628
G1 X93.358 Y68.012 E28.43752
G1 X134.981 Y67.979 E30.02242
G1 X137.546 Y68.078 E30.12016
G1 X139.958 Y68.358 E30.21262
G1 X142.52 Y68.863 E30.31205
G1 X144.838 Y69.513 E30.40372
G1 X147.282 Y70.417 E30.50294
G1 X149.083 Y71.237 E30.57829
G1 X151.183 Y72.379 E30.66931
G1 X153.162 Y73.659 E30.75905
G1 X155.18 Y75.205 E30.85585
G1 X157.001 Y76.849 E30.94927
G1 X158.943 Y78.932 E31.05771
G1 X160.035 Y80.294 E31.12418
G1 X161.592 Y82.555 E31.22871
G1 X162.486 Y84.083 E31.29612
G1 X163.694 Y86.544 E31.40051
G1 X164.748 Y89.313 E31.51333
G1 X165.229 Y90.931 E31.5776
G1 X165.784 Y93.416 E31.67455
G1 X166.023 Y94.974 E31.73457
G1 X166.241 Y97.484 E31.8305
G1 X166.289 Y126.148 E32.92196
G1 X166.194 Y128.498 E33.01152
G1 X165.919 Y130.849 E33.10165
G1 X165.636 Y132.401 E33.16172
G1 X165.008 Y134.887 E33.25935
G1 X164.471 Y136.524 E33.32495
G1 X163.435 Y139.05 E33.42891
G1 X162.642 Y140.64 E33.49657
G1 X161.905 Y141.942 E33.55354
G1 X160.383 Y144.242 E33.65856
G1 X158.389 Y146.703 E33.77917
G1 X157.395 Y147.758 E33.83436
G1 X155.582 Y149.451 E33.92881
G1 X153.364 Y151.192 E34.03618
G1 X150.602 Y152.951 E34.16087
G1 X147.643 Y154.42 E34.28666
G1 X144.52 Y155.576 E34.41346
G1 X141.738 Y156.302 E34.52294
G1 X138.158 Y156.855 E34.66087
G1 X135.015 Y157.006 E34.78069
G1 X93.739 Y157.021 E36.35238
G1 X91.093 Y156.907 E36.45323
G1 X88.906 Y156.648 E36.53709
G1 X86.625 Y156.212 E36.62552
G1 X84.922 Y155.771 E36.69251
G1 X83.109 Y155.188 E36.76503
G1 X81.426 Y154.533 E36.8338
G1 X79.624 Y153.703 E36.90934
G1 X77.723 Y152.668 E36.99176
G1 X75.742 Y151.394 E37.08144
G1 X73.921 Y150.02 E37.1683
G1 X72.882 Y149.136 E37.22024
G1 X70.737 Y147.03 E37.3347
G1 X69.012 Y144.993 E37.43634
G1 X68.143 Y143.814 E37.49211
G1 X66.537 Y141.269 E37.6067
G1 X65.181 Y138.565 E37.72188
G1 X64.029 Y135.533 E37.84538
G1 X63.284 Y132.78 E37.95398
G1 X63.024 Y131.473 E38.00472
G1 X62.699 Y129.094 E38.09615
G1 X62.553 Y126.098 E38.21037
G1 X62.539 Y98.821 E39.24901
G1 X62.625 Y96.621 E39.33284
G1 X62.771 Y95.148 E39.3892
G1 X63.16 Y92.764 E39.48118
G1 X63.535 Y91.146 E39.54442
G1 X64.314 Y88.608 E39.64551
G1 X64.835 Y87.244 E39.70111
G1 X66.241 Y84.27 E39.82637
G1 X66.985 Y82.969 E39.88344
G1 X68.513 Y80.68 E39.98824
G1 X70.355 Y78.404 E40.09973
G1 X72.382 Y76.345 E40.20975
G1 E38.20975
G92 E0
G1 X90.344 Y94.888 F30000
G1 E2 F2400
G1 X91.499 Y94.231 E2.0506
G1 X92.628 Y93.9 E2.0954
G1 X93.416 Y93.806 E2.12562
G1 X94.144 Y93.802 E2.15334
G1 X95.317 Y93.937 E2.1983
G1 X96.493 Y94.216 E2.24432
G1 X97.643 Y94.619 E2.29072
G1 X98.748 Y95.137 E2.33719
G1 X99.622 Y95.658 E2.37593
G1 X100.447 Y96.268 E2.415
G1 X101.142 Y96.897 E2.45069
G1 X101.778 Y97.604 E2.4869
G1 X102.31 Y98.328 E2.52111
G1 X102.763 Y99.089 E2.55483
G1 X103.192 Y99.996 E2.59303
G1 X103.828 Y101.714 E2.66279
G1 X103.939 Y101.91 E2.67137
G1 X104.025 Y102.003 E2.67619
G1 X104.187 Y102.087 E2.68314
G1 X104.426 Y102.172 E2.6928
G1 X104.865 Y102.289 E2.7101
G1 X105.501 Y102.413 E2.73477
G1 X106.348 Y102.533 E2.76734
G1 X107.414 Y102.64 E2.80813
G1 X108.711 Y102.728 E2.85763
G1 X109.893 Y102.782 E2.90268
G1 X112.369 Y102.84 E2.99699
G1 X115.256 Y102.849 E3.10692
G1 X117.558 Y102.817 E3.19458
G1 X119.83 Y102.735 E3.28115
G1 X121.402 Y102.63 E3.34114
G1 X122.655 Y102.498 E3.38912
G1 X123.597 Y102.349 E3.42544
G1 X124.298 Y102.183 E3.45287
G1 X124.733 Y102.023 E3.47052
G1 X124.832 Y101.954 E3.47511
G1 X124.98 Y101.72 E3.48565
G1 X125.649 Y99.917 E3.55888
G1 X125.982 Y99.201 E3.58895
G1 X126.378 Y98.504 E3.61947
G1 X126.902 Y97.751 E3.6544
G1 X127.503 Y97.047 E3.68965
G1 X128.4 Y96.216 E3.73621
G1 X129.133 Y95.672 E3.77097
G1 X129.907 Y95.198 E3.80553
G1 X130.751 Y94.773 E3.84151
G1 X131.642 Y94.411 E3.87813
G1 X132.527 Y94.13 E3.91349
G1 X133.446 Y93.917 E3.94941
G1 X134.39 Y93.791 E3.98567
G1 X135.398 Y93.777 E4.02406
G1 X136.309 Y93.894 E4.05903
G1 X137.189 Y94.138 E4.0938
G1 X138.993 Y95.31 E4.17572
G1 X139.946 Y96.613 E4.23719
G1 X140.31 Y97.582 E4.2766
G1 X140.478 Y98.588 E4.31544
G1 X140.386 Y99.924 E4.36643
G1 X139.979 Y101.201 E4.41747
G1 X139.555 Y102.005 E4.45208
G1 X139.068 Y102.736 E4.48553
G1 X137.754 Y104.428 E4.5671
G1 X137.318 Y105.058 E4.59627
G1 X137.507 Y106.353 E4.6461
G1 X137.575 Y107.147 E4.67644
G1 X137.583 Y107.938 E4.70656
G1 X137.517 Y108.816 E4.74009
G1 X137.374 Y109.651 E4.77235
G1 X137.157 Y110.456 E4.8041
G1 X136.888 Y111.193 E4.83397
G1 X136.525 Y111.972 E4.86669
G1 X136.225 Y112.49 E4.88948
G1 X136.655 Y113.27 E4.92339
G1 X136.964 Y113.976 E4.95273
G1 X137.231 Y114.759 E4.98423
G1 X137.436 Y115.621 E5.01797
G1 X137.552 Y116.446 E5.04969
G1 X137.59 Y117.108 E5.07494
G1 X137.583 Y117.771 E5.10019
G1 X137.511 Y118.653 E5.13389
G1 X137.33 Y119.931 E5.18304
G1 X137.759 Y120.549 E5.21169
G1 X138.918 Y122.026 E5.28318
G1 X139.415 Y122.734 E5.31612
G1 X139.901 Y123.591 E5.35363
G1 X140.255 Y124.475 E5.38989
G1 X140.449 Y125.341 E5.42368
G1 X140.485 Y126.499 E5.4678
G1 X140.115 Y128.025 E5.52759
G1 X139.462 Y129.158 E5.57738
G1 X138.512 Y130.107 E5.62851
G1 X137.19 Y130.84 E5.68607
G1 X136.239 Y131.107 E5.72368
G1 X135.309 Y131.213 E5.75932
G1 X134.545 Y131.204 E5.78841
G1 X133.379 Y131.053 E5.83318
G1 X132.262 Y130.776 E5.877
G1 X131.186 Y130.395 E5.92046
G1 X130.133 Y129.904 E5.9647
G1 X129.13 Y129.304 E6.0092
G1 X128.312 Y128.688 E6.04819
G1 X127.676 Y128.105 E6.08104
G1 X127.1 Y127.47 E6.11368
G1 X126.542 Y126.72 E6.14928
G1 X126.067 Y125.927 E6.18448
G1 X125.635 Y125.013 E6.22297
G1 X124.993 Y123.273 E6.29359
G1 X124.813 Y123.006 E6.30585
G1 X124.397 Y122.838 E6.32293
G1 X123.85 Y122.697 E6.34444
G1 X123.012 Y122.548 E6.37685
G1 X121.866 Y122.411 E6.4208
G1 X120.393 Y122.297 E6.47706
G1 X118.924 Y122.226 E6.53306
G1 X117.216 Y122.179 E6.59812
G1 X114.846 Y122.156 E6.68837
G1 X112.374 Y122.169 E6.7825
G1 X110.577 Y122.207 E6.85094
G1 X108.718 Y122.286 E6.92179
G1 X107.196 Y122.395 E6.97989
G1 X105.997 Y122.53 E7.02583
G1 X105.109 Y122.679 E7.06012
G1 X104.513 Y122.824 E7.08348
G1 X104.171 Y122.943 E7.09727
G1 X104.013 Y123.031 E7.10416
G1 X103.912 Y123.163 E7.11049
G1 X103.715 Y123.608 E7.12902
G1 X103.208 Y125.016 E7.186
G1 X102.74 Y126 E7.22749
G1 X102.215 Y126.855 E7.26569
G1 X101.638 Y127.605 E7.30172
G1 X100.992 Y128.288 E7.33752
G1 X100.221 Y128.948 E7.37617
G1 X99.361 Y129.544 E7.41601
G1 X98.325 Y130.112 E7.461
G1 X97.201 Y130.584 E7.50742
G1 X96.041 Y130.939 E7.55361
G1 X95.009 Y131.144 E7.59367
G1 X94.104 Y131.229 E7.62828
G1 X93.267 Y131.212 E7.66016
G1 X92.299 Y131.056 E7.69749
G1 X91.283 Y130.699 E7.7385
G1 X90.389 Y130.169 E7.77807
G1 X89.459 Y129.29 E7.8268
G1 X88.504 Y127.396 E7.90757
G1 X88.355 Y126.368 E7.94712
G1 X88.446 Y125.037 E7.99792
G1 X88.779 Y123.961 E8.04081
G1 X89.288 Y122.968 E8.0833
G1 X89.888 Y122.088 E8.12386
G1 X91.076 Y120.571 E8.19723
G1 X91.512 Y119.944 E8.22631
G1 X91.326 Y118.669 E8.27537
G1 X91.253 Y117.79 E8.30896
G1 X91.246 Y117.106 E8.33501
G1 X91.287 Y116.423 E8.36106
G1 X91.401 Y115.621 E8.39191
G1 X91.584 Y114.844 E8.42231
G1 X91.836 Y114.078 E8.45302
G1 X92.16 Y113.322 E8.48434
G1 X92.601 Y112.516 E8.51932
G1 X92.172 Y111.737 E8.55318
G1 X91.864 Y111.031 E8.58251
G1 X91.598 Y110.247 E8.61403
G1 X91.393 Y109.386 E8.64773
G1 X91.278 Y108.562 E8.67941
G1 X91.24 Y107.915 E8.70409
G1 X91.246 Y107.252 E8.72934
G1 X91.32 Y106.354 E8.76365
G1 X91.503 Y105.091 E8.81224
G1 X91.068 Y104.463 E8.84133
G1 X89.907 Y102.984 E8.91293
G1 X89.378 Y102.226 E8.94813
G1 X88.892 Y101.347 E8.98638
G1 X88.461 Y100.108 E9.03633
G1 X88.334 Y98.649 E9.0921
G1 X88.611 Y97.23 E9.14715
G1 X88.879 Y96.621 E9.17249
G1 X89.224 Y96.034 E9.19842
G1 X90.302 Y94.931 E9.25715
G1 X90.563 Y95.188 F30000
G1 F2400
G1 X91.659 Y94.561 E9.30523
G1 X92.714 Y94.257 E9.34704
G1 X93.448 Y94.171 E9.37518
G1 X94.135 Y94.168 E9.40134
G1 X95.264 Y94.3 E9.44462
G1 X96.398 Y94.57 E9.48901
G1 X97.513 Y94.962 E9.53401
G1 X98.584 Y95.465 E9.57906
G1 X99.426 Y95.968 E9.61641
G1 X100.221 Y96.557 E9.65408
G1 X100.889 Y97.162 E9.6884
G1 X101.489 Y97.828 E9.72253
G1 X102 Y98.523 E9.75538
G1 X102.436 Y99.254 E9.78779
G1 X102.851 Y100.131 E9.82473
G1 X103.495 Y101.869 E9.89531
G1 X103.641 Y102.127 E9.9066
G1 X103.8 Y102.299 E9.91552
G1 X104.04 Y102.424 E9.92582
G1 X104.317 Y102.522 E9.93701
G1 X104.782 Y102.646 E9.95533
G1 X105.44 Y102.775 E9.98086
G1 X106.304 Y102.897 E10.01409
G1 X107.384 Y103.005 E10.05542
G1 X108.69 Y103.094 E10.10526
G1 X109.88 Y103.148 E10.15062
G1 X112.364 Y103.207 E10.24523
G1 X115.258 Y103.215 E10.35543
G1 X117.567 Y103.183 E10.44336
G1 X119.849 Y103.101 E10.53031
G1 X121.434 Y102.995 E10.5908
G1 X122.702 Y102.861 E10.63935
G1 X123.668 Y102.709 E10.67659
G1 X124.404 Y102.535 E10.70539
G1 X124.904 Y102.351 E10.72568
G1 X125.102 Y102.213 E10.73487
G1 X125.304 Y101.893 E10.74928
G1 X125.401 Y101.673 E10.75844
G1 X125.984 Y100.064 E10.8236
G1 X126.305 Y99.375 E10.85254
G1 X126.692 Y98.692 E10.88243
G1 X127.197 Y97.968 E10.91604
G1 X127.775 Y97.294 E10.94985
G1 X128.626 Y96.504 E10.99406
G1 X129.332 Y95.98 E11.02754
G1 X130.079 Y95.521 E11.06092
G1 X130.896 Y95.109 E11.09576
G1 X131.76 Y94.758 E11.13127
G1 X132.617 Y94.485 E11.16552
G1 X133.504 Y94.279 E11.20019
G1 X134.407 Y94.158 E11.23488
G1 X135.365 Y94.142 E11.27136
G1 X136.224 Y94.25 E11.30433
G1 X137.064 Y94.484 E11.33753
G1 X138.719 Y95.554 E11.41257
G1 X139.612 Y96.767 E11.46992
G1 X139.952 Y97.661 E11.50634
G1 X140.113 Y98.627 E11.54363
G1 X140.022 Y99.875 E11.59128
G1 X139.647 Y101.044 E11.63803
G1 X139.235 Y101.826 E11.67169
G1 X138.767 Y102.527 E11.70378
G1 X137.461 Y104.208 E11.78484
G1 X137.077 Y104.749 E11.8101
G1 X136.939 Y105.001 E11.82104
G1 X137.144 Y106.4 E11.87488
G1 X137.209 Y107.171 E11.90434
G1 X137.218 Y107.919 E11.93282
G1 X137.155 Y108.762 E11.96501
G1 X137.014 Y109.581 E11.99665
G1 X136.811 Y110.338 E12.02649
G1 X136.552 Y111.045 E12.05516
G1 X136.197 Y111.809 E12.08724
G1 X135.804 Y112.485 E12.11701
G1 X136.323 Y113.424 E12.15786
G1 X136.62 Y114.102 E12.18604
G1 X136.876 Y114.853 E12.21625
G1 X137.075 Y115.681 E12.24868
G1 X137.187 Y116.475 E12.27921
G1 X137.224 Y117.11 E12.30343
G1 X137.217 Y117.761 E12.32822
G1 X137.147 Y118.607 E12.36054
