; generated by PrusaSlicer 2.6.1+linux-x64-GTK3 on 2023-10-11 at 17:41:38 UTC

; 

; external perimeters extrusion width = 0.45mm
; perimeters extrusion width = 0.45mm
; infill extrusion width = 0.45mm
; solid infill extrusion width = 0.45mm
; top infill extrusion width = 0.40mm
; first layer extrusion width = 0.70mm

;TYPE:Custom
; M190 R30 ; Because of probe temperature drift,
; M109 R30 ; Let the beds and hotend cool down before homing the axis

G28 ; home all axes
G1 Z5 F5000 ; lift nozzle
M190 S65 ; set bed temperature and wait for it to be reached
M109 S205 ; set hot end temp and wait for it

; Brush any crap off the nozzle
; """""

; Do a purge line to prime the extruder
G92 E0 ;Reset Extruder
G1 Z27.0 F3000 ; Raise head above brush
G1 X227.0 Y90.0 F3000 ; Goto Start of purge
G1 Z0.28 F5000 ;Move Head to start height
G1 X227.0 Y220.0 Z0.28 F1500.0 E15; Draw first line
G1 X226.7 Y220.0 Z0.28 F5000.0 ;Move to side a little
G1 X226.7 Y90.0 Z0.28 F1500.0 E30; Draw the second line
G1 Z0.4 F3000; Move Z Axis Up
G1 Y120 F1500; Wipe to the back
G92 E0 ;Reset Extruder
G21 ; set units to millimeters
G90 ; use absolute coordinates
M82 ; use absolute distances for extrusion
G92 E0
; Filament gcode
SET_PRESSURE_ADVANCE ADVANCE=0.0944
M107
;LAYER_CHANGE
;Z:0.35
;HEIGHT:0.35
G1 Z.35 F30000
G1 E-.1 F2400
G92 E0
G1 X105.417 Y103.272 F30000
G1 E.1 F2400
;TYPE:Skirt/Brim
;WIDTH:0.7
G1 F3600
G1 X105.741 Y102.962 E.14077
G1 X105.996 Y102.781 E.1692
G1 X106.238 Y102.658 E.19388
G1 X106.543 Y102.346 E.23355
G1 X107.022 Y102.027 E.28588
G1 X107.566 Y101.782 E.34013
G1 X108.341 Y101.572 E.41314
G1 X109.714 Y101.432 E.53863
G1 X110.427 Y101.466 E.60354
G1 X110.827 Y101.541 E.64055
G1 X111.307 Y101.006 E.70591
G1 X111.832 Y100.539 E.7698
G1 X112.528 Y100.078 E.84571
G1 X113.267 Y99.759 E.9189
G1 X113.639 Y99.556 E.95743
G1 X114.104 Y99.395 E1.00217
G1 X114.892 Y99.22 E1.07557
G1 X115.394 Y99.192 E1.12129
G1 X115.744 Y99.093 E1.15436
G1 X116.138 Y99.03 E1.19064
G1 X116.839 Y99.026 E1.25438
G1 X117.596 Y99.137 E1.32395
G1 X118.021 Y99.265 E1.36431
G1 X118.362 Y99.42 E1.39837
G1 X118.72 Y99.493 E1.43159
G1 X119.105 Y99.623 E1.46854
G1 X119.674 Y99.927 E1.5272
G1 X120.355 Y100.474 E1.60663
G1 X121.093 Y100.194 E1.6784
G1 X121.702 Y100.023 E1.73592
G1 X122.359 Y99.92 E1.79639
G1 X122.747 Y99.918 E1.83167
G1 X123.071 Y99.959 E1.86137
G1 X123.627 Y99.912 E1.91211
G1 X124.194 Y99.939 E1.96373
G1 X124.922 Y100.073 E2.03104
G1 X125.614 Y100.325 E2.09801
G1 X125.931 Y100.502 E2.13102
G1 X126.123 Y100.643 E2.15268
G1 X126.421 Y100.758 E2.18172
G1 X126.943 Y101.058 E2.23647
G1 X127.445 Y101.455 E2.29467
G1 X127.883 Y101.904 E2.35171
G1 X128.196 Y102.33 E2.39978
G1 X128.322 Y102.558 E2.42347
G1 X128.56 Y102.826 E2.45606
G1 X128.803 Y103.201 E2.49669
G1 X129.004 Y103.619 E2.53886
G1 X129.346 Y104.468 E2.62209
G1 X129.739 Y104.605 E2.65993
G1 X130.343 Y104.883 E2.72039
G1 X130.72 Y105.091 E2.75954
G1 X131.069 Y105.33 E2.798
G1 X131.322 Y105.555 E2.82879
G1 X131.675 Y105.758 E2.86582
G1 X132.021 Y106.011 E2.9048
G1 X132.403 Y106.37 E2.95247
G1 X132.815 Y106.854 E3.01027
G1 X133.15 Y107.307 E3.0615
G1 X133.383 Y107.751 E3.10709
G1 X133.545 Y107.964 E3.13142
G1 X133.726 Y108.258 E3.16281
G1 X134.071 Y109.204 E3.25437
G1 X134.179 Y109.962 E3.32399
G1 X134.156 Y110.524 E3.37514
G1 X134.167 Y111.287 E3.44453
G1 X134.086 Y111.809 E3.49256
G1 X133.92 Y112.351 E3.5441
G1 X133.569 Y113.099 E3.61923
G1 X134.095 Y113.823 E3.7006
G1 X134.385 Y114.354 E3.75562
G1 X134.588 Y114.882 E3.80706
G1 X134.694 Y115.405 E3.85558
G1 X134.705 Y115.561 E3.8698
G1 X134.866 Y115.94 E3.90724
G1 X134.954 Y116.268 E3.93812
G1 X135.006 Y116.659 E3.97399
G1 X135.012 Y117.22 E4.025
G1 X134.961 Y117.671 E4.06627
G1 X134.977 Y118.141 E4.10903
G1 X134.867 Y118.836 E4.17301
G1 X134.673 Y119.403 E4.2275
G1 X134.399 Y119.897 E4.27887
G1 X134.099 Y120.266 E4.32211
G1 X133.966 Y120.589 E4.35387
G1 X133.667 Y121.028 E4.40217
G1 X133.12 Y121.591 E4.47355
G1 X132.371 Y122.168 E4.55952
G1 X132.553 Y123.289 E4.66279
G1 X132.551 Y123.808 E4.70998
G1 X132.491 Y124.341 E4.75875
G1 X132.325 Y125.01 E4.82143
G1 X132.089 Y125.558 E4.87568
G1 X131.875 Y126.13 E4.93121
G1 X131.668 Y126.497 E4.96952
G1 X131.367 Y126.864 E5.01268
G1 X131.211 Y127.146 E5.04198
G1 X131.006 Y127.433 E5.07405
G1 X130.634 Y127.828 E5.12339
G1 X130.231 Y128.131 E5.16924
G1 X129.748 Y128.394 E5.21925
G1 X129.418 Y128.523 E5.25147
G1 X129.012 Y128.766 E5.29449
G1 X128.54 Y128.967 E5.34114
G1 X128.101 Y129.085 E5.38247
G1 X127.69 Y129.157 E5.42041
G1 X126.961 Y129.234 E5.48707
G1 X126.728 Y129.644 E5.52995
G1 X126.277 Y130.317 E5.60362
G1 X125.563 Y131.238 E5.70958
G1 X124.985 Y131.747 E5.77961
G1 X124.614 Y131.955 E5.81829
G1 X124.195 Y132.119 E5.8592
G1 X123.382 Y132.314 E5.93522
G1 X122.621 Y132.431 E6.00523
G1 X121.412 Y132.46 E6.1152
G1 X120.887 Y132.401 E6.16324
G1 X119.961 Y132.195 E6.2495
G1 X119.497 Y132.052 E6.29365
G1 X118.954 Y131.846 E6.34646
G1 X118.386 Y132.213 E6.40795
G1 X117.82 Y132.51 E6.46607
G1 X117.241 Y132.733 E6.52249
G1 X116.753 Y132.853 E6.56819
G1 X115.7 Y133.049 E6.66558
G1 X114.868 Y133.119 E6.7415
G1 X114.465 Y133.111 E6.77815
G1 X114.052 Y133.05 E6.81611
G1 X113.645 Y132.95 E6.85422
G1 X113.137 Y132.759 E6.90357
G1 X112.231 Y132.225 E6.9992
G1 X111.782 Y131.908 E7.04918
G1 X111.216 Y131.419 E7.11719
G1 X110.373 Y130.436 E7.23494
G1 X109.576 Y130.289 E7.30863
G1 X108.65 Y130.177 E7.39344
G1 X107.959 Y129.99 E7.45853
G1 X107.384 Y129.754 E7.51505
G1 X106.773 Y129.44 E7.57752
G1 X106.019 Y128.956 E7.65899
G1 X105.613 Y128.662 E7.70457
G1 X105.091 Y128.151 E7.77099
G1 X104.619 Y127.56 E7.83976
G1 X104.307 Y127.054 E7.89381
G1 X104.056 Y126.543 E7.94558
G1 X103.883 Y126.023 E7.99541
G1 X103.767 Y125.471 E8.0467
G1 X103.676 Y124.64 E8.12271
G1 X102.92 Y124.174 E8.20346
G1 X101.779 Y123.276 E8.33549
G1 X101.525 Y123.022 E8.36815
G1 X101.283 Y122.734 E8.40236
G1 X100.985 Y122.289 E8.45106
G1 X100.582 Y121.74 E8.51299
G1 X100.249 Y121.171 E8.57294
G1 X100.059 Y120.658 E8.62268
G1 X99.982 Y119.99 E8.68382
G1 X100.023 Y119.445 E8.73352
G1 X100.175 Y118.914 E8.78374
G1 X100.373 Y118.463 E8.82853
G1 X100.535 Y117.786 E8.89183
G1 X100.724 Y117.338 E8.93604
G1 X100.839 Y116.972 E8.97092
G1 X101.084 Y116.449 E9.02344
G1 X100.86 Y116.041 E9.06576
G1 X100.719 Y115.647 E9.10381
G1 X100.484 Y115.146 E9.15413
G1 X100.263 Y114.399 E9.22496
G1 X100.146 Y113.747 E9.28519
G1 X100.102 Y113.343 E9.32214
G1 X100.086 Y112.824 E9.36935
G1 X100.037 Y112.253 E9.42146
G1 X100.042 Y111.777 E9.46474
G1 X100.109 Y111.287 E9.50971
G1 X100.252 Y110.803 E9.5556
G1 X100.479 Y110.282 E9.60728
G1 X100.716 Y109.848 E9.65224
G1 X101.028 Y109.437 E9.69916
G1 X101.35 Y109.135 E9.7393
G1 X101.822 Y108.84 E9.78991
G1 X102.231 Y108.697 E9.82931
G1 X102.356 Y108.529 E9.84835
G1 X102.779 Y108.115 E9.90217
G1 X103.177 Y107.843 E9.946
G1 X103.557 Y107.63 E9.98561
G1 X103.576 Y107.289 E10.01667
G1 X103.727 Y106.289 E10.10863
G1 X103.867 Y105.811 E10.15392
G1 X104.187 Y105.048 E10.22915
G1 X104.489 Y104.569 E10.28064
G1 X104.833 Y104.207 E10.32605
G1 X104.994 Y103.856 E10.36116
G1 X105.382 Y103.321 E10.42125
G1 X105.888 Y103.687 F30000
G1 F3600
G1 X106.121 Y103.459 E10.45089
G1 X106.334 Y103.307 E10.47468
G1 X106.615 Y103.171 E10.50307
G1 X106.922 Y102.845 E10.54379
G1 X107.345 Y102.563 E10.59002
G1 X107.795 Y102.364 E10.63476
G1 X108.476 Y102.182 E10.69886
G1 X109.751 Y102.056 E10.81536
G1 X110.369 Y102.088 E10.87163
G1 X111.109 Y102.237 E10.94027
G1 X111.33 Y101.917 E10.97563
G1 X111.736 Y101.461 E11.03115
G1 X112.23 Y101.022 E11.09124
G1 X112.847 Y100.616 E11.1584
G1 X113.543 Y100.321 E11.22714
G1 X113.872 Y100.137 E11.26142
G1 X114.291 Y99.991 E11.30177
G1 X114.998 Y99.836 E11.36758
G1 X115.497 Y99.813 E11.413
G1 X115.863 Y99.707 E11.44765
G1 X116.213 Y99.651 E11.47988
G1 X116.775 Y99.648 E11.53098
G1 X117.439 Y99.742 E11.59196
G1 X117.818 Y99.856 E11.62795
G1 X118.167 Y100.019 E11.66298
G1 X118.541 Y100.092 E11.69763
G1 X118.881 Y100.207 E11.73027
G1 X119.317 Y100.439 E11.77518
G1 X119.698 Y100.732 E11.81888
G1 X120.187 Y101.207 E11.88087
G1 X121.276 Y100.792 E11.98684
G1 X121.854 Y100.629 E12.04145
G1 X122.387 Y100.545 E12.09051
G1 X122.727 Y100.543 E12.12143
G1 X123.056 Y100.588 E12.15162
G1 X123.622 Y100.537 E12.20329
G1 X124.107 Y100.558 E12.24743
G1 X124.738 Y100.671 E12.30572
G1 X125.333 Y100.883 E12.36315
G1 X125.605 Y101.036 E12.39153
G1 X125.82 Y101.198 E12.41601
G1 X126.138 Y101.316 E12.44685
G1 X126.577 Y101.564 E12.4927
G1 X127.013 Y101.907 E12.54314
G1 X127.42 Y102.324 E12.59612
G1 X127.676 Y102.678 E12.63584
G1 X127.807 Y102.921 E12.66094
G1 X128.051 Y103.189 E12.6939
G1 X128.267 Y103.523 E12.73007
G1 X128.427 Y103.861 E12.76407
G1 X128.873 Y104.968 E12.87259
G1 X129.493 Y105.18 E12.93217
G1 X130.072 Y105.447 E12.99015
G1 X130.379 Y105.615 E13.02197
G1 X130.697 Y105.833 E13.05703
G1 X130.954 Y106.064 E13.08845
G1 X131.321 Y106.274 E13.1269
G1 X131.637 Y106.504 E13.16244
G1 X131.938 Y106.789 E13.20013
G1 X132.332 Y107.251 E13.25534
G1 X132.631 Y107.656 E13.30112
G1 X132.853 Y108.088 E13.34528
G1 X133.022 Y108.307 E13.37043
G1 X133.177 Y108.558 E13.39725
G1 X133.458 Y109.328 E13.47178
G1 X133.553 Y109.967 E13.53052
G1 X133.531 Y110.518 E13.58066
G1 X133.546 Y111.218 E13.64433
G1 X133.472 Y111.689 E13.68768
G1 X133.329 Y112.15 E13.73157
G1 X133.161 Y112.525 E13.76893
G1 X132.806 Y113.118 E13.83178
G1 X133.558 Y114.143 E13.94738
G1 X133.811 Y114.604 E13.9952
G1 X133.981 Y115.035 E14.03733
G1 X134.075 Y115.498 E14.08029
G1 X134.081 Y115.697 E14.09839
G1 X134.269 Y116.127 E14.14106
G1 X134.345 Y116.409 E14.16762
G1 X134.384 Y116.717 E14.19585
G1 X134.387 Y117.203 E14.24004
G1 X134.334 Y117.65 E14.28097
G1 X134.354 Y118.08 E14.32011
G1 X134.265 Y118.666 E14.37401
G1 X134.112 Y119.127 E14.41818
G1 X133.867 Y119.569 E14.46413
G1 X133.709 Y119.762 E14.48681
G1 X133.574 Y119.886 E14.50348
G1 X133.424 Y120.275 E14.54139
G1 X133.199 Y120.614 E14.57839
G1 X132.688 Y121.138 E14.64494
G1 X131.651 Y121.931 E14.76364
G1 X131.796 Y122.515 E14.81836
G1 X131.928 Y123.313 E14.89191
G1 X131.926 Y123.787 E14.93501
G1 X131.872 Y124.25 E14.9774
G1 X131.741 Y124.787 E15.02766
G1 X131.508 Y125.328 E15.08122
G1 X131.318 Y125.846 E15.13139
G1 X131.138 Y126.164 E15.16462
G1 X130.848 Y126.51 E15.20567
G1 X130.691 Y126.799 E15.23558
G1 X130.511 Y127.051 E15.26374
G1 X130.201 Y127.375 E15.30451
G1 X129.879 Y127.614 E15.34097
G1 X129.471 Y127.833 E15.38308
G1 X129.142 Y127.959 E15.41511
G1 X128.745 Y128.2 E15.45734
G1 X128.317 Y128.383 E15.49967
G1 X127.98 Y128.472 E15.53136
G1 X127.613 Y128.537 E15.56525
G1 X126.575 Y128.646 E15.66015
G1 X126.202 Y129.307 E15.72916
G1 X125.763 Y129.961 E15.80078
G1 X125.123 Y130.793 E15.89623
G1 X124.644 Y131.222 E15.9547
G1 X124.36 Y131.384 E15.98443
G1 X124.027 Y131.517 E16.01704
G1 X123.249 Y131.703 E16.08978
G1 X122.547 Y131.81 E16.15435
G1 X121.458 Y131.836 E16.2534
G1 X121.005 Y131.788 E16.29482
G1 X120.11 Y131.588 E16.37821
G1 X119.692 Y131.458 E16.41801
G1 X118.879 Y131.149 E16.4971
G1 X118.082 Y131.667 E16.58353
G1 X117.545 Y131.949 E16.63868
G1 X117.072 Y132.131 E16.68476
G1 X116.629 Y132.241 E16.72627
G1 X115.602 Y132.432 E16.82126
G1 X114.834 Y132.495 E16.89133
G1 X114.502 Y132.487 E16.92153
G1 X114.164 Y132.435 E16.95263
G1 X113.815 Y132.348 E16.98534
G1 X113.385 Y132.185 E17.02715
G1 X112.562 Y131.695 E17.11424
G1 X112.179 Y131.426 E17.1568
G1 X111.644 Y130.962 E17.22119
G1 X110.705 Y129.862 E17.3527
G1 X109.671 Y129.671 E17.44831
G1 X108.748 Y129.559 E17.53285
G1 X108.177 Y129.404 E17.58665
G1 X107.657 Y129.191 E17.63775
G1 X107.072 Y128.891 E17.69753
G1 X106.365 Y128.435 E17.77403
G1 X105.999 Y128.17 E17.81512
G1 X105.567 Y127.747 E17.8701
G1 X105.12 Y127.185 E17.9354
G1 X104.861 Y126.766 E17.98019
G1 X104.627 Y126.288 E18.02858
G1 X104.482 Y125.846 E18.07088
G1 X104.387 Y125.388 E18.11341
G1 X104.264 Y124.266 E18.21604
G1 X103.291 Y123.671 E18.31975
G1 X102.207 Y122.82 E18.44506
G1 X101.978 Y122.591 E18.47451
G1 X101.775 Y122.347 E18.50337
G1 X101.498 Y121.931 E18.54882
G1 X101.095 Y121.384 E18.6106
G1 X100.804 Y120.883 E18.66328
G1 X100.66 Y120.483 E18.70194
G1 X100.607 Y120.008 E18.7454
G1 X100.643 Y119.528 E18.78917
G1 X100.767 Y119.114 E18.82847
G1 X100.968 Y118.663 E18.87337
G1 X101.122 Y118.004 E18.93491
G1 X101.311 Y117.554 E18.97929
G1 X101.426 Y117.189 E19.01409
G1 X101.545 Y116.956 E19.03788
G1 X101.788 Y116.35 E19.09725
G1 X101.599 Y116.089 E19.12655
G1 X101.421 Y115.765 E19.16016
G1 X101.3 Y115.413 E19.19401
G1 X101.06 Y114.902 E19.24534
G1 X100.875 Y114.272 E19.30504
G1 X100.763 Y113.648 E19.36269
G1 X100.662 Y112.243 E19.49078
G1 X100.666 Y111.804 E19.5307
G1 X100.723 Y111.4 E19.5678
G1 X100.844 Y111.004 E19.60545
G1 X101.046 Y110.545 E19.65105
G1 X101.229 Y110.206 E19.68608
G1 X101.508 Y109.838 E19.72807
G1 X101.748 Y109.617 E19.75774
G1 X102.112 Y109.395 E19.79651
G1 X102.631 Y109.226 E19.84614
G1 X102.823 Y108.945 E19.87709
G1 X103.156 Y108.614 E19.91978
G1 X103.517 Y108.367 E19.95955
G1 X104.166 Y108.009 E20.02695
G1 X104.197 Y107.363 E20.08576
G1 X104.333 Y106.441 E20.1705
G1 X104.451 Y106.032 E20.20921
G1 X104.73 Y105.358 E20.27554
G1 X104.998 Y104.933 E20.32123
G1 X105.361 Y104.561 E20.36849
G1 X105.522 Y104.193 E20.40501
G1 X105.853 Y103.736 E20.45632
G1 X106.358 Y104.096 F30000
G1 F3600
G1 X106.503 Y103.954 E20.47477
G1 X106.67 Y103.835 E20.49342
G1 X106.994 Y103.686 E20.52585
G1 X107.307 Y103.338 E20.56841
G1 X107.625 Y103.122 E20.60337
G1 X108.026 Y102.945 E20.64323
G1 X108.565 Y102.801 E20.69396
G1 X109.743 Y102.681 E20.80163
G1 X110.312 Y102.711 E20.85344
G1 X111.396 Y102.936 E20.95411
G1 X111.812 Y102.315 E21.02208
G1 X112.191 Y101.889 E21.07393
G1 X112.592 Y101.531 E21.12281
G1 X113.164 Y101.155 E21.18505
G1 X113.822 Y100.882 E21.24983
G1 X114.11 Y100.715 E21.2801
G1 X114.444 Y100.597 E21.31231
G1 X115.103 Y100.453 E21.37365
G1 X115.599 Y100.435 E21.41878
G1 X115.982 Y100.321 E21.45512
G1 X116.287 Y100.272 E21.48321
G1 X116.713 Y100.27 E21.52195
G1 X117.283 Y100.348 E21.57426
G1 X117.614 Y100.447 E21.60568
G1 X117.97 Y100.617 E21.64155
G1 X118.369 Y100.694 E21.6785
G1 X118.617 Y100.774 E21.70219
G1 X118.961 Y100.954 E21.73749
G1 X119.276 Y101.194 E21.7735
G1 X119.705 Y101.609 E21.82777
G1 X120.026 Y102.019 E21.87512
G1 X120.673 Y101.686 E21.94129
G1 X121.459 Y101.389 E22.01769
G1 X121.975 Y101.243 E22.06645
G1 X122.416 Y101.169 E22.10711
G1 X122.705 Y101.168 E22.13339
G1 X123.038 Y101.217 E22.164
G1 X123.62 Y101.162 E22.21716
G1 X124.023 Y101.178 E22.25383
G1 X124.558 Y101.27 E22.30319
G1 X125.052 Y101.442 E22.35075
G1 X125.277 Y101.568 E22.3742
G1 X125.516 Y101.754 E22.40174
G1 X125.859 Y101.876 E22.43484
G1 X126.214 Y102.073 E22.47176
G1 X126.581 Y102.359 E22.51407
G1 X126.955 Y102.742 E22.56275
G1 X127.153 Y103.02 E22.59378
G1 X127.292 Y103.286 E22.62107
G1 X127.545 Y103.557 E22.65478
G1 X127.713 Y103.812 E22.68255
G1 X127.851 Y104.104 E22.71192
G1 X128.422 Y105.519 E22.85067
G1 X128.886 Y105.629 E22.89403
G1 X129.244 Y105.753 E22.92848
G1 X129.8 Y106.009 E22.98414
G1 X130.063 Y106.154 E23.01145
G1 X130.322 Y106.333 E23.04008
G1 X130.584 Y106.573 E23.07239
G1 X130.968 Y106.79 E23.1125
G1 X131.251 Y106.996 E23.14433
G1 X131.494 Y107.228 E23.17488
G1 X131.848 Y107.646 E23.22469
G1 X132.111 Y108.004 E23.26508
G1 X132.323 Y108.424 E23.30786
G1 X132.5 Y108.65 E23.33396
G1 X132.628 Y108.859 E23.35625
G1 X132.844 Y109.451 E23.41355
G1 X132.93 Y110.027 E23.46651
G1 X132.905 Y110.511 E23.51058
G1 X132.924 Y111.151 E23.5688
G1 X132.858 Y111.567 E23.6071
G1 X132.739 Y111.943 E23.64296
G1 X132.615 Y112.22 E23.67056
G1 X132.033 Y113.193 E23.77365
G1 X132.492 Y113.737 E23.83837
G1 X133.021 Y114.463 E23.92005
G1 X133.24 Y114.859 E23.9612
G1 X133.375 Y115.189 E23.99362
G1 X133.455 Y115.583 E24.03018
G1 X133.451 Y115.883 E24.05746
G1 X133.569 Y116.077 E24.07811
G1 X133.674 Y116.318 E24.10201
G1 X133.728 Y116.512 E24.12032
G1 X133.761 Y116.775 E24.14442
G1 X133.762 Y117.183 E24.18152
G1 X133.706 Y117.632 E24.22266
G1 X133.731 Y118.026 E24.25856
G1 X133.661 Y118.502 E24.30231
