; generated by PrusaSlicer 2.7.1+linux-x64-GTK3 on 2023-12-29 at 00:55:11 UTC

; 

; external perimeters extrusion width = 0.60mm
; perimeters extrusion width = 0.60mm
; infill extrusion width = 0.60mm
; solid infill extrusion width = 0.60mm
; top infill extrusion width = 0.60mm


EXCLUDE_OBJECT_DEFINE NAME=idler_bearing_cover_stl CENTER=117.480,117.136 POLYGON=[[123.266,107.450],[123.466,107.650],[123.473,117.764],[123.407,119.365],[123.122,121.481],[122.644,121.874],[121.873,121.874],[121.873,125.613],[121.754,125.887],[120.814,127.750],[116.160,127.736],[115.312,127.600],[114.508,127.324],[113.413,126.662],[112.537,125.763],[111.908,124.663],[111.585,123.510],[111.527,122.750],[111.529,112.127],[111.649,111.155],[111.953,110.230],[112.537,109.237],[113.333,108.403],[114.299,107.774],[115.383,107.383],[116.411,107.251],[123.066,107.250]]

;TYPE:Custom
PRINT_START BED_TEMP=100 EXTRUDER_TEMP=255 AREA_START=80,80 AREA_END=140,140

; Brush any crap off the nozzle
;G1 Z100.0 F3000 ; Raise head above brush
;G1 X232.0 Y0.0 F3000 ; Goto Start of movement
;G1 Z21.0 F3000 ; Lower into brush
;G1 X221.0 Y2.0 F3000 ; Goto Start of movement
;G1 X229.0 Y4.0 F3000 ; 
;G1 X221.0 Y6.0 F3000 ; 
;G1 X229.0 Y8.0 F3000 ; 
;G1 X221.0 Y10.0 F3000 ;
;G1 X229.0 Y12.0 F3000 ;
;G1 X221.0 Y14.0 F3000 ;
;G1 X229.0 Y16.0 F3000 ;
;G1 X221.0 Y18.0 F3000 ;
;G1 X229.0 Y20.0 F3000 ;
;G1 X221.0 Y22.0 F3000 ;
;G1 X229.0 Y24.0 F3000 ;
;G1 X221.0 Y26.0 F3000 ;
;G1 X229.0 Y28.0 F3000 ;
;G1 X221.0 Y30.0 F3000 ;
;G1 X229.0 Y28.0 F3000 ;
;G1 X221.0 Y26.0 F3000 ;
;G1 X229.0 Y24.0 F3000 ;
;G1 X221.0 Y22.0 F3000 ;
;G1 X229.0 Y20.0 F3000 ;
;G1 X221.0 Y18.0 F3000 ;
;G1 X229.0 Y16.0 F3000 ;
;G1 X221.0 Y14.0 F3000 ;
;G1 X229.0 Y12.0 F3000 ;
;G1 X221.0 Y10.0 F3000 ;
;G1 X229.0 Y8.0 F3000 ; 
;G1 X221.0 Y6.0 F3000 ; 
;G1 X229.0 Y4.0 F3000 ; 
;G1 X221.0 Y2.0 F3000 ; 
;G1 X229.0 Y0.0 F3000 ; 
;G1 X225.0 Y0.0 F3000 ; 
;G1 X225.0 Y30.0 F5000 ; 
;G1 X225.0 Y0.0 F5000 ; 
;G1 X225.0 Y30.0 F5000 ; 
;G1 X225.0 Y0.0 F5000 ; 
;G1 X225.0 Y30.0 F5000 ; 

; Do a purge line to prime the extruder
;G92 E0 ;Reset Extruder
;G1 X227.0 Y80.0 F5000 ; Goto Start of purge
;G1 Z0.28 F5000 ;Move Head to start height
;G1 X227.0 Y230.0 Z0.28 F1500.0 E15; Draw first line
;G1 X226.7 Y230.0 Z0.28 F5000.0 ;Move to side a little
;G1 X226.7 Y80.0 Z0.28 F1500.0 E30; Draw the second line
;G1 Z0.4 F5000; Move Z Axis Up
;G1 Y120 F1500; Wipe to the back
;G1 X117.5 Y117.5 Z27.0 F5000 ; Raise head above brush
;G92 E0 ;Reset Extruder
G21 ; set units to millimeters
G90 ; use absolute coordinates
M82 ; use absolute distances for extrusion
G92 E0
; Filament gcode
SET_PRESSURE_ADVANCE ADVANCE=0.051
M107
;LAYER_CHANGE
;Z:0.35
;HEIGHT:0.35
G1 Z.35 F6000
EXCLUDE_OBJECT_START NAME=idler_bearing_cover_stl
G1 E-2 F2400
G92 E0
G1 X116.304 Y126.145 F6000
G1 E2 F2400
;TYPE:Perimeter
;WIDTH:0.6
G1 F1632.998
G1 X116.15 Y126.139 E2.01177
G1 X115.519 Y126.012 E2.06093
G1 X114.884 Y125.752 E2.11334
G1 X114.358 Y125.386 E2.16228
G1 X113.877 Y124.914 E2.21375
G1 X113.531 Y124.389 E2.26177
G1 X113.313 Y123.902 E2.30252
G1 X113.152 Y123.31 E2.34938
G1 X113.102 Y122.696 E2.39643
G1 X113.103 Y119.2 E2.66345
;WIDTH:0.630863
G1 F1542.31
G1 X113.118 Y118.897 E2.68798
;WIDTH:0.661727
G1 F1461.165
G1 X113.134 Y118.595 E2.71379
;WIDTH:0.704439
G1 F1361.997
G1 X113.155 Y118.491 E2.72351
;WIDTH:0.747151
G1 F1275.434
G1 X113.176 Y118.387 E2.73389
;WIDTH:0.789863
G1 F1199.217
G1 X113.198 Y118.284 E2.74484
;WIDTH:0.832575
G1 F1131.596
G1 X113.219 Y118.18 E2.75653
G1 X113.265 Y118.277 E2.76836
;WIDTH:0.789863
G1 F1199.217
G1 X113.311 Y118.374 E2.77953
;WIDTH:0.747151
G1 F1275.434
G1 X113.357 Y118.471 E2.79003
;WIDTH:0.704439
G1 F1361.997
G1 X113.403 Y118.568 E2.79986
;WIDTH:0.661727
G1 F1461.165
G1 X113.517 Y118.804 E2.82223
;WIDTH:0.630863
G1 F1542.31
G1 X113.632 Y119.039 E2.84339
;WIDTH:0.6
G1 F1632.998
G1 X113.863 Y119.383 E2.87504
G1 X114.223 Y119.742 E2.91387
G1 X114.568 Y119.972 E2.94554
G1 X115.037 Y120.167 E2.98433
G1 X115.607 Y120.271 E3.02858
G1 X115.917 Y120.257 E3.05228
G1 X116.446 Y120.148 E3.09353
G1 X116.832 Y119.974 E3.12587
G1 X117.37 Y119.591 E3.17631
G1 X117.546 Y119.378 E3.19741
G1 X117.9 Y118.799 E3.24924
G1 X117.994 Y118.444 E3.27729
G1 X118.076 Y117.925 E3.31742
G1 X118.052 Y117.644 E3.33896
G1 X117.894 Y116.988 E3.3905
G1 X117.775 Y116.766 E3.40974
G1 X117.374 Y116.214 E3.46185
G1 X117.183 Y116.058 E3.48069
G1 X116.679 Y115.737 E3.52633
G1 X116.338 Y115.627 E3.5537
G1 X115.634 Y115.527 E3.60801
G1 X115.016 Y115.636 E3.65594
G1 X114.567 Y115.827 E3.69321
G1 X114.223 Y116.057 E3.72482
G1 X113.86 Y116.419 E3.76398
G1 X113.63 Y116.764 E3.79565
;WIDTH:0.642026
G1 F1511.94
G1 X113.563 Y116.906 E3.8086
;WIDTH:0.684053
G1 F1407.592
G1 X113.496 Y117.049 E3.82259
;WIDTH:0.72608
G1 F1316.717
G1 X113.429 Y117.191 E3.83746
;WIDTH:0.768107
G1 F1236.865
G1 X113.363 Y117.333 E3.85325
;WIDTH:0.810134
G1 F1166.144
G1 X113.296 Y117.476 E3.87014
;WIDTH:0.852161
G1 F1103.073
G1 X113.229 Y117.618 E3.88789
G1 X113.207 Y117.515 E3.8998
;WIDTH:0.808382
G1 F1168.93
G1 X113.185 Y117.411 E3.91114
;WIDTH:0.764603
G1 F1243.15
G1 X113.163 Y117.307 E3.92181
;WIDTH:0.720824
G1 F1327.435
G1 X113.142 Y117.204 E3.93169
;WIDTH:0.677046
G1 F1423.979
G1 X113.122 Y116.904 E3.95803
;WIDTH:0.638523
G1 F1521.343
G1 X113.103 Y116.604 E3.98267
;WIDTH:0.6
G1 F1632.998
G1 X113.104 Y112.192 E4.31965
G1 X113.171 Y111.592 E4.36576
G1 X113.276 Y111.221 E4.39521
G1 X113.476 Y110.699 E4.43791
G1 X113.776 Y110.228 E4.48056
G1 X114.099 Y109.845 E4.51883
G1 X114.52 Y109.48 E4.56139
G1 X115.14 Y109.123 E4.61603
G1 X115.778 Y108.919 E4.66719
G1 X116.412 Y108.828 E4.71611
G1 X121.892 Y108.825 E5.13466
G1 X121.894 Y112.461 E5.41237
G1 X121.89 Y117.999 E5.83535
G1 X121.873 Y118.66 E5.88585
G1 X121.831 Y119.3 E5.93484
G1 X121.718 Y120.299 E6.01163
G1 X121.61 Y120.299 E6.01988
G1 X121.039 Y120.43 E6.06462
G1 X120.884 Y120.518 E6.07823
G1 X120.523 Y120.876 E6.11706
G1 X120.337 Y121.294 E6.152
G1 X120.298 Y121.611 E6.17639
G1 X120.298 Y125.274 E6.45616
G1 X119.866 Y126.174 E6.53241
G1 X116.972 Y126.169 E6.75345
G1 X116.394 Y126.148 E6.79763
G1 X116.323 Y126.672 F6000
G1 F1632.998
G1 X115.919 Y126.637 E6.8286
G1 X115.369 Y126.514 E6.87165
G1 X114.83 Y126.305 E6.9158
G1 X114.274 Y125.993 E6.9645
G1 X113.845 Y125.647 E7.0066
G1 X113.47 Y125.248 E7.04842
G1 X113.171 Y124.829 E7.08774
G1 X112.928 Y124.373 E7.12721
G1 X112.748 Y123.889 E7.16665
G1 X112.632 Y123.391 E7.2057
G1 X112.577 Y122.717 E7.25735
G1 X112.579 Y112.163 E8.06345
G1 X112.654 Y111.49 E8.11517
G1 X112.836 Y110.85 E8.16599
G1 X113.103 Y110.296 E8.21296
G1 X113.388 Y109.872 E8.25198
G1 X113.724 Y109.477 E8.29159
G1 X114.222 Y109.046 E8.34189
G1 X114.916 Y108.646 E8.40307
G1 X115.659 Y108.407 E8.46268
G1 X116.385 Y108.304 E8.51869
G1 X122.417 Y108.3 E8.9794
G1 X122.419 Y112.46 E9.29713
G1 X122.422 Y117.264 E9.66405
G1 X122.397 Y118.694 E9.77329
G1 X122.353 Y119.355 E9.82389
G1 X122.252 Y120.266 E9.8939
G1 X122.17 Y120.824 E9.93698
G1 X121.61 Y120.824 E9.97975
G1 X121.267 Y120.902 E10.00662
G1 X121.06 Y121.048 E10.02597
G1 X120.903 Y121.265 E10.04643
G1 X120.823 Y121.611 E10.07355
G1 X120.823 Y125.388 E10.36203
G1 X120.512 Y126.072 E10.41942
G1 X120.184 Y126.699 E10.47347
G1 X116.561 Y126.693 E10.75019
G1 X116.413 Y126.68 E10.76154
G1 X116.277 Y127.194 F6000
;TYPE:External perimeter
G1 F1632.998
G1 X115.847 Y127.157 E10.7945
G1 X115.218 Y127.017 E10.84372
G1 X114.612 Y126.782 E10.89336
G1 X113.971 Y126.422 E10.94951
G1 X113.487 Y126.033 E10.99694
G1 X113.063 Y125.582 E11.04422
G1 X112.723 Y125.106 E11.0889
G1 X112.449 Y124.589 E11.13359
G1 X112.244 Y124.041 E11.17828
G1 X112.112 Y123.472 E11.22289
G1 X112.052 Y122.739 E11.27906
G1 X112.054 Y112.134 E12.08905
G1 X112.137 Y111.389 E12.1463
G1 X112.341 Y110.672 E12.20324
G1 X112.658 Y110.016 E12.25889
G1 X113.012 Y109.499 E12.30675
G1 X113.507 Y108.949 E12.36327
G1 X113.924 Y108.611 E12.40427
G1 X114.692 Y108.17 E12.47191
G1 X115.236 Y107.967 E12.51626
G1 X115.807 Y107.834 E12.56104
G1 X116.359 Y107.779 E12.60341
G1 X122.942 Y107.775 E13.10621
G1 X122.944 Y112.46 E13.46404
G1 X122.947 Y117.604 E13.85693
G1 X122.928 Y118.621 E13.93462
G1 X122.88 Y119.36 E13.99118
G1 X122.797 Y120.167 E14.05314
G1 X122.705 Y120.817 E14.10328
G1 X122.609 Y121.349 E14.14457
G1 X121.496 Y121.375 E14.2296
G1 X121.393 Y121.464 E14.24
G1 X121.348 Y121.611 E14.25174
G1 X121.348 Y125.502 E14.54893
G1 X120.984 Y126.302 E14.61606
G1 X120.502 Y127.225 E14.69559
G1 X116.56 Y127.218 E14.99667
G1 X116.367 Y127.202 E15.01146
G1 X115.771 Y127.131 F6000
G1 E13.01146 F2400
G92 E0
G1 X115.727 Y119.739 F6000
G1 E2 F2400
;TYPE:Perimeter
G1 F1632.998
G1 X115.141 Y119.652 E2.04525
G1 X114.86 Y119.535 E2.0685
G1 X114.515 Y119.305 E2.10017
G1 X114.299 Y119.09 E2.12345
G1 X114.067 Y118.746 E2.15514
G1 X113.948 Y118.46 E2.1788
G1 X113.852 Y117.899 E2.22227
G1 X113.949 Y117.339 E2.26568
G1 X114.066 Y117.055 E2.28914
G1 X114.296 Y116.711 E2.32075
G1 X114.514 Y116.494 E2.34424
G1 X114.858 Y116.264 E2.37585
G1 X115.128 Y116.149 E2.39826
G1 X115.645 Y116.052 E2.43844
G1 X116.246 Y116.143 E2.48487
G1 X116.546 Y116.264 E2.50958
G1 X117.006 Y116.588 E2.55255
G1 X117.339 Y117.057 E2.59648
G1 X117.456 Y117.34 E2.61987
G1 X117.552 Y117.915 E2.6644
G1 X117.455 Y118.461 E2.70676
G1 X117.326 Y118.761 E2.7317
G1 X117.003 Y119.215 E2.77426
G1 X116.542 Y119.536 E2.81717
G1 X116.266 Y119.651 E2.84001
G1 X115.816 Y119.738 E2.87502
G1 X115.759 Y119.219 F6000
;TYPE:External perimeter
G1 F1632.998
G1 X115.245 Y119.138 E2.91476
G1 X114.806 Y118.869 E2.95408
G1 X114.503 Y118.453 E2.99339
G1 X114.382 Y117.951 E3.03283
G1 X114.463 Y117.442 E3.0722
G1 X114.733 Y117.003 E3.11156
G1 X115.15 Y116.7 E3.15093
G1 X115.655 Y116.577 E3.19063
G1 X116.155 Y116.66 E3.22934
G1 X116.6 Y116.931 E3.26913
G1 X116.902 Y117.348 E3.30845
G1 X117.022 Y117.849 E3.3478
G1 X116.94 Y118.358 E3.38718
G1 X116.672 Y118.797 E3.42646
G1 X116.253 Y119.099 E3.46591
G1 X115.847 Y119.197 E3.49781
G1 X115.253 Y119.108 F6000
G1 E1.49781 F2400
G92 E0
G1 X113.226 Y118.147 F6000
G1 E2 F2400
;TYPE:Perimeter
;WIDTH:0.852161
G1 F1103.073
G1 X113.229 Y117.618 E2.05982
G1 E.05982 F2400
G92 E0
G1 X113.229 Y117.618 F6000
G1 X121.736 Y110.077
G1 E2 F2400
;TYPE:Solid infill
;WIDTH:0.615181
G1 F1587.096
G1 X120.878 Y109.22 E2.0953
G1 X120.115 Y109.22 E2.15526
G1 X121.5 Y110.605 E2.30919
G1 X121.5 Y111.369 E2.36923
G1 X119.352 Y109.221 E2.60796
G1 X118.588 Y109.221 E2.668
G1 X121.501 Y112.133 E2.99169
G1 X121.501 Y112.897 E3.05173
G1 X117.825 Y109.221 E3.46028
G1 X117.062 Y109.222 E3.52024
G1 X121.501 Y113.662 E4.01364
G1 X121.502 Y114.426 E4.07368
G1 X116.31 Y109.234 E4.65071
G1 X116.044 Y109.261 E4.67172
G1 X115.662 Y109.35 E4.70254
G1 X121.502 Y115.19 E5.35159
G1 X121.503 Y115.954 E5.41163
G1 X115.131 Y109.582 E6.11981
G1 X114.743 Y109.806 E6.15502
G1 X114.659 Y109.874 E6.16351
G1 X121.503 Y116.718 E6.92415
G1 X121.504 Y117.483 E6.98427
G1 X114.262 Y110.241 E7.78914
G1 X113.94 Y110.683 E7.83212
G1 X121.491 Y118.234 E8.67133
G1 X121.459 Y118.966 E8.72891
G1 X113.692 Y111.198 E9.59218
G1 X113.558 Y111.668 E9.63059
G1 X113.542 Y111.813 E9.64205
G1 X121.397 Y119.668 E10.51505
G1 X121.369 Y119.939 E10.53646
G1 X121.003 Y120.037 E10.56624
G1 X118.409 Y117.443 E10.85453
G1 X118.356 Y117.156 E10.87747
G1 X118.258 Y116.836 E10.90377
G1 X118.106 Y116.553 E10.92902
G1 X117.869 Y116.197 E10.96263
G1 X117.652 Y115.934 E10.98943
G1 X117.407 Y115.734 E11.01428
G1 X116.851 Y115.382 E11.06599
G1 X116.636 Y115.296 E11.08419
G1 X116.162 Y115.196 E11.12226
G1 X113.498 Y112.532 E11.41833
G1 X113.497 Y113.295 E11.47829
G1 X115.366 Y115.164 E11.68601
G1 X114.92 Y115.254 E11.72177
G1 X114.761 Y115.322 E11.73536
G1 X113.497 Y114.059 E11.87578
G1 X113.497 Y114.823 E11.93582
G1 X114.244 Y115.569 E12.01879
G1 X113.993 Y115.737 E12.04253
G1 X113.82 Y115.91 E12.06176
G1 X113.261 Y115.35 E12.12394
G1 E10.12394 F2400
G92 E0
G1 X113.261 Y115.35 F6000
G1 X118.224 Y118.022
G1 E2 F2400
G1 F1587.096
G1 X120.514 Y120.312 E2.25451
G1 X120.417 Y120.391 E2.26434
G1 X120.159 Y120.721 E2.29726
G1 X118.293 Y118.854 E2.5047
G1 X118.265 Y118.947 E2.51233
G1 X118.032 Y119.358 E2.54946
G1 X119.945 Y121.27 E2.76201
G1 X119.904 Y121.603 E2.78838
G1 X119.904 Y121.993 E2.81903
G1 X117.709 Y119.798 E3.06298
G1 X117.645 Y119.873 E3.07073
G1 X117.29 Y120.143 E3.10578
G1 X119.904 Y122.757 E3.3963
G1 X119.904 Y123.521 E3.45634
G1 X116.814 Y120.431 E3.79976
G1 X116.549 Y120.528 E3.82194
G1 X116.215 Y120.596 E3.84873
G1 X119.904 Y124.285 E4.25872
G1 X119.904 Y125.049 E4.31876
G1 X115.507 Y120.652 E4.80744
G1 X114.948 Y120.551 E4.85208
G1 X114.425 Y120.333 E4.89661
G1 X119.709 Y125.617 E5.48387
G1 X119.628 Y125.78 E5.49817
G1 X119.107 Y125.779 E5.53911
G1 X113.496 Y120.168 E6.16271
G1 X113.496 Y120.932 E6.22275
G1 X118.342 Y125.778 E6.76133
G1 X117.577 Y125.776 E6.82145
G1 X113.496 Y121.695 E7.27501
G1 X113.496 Y122.459 E7.33505
G1 X116.812 Y125.775 E7.70359
G1 X116.385 Y125.774 E7.73715
G1 X115.993 Y125.72 E7.76825
G1 X113.548 Y123.275 E8.03999
G1 X113.629 Y123.624 E8.06815
G1 X113.768 Y123.995 E8.09929
G1 X113.953 Y124.344 E8.13033
G1 X114.182 Y124.664 E8.16125
G1 X115.261 Y125.751 E8.28161
EXCLUDE_OBJECT_END NAME=idler_bearing_cover_stl
;LAYER_CHANGE
;Z:0.65
;HEIGHT:0.3
G1 Z.65 F6000
M104 S250 ; set temperature
EXCLUDE_OBJECT_START NAME=idler_bearing_cover_stl
G1 X116.273 Y126.366
;TYPE:Perimeter
;WIDTH:0.6
G1 F1866.999
G1 X115.648 Y126.265 E8.32391
G1 X115.044 Y126.058 E8.36656
G1 X114.449 Y125.713 E8.41251
G1 X113.963 Y125.314 E8.45452
G1 X113.567 Y124.832 E8.49619
G1 X113.305 Y124.397 E8.53011
G1 X113.093 Y123.882 E8.56732
G1 X112.942 Y123.288 E8.60826
G1 X112.899 Y122.7 E8.64765
G1 X112.899 Y118.879 E8.90291
G1 X112.875 Y118.002 E8.96152
;WIDTH:0.574712
G1 F1959.513
G1 X112.887 Y117.439 E8.99736
;WIDTH:0.6
G1 F1866.999
G1 X112.9 Y112.208 E9.34682
G1 X112.993 Y111.455 E9.39751
G1 X113.148 Y110.986 E9.43051
G1 X113.418 Y110.384 E9.47459
G1 X113.784 Y109.884 E9.51599
G1 X114.226 Y109.448 E9.55747
G1 X114.742 Y109.098 E9.59912
G1 X115.31 Y108.834 E9.64096
G1 X115.902 Y108.685 E9.68174
G1 X116.457 Y108.623 E9.71905
G1 X122.096 Y108.621 E10.09577
G1 X122.098 Y117.926 E10.71739
G1 X122.035 Y119.293 E10.80881
G1 X121.891 Y120.503 E10.89021
G1 X121.659 Y120.515 E10.90573
G1 X121.144 Y120.698 E10.94224
G1 X120.864 Y120.926 E10.96636
G1 X120.644 Y121.241 E10.99203
G1 X120.534 Y121.549 E11.01388
G1 X120.501 Y121.842 E11.03358
G1 X120.501 Y125.328 E11.26646
G1 X119.999 Y126.376 E11.34409
G1 X116.363 Y126.366 E11.587
G1 X116.26 Y126.901 F6000
G1 F1866.999
G1 X116.23 Y126.901 E11.589
G1 X115.518 Y126.787 E11.63717
G1 X114.832 Y126.551 E11.68563
G1 X114.386 Y126.32 E11.71918
G1 X113.968 Y126.033 E11.75305
G1 X113.584 Y125.694 E11.78727
G1 X113.245 Y125.31 E11.82149
G1 X112.958 Y124.892 E11.85536
G1 X112.724 Y124.441 E11.8893
G1 X112.515 Y123.857 E11.93074
G1 X112.411 Y123.364 E11.9644
G1 X112.363 Y122.72 E12.00754
G1 X112.365 Y112.175 E12.712
G1 X112.468 Y111.337 E12.7684
G1 X112.728 Y110.55 E12.82377
G1 X112.958 Y110.108 E12.85706
G1 X113.247 Y109.686 E12.89123
G1 X113.706 Y109.199 E12.93594
G1 X114.145 Y108.846 E12.97357
G1 X114.651 Y108.534 E13.01328
G1 X115.126 Y108.33 E13.04782
G1 X115.803 Y108.159 E13.09447
G1 X116.437 Y108.087 E13.1371
G1 X122.631 Y108.086 E13.55089
G1 X122.633 Y117.937 E14.20899
G1 X122.568 Y119.35 E14.30349
G1 X122.428 Y120.538 E14.3834
G1 X122.343 Y121.034 E14.41702
G1 X121.84 Y121.038 E14.45062
G1 X121.422 Y121.155 E14.47962
G1 X121.254 Y121.292 E14.4941
G1 X121.106 Y121.516 E14.51204
G1 X121.037 Y121.842 E14.5343
G1 X121.037 Y125.44 E14.77467
G1 X120.318 Y126.913 E14.88417
G1 X116.35 Y126.902 E15.14925
G1 X116.259 Y127.437 F6000
;TYPE:External perimeter
G1 F1866.999
G1 X116.187 Y127.437 E15.15406
G1 X115.387 Y127.309 E15.20818
G1 X114.62 Y127.045 E15.26237
G1 X114.11 Y126.78 E15.30077
G1 X113.638 Y126.456 E15.33902
G1 X113.204 Y126.073 E15.37769
G1 X112.821 Y125.64 E15.41631
G1 X112.498 Y125.168 E15.45452
G1 X112.232 Y124.655 E15.49312
G1 X111.999 Y124.003 E15.53937
G1 X111.879 Y123.439 E15.57789
