; generated by PrusaSlicer 2.6.1+linux-x64-GTK3 on 2023-09-11 at 03:21:04 UTC

; 

; external perimeters extrusion width = 0.45mm
; perimeters extrusion width = 0.45mm
; infill extrusion width = 0.45mm
; solid infill extrusion width = 0.45mm
; top infill extrusion width = 0.40mm
; first layer extrusion width = 0.42mm

M190 S60 ; set bed temperature and wait for it to be reached
M104 S215 ; set temperature
;TYPE:Custom
G28 ; home all axes
G1 Z5 F5000 ; lift nozzle
M109 S215 ; set temperature and wait for it to be reached
G21 ; set units to millimeters
G90 ; use absolute coordinates
M82 ; use absolute distances for extrusion
G92 E0
; Filament gcode
M107
;LAYER_CHANGE
;Z:0.35
;HEIGHT:0.35
G1 Z.35 F30000
G1 E-2 F2400
G92 E0
G1 X91.292 Y88.991 F30000
G1 E2 F2400
;TYPE:Skirt/Brim
;WIDTH:0.42
G1 F1800
G1 X92.995 Y87.51 E2.11326
G1 X94.126 Y86.69 E2.18337
G1 X96.06 Y85.68 E2.29287
G1 X102.959 Y83.104 E2.66245
G1 X104.443 Y82.69 E2.73977
G1 X106.746 Y82.236 E2.85757
G1 X108.711 Y82.063 E2.95657
G1 X110.038 Y82.058 E3.02317
G1 X117.786 Y83.019 E3.41499
G1 X119.18 Y83.266 E3.48604
G1 X120.785 Y83.682 E3.56925
G1 X122.465 Y84.38 E3.66055
G1 X124.503 Y85.512 E3.77755
G1 X125.888 Y86.559 E3.86468
G1 X131.873 Y92.444 E4.28592
G1 X133.14 Y93.974 E4.38561
G1 X134.436 Y95.98 E4.50547
G1 X134.911 Y96.893 E4.55712
G1 X135.39 Y98.1 E4.62229
G1 X135.677 Y99.117 E4.67532
G1 X136.108 Y101.393 E4.79157
G1 X137.015 Y108.072 E5.12984
G1 X137.067 Y109.191 E5.18606
G1 X136.98 Y111.26 E5.28999
G1 X136.828 Y112.4 E5.34771
G1 X136.101 Y115.156 E5.49075
G1 X133.324 Y122.101 E5.86612
G1 X132.802 Y123.127 E5.92389
G1 X131.336 Y125.39 E6.05921
G1 X130.153 Y126.779 E6.15077
G1 X129.194 Y127.667 E6.21636
G1 X127.782 Y128.719 E6.30473
G1 X122.383 Y132.385 E6.63224
G1 X121.004 Y133.134 E6.711
G1 X119.525 Y133.688 E6.79026
G1 X118.439 Y133.972 E6.84659
G1 X115.988 Y134.383 E6.97131
G1 X108.514 Y135.061 E7.34794
G1 X107.016 Y135.117 E7.42317
G1 X105.93 Y135.055 E7.47776
G1 X104.036 Y134.691 E7.57455
G1 X101.907 Y133.966 E7.68742
G1 X94.504 Y130.127 E8.10593
G1 X92.535 Y128.821 E8.22451
G1 X91.804 Y128.251 E8.27103
G1 X90.795 Y127.309 E8.34031
G1 X89.763 Y126.063 E8.4215
G1 X85.033 Y119.254 E8.83758
G1 X84.373 Y118.203 E8.89986
G1 X83.644 Y116.564 E8.98988
G1 X83.244 Y115.158 E9.06324
G1 X83.003 Y113.407 E9.15194
G1 X83.03 Y103.863 E9.63092
G1 X83.138 Y102.715 E9.68879
G1 X83.357 Y101.544 E9.74858
G1 X83.744 Y100.253 E9.81622
G1 X84.319 Y98.918 E9.88917
G1 X84.872 Y97.886 E9.94793
G1 X85.752 Y96.512 E10.02982
G1 X90.237 Y90.185 E10.41903
G1 X91.252 Y89.036 E10.49597
G1 E8.49597 F2400
G92 E0
G1 X95.784 Y93.969 F30000
G1 E2 F2400
G1 F1800
G1 X96.93 Y93.013 E2.0749
G1 X97.381 Y92.584 E2.10614
G1 X98.722 Y91.817 E2.18367
G1 X99.976 Y91.372 E2.25045
G1 X102.266 Y91.109 E2.36613
G1 X103.426 Y90.256 E2.43839
G1 X105.125 Y89.438 E2.53302
G1 X105.9 Y89.218 E2.57345
G1 X107.255 Y88.923 E2.64304
G1 X110.013 Y88.763 E2.78169
G1 X110.908 Y88.943 E2.82751
G1 X111.772 Y89.285 E2.87414
G1 X112.641 Y89.514 E2.91924
G1 X113.426 Y89.902 E2.96319
G1 X114.705 Y89.616 E3.02896
G1 X115.266 Y89.639 E3.05714
G1 X116.747 Y89.637 E3.13147
G1 X118.104 Y89.877 E3.20063
G1 X119.36 Y90.314 E3.26737
G1 X119.916 Y90.665 E3.30037
G1 X120.384 Y90.858 E3.32578
G1 X121.098 Y91.285 E3.36753
G1 X122.712 Y92.874 E3.4812
G1 X123.705 Y94.239 E3.56591
G1 X123.975 Y94.843 E3.59911
G1 X124.312 Y95.013 E3.61805
G1 X125.892 Y96.05 E3.7129
G1 X126.843 Y96.854 E3.7754
G1 X127.538 Y97.657 E3.8287
G1 X128.106 Y98.46 E3.87806
G1 X128.809 Y99.656 E3.94768
G1 X129.23 Y100.9 E4.01359
G1 X129.476 Y102.559 E4.09776
G1 X129.455 Y103.503 E4.14515
G1 X129.203 Y105.283 E4.23537
G1 X129.802 Y106.615 E4.30867
G1 X129.949 Y107.508 E4.35409
G1 X130.33 Y108.983 E4.43054
G1 X130.335 Y109.808 E4.47194
G1 X130.278 Y110.273 E4.49545
G1 X130.299 Y110.563 E4.51004
G1 X129.66 Y113.23 E4.64767
G1 X129.17 Y114.049 E4.69557
G1 X129.019 Y114.235 E4.70759
G1 X128.626 Y114.924 E4.7474
G1 X127.851 Y115.787 E4.80561
G1 X127.862 Y115.941 E4.81336
G1 X127.749 Y117.361 E4.88485
G1 X126.803 Y120.1 E5.03028
G1 X126.454 Y120.655 E5.06318
G1 X126.187 Y120.967 E5.08379
G1 X125.68 Y121.734 E5.12993
G1 X124.385 Y122.905 E5.21755
G1 X122.279 Y123.984 E5.33631
G1 X121.547 Y124.246 E5.37533
G1 X121.118 Y124.318 E5.39716
G1 X120.84 Y124.748 E5.42286
G1 X120.303 Y125.421 E5.46607
G1 X119.325 Y126.361 E5.53415
G1 X118.525 Y126.894 E5.58239
G1 X117.611 Y127.279 E5.63216
G1 X115.716 Y127.685 E5.72942
G1 X113.795 Y127.769 E5.82592
G1 X112.476 Y127.6 E5.89266
G1 X111.769 Y127.388 E5.9297
G1 X111.403 Y127.585 E5.95056
G1 X110.346 Y127.969 E6.007
G1 X108.311 Y128.355 E6.11095
G1 X106.971 Y128.431 E6.17831
G1 X104.58 Y127.829 E6.30205
G1 X102.843 Y126.853 E6.40204
G1 X101.511 Y125.519 E6.49665
G1 X100.527 Y125.404 E6.54637
G1 X99.436 Y125.093 E6.6033
G1 X97.758 Y124.281 E6.69685
G1 X96.17 Y123.18 E6.79383
G1 X95.509 Y122.545 E6.83983
G1 X94.948 Y121.821 E6.8858
G1 X94.084 Y120.325 E6.9725
G1 X93.604 Y118.804 E7.05254
G1 X93.295 Y118.584 E7.07158
G1 X92.105 Y117.564 E7.15024
G1 X90.735 Y115.747 E7.26444
G1 X90.163 Y114.79 E7.32039
G1 X89.789 Y113.695 E7.37846
G1 X89.76 Y111.52 E7.48762
G1 X89.956 Y110.692 E7.53032
G1 X90.148 Y110.221 E7.55585
G1 X90.199 Y109.988 E7.56782
G1 X90.548 Y109.015 E7.6197
G1 X90.236 Y108.268 E7.66033
G1 X90.014 Y107.357 E7.70739
G1 X89.85 Y106.119 E7.77006
G1 X89.755 Y103.861 E7.88348
G1 X89.963 Y102.794 E7.93804
G1 X90.37 Y101.767 E7.99348
G1 X91.413 Y100.135 E8.09068
G1 X92.255 Y99.324 E8.14935
G1 X92.893 Y98.915 E8.18738
G1 X93.207 Y98.781 E8.20451
G1 X93.439 Y98.526 E8.22181
G1 X93.578 Y97.79 E8.2594
G1 X93.97 Y96.759 E8.31476
G1 X94.461 Y95.791 E8.36923
G1 X95.058 Y95.026 E8.41793
G1 X95.257 Y94.658 E8.43893
G1 X95.747 Y94.016 E8.47946
G1 X96.021 Y94.226 F30000
G1 F1800
G1 X97.158 Y93.271 E8.55398
G1 X97.603 Y92.849 E8.58476
G1 X98.879 Y92.124 E8.65841
G1 X100.07 Y91.704 E8.72179
G1 X100.925 Y91.618 E8.76492
G1 X102.121 Y91.462 E8.82545
G1 X102.41 Y91.457 E8.83996
G1 X102.563 Y91.313 E8.8505
G1 X103.59 Y90.559 E8.91444
G1 X105.234 Y89.766 E9.00604
G1 X105.979 Y89.554 E9.04491
G1 X107.289 Y89.266 E9.11222
G1 X109.966 Y89.105 E9.24681
G1 X110.824 Y89.278 E9.29074
G1 X111.663 Y89.613 E9.33608
G1 X112.535 Y89.843 E9.38134
G1 X113.383 Y90.266 E9.4289
G1 X114.715 Y89.962 E9.49747
G1 X115.259 Y89.984 E9.52479
G1 X116.732 Y89.982 E9.59871
G1 X118.005 Y90.208 E9.6636
G1 X119.193 Y90.616 E9.72664
G1 X119.757 Y90.973 E9.76014
G1 X120.221 Y91.161 E9.78527
G1 X120.872 Y91.546 E9.82323
G1 X122.441 Y93.089 E9.93367
G1 X123.415 Y94.427 E10.01673
G1 X123.709 Y95.096 E10.0534
G1 X124.131 Y95.307 E10.07708
G1 X125.694 Y96.333 E10.17091
G1 X126.591 Y97.09 E10.22982
G1 X127.272 Y97.876 E10.28201
G1 X127.812 Y98.641 E10.329
G1 X128.502 Y99.815 E10.39734
G1 X128.899 Y100.995 E10.45982
G1 X129.131 Y102.567 E10.53957
G1 X129.112 Y103.467 E10.58475
G1 X128.892 Y105.085 E10.6667
G1 X128.829 Y105.292 E10.67756
G1 X129.478 Y106.735 E10.75697
G1 X129.611 Y107.577 E10.79975
G1 X129.991 Y109.048 E10.876
G1 X129.99 Y109.796 E10.91354
G1 X129.932 Y110.264 E10.93721
G1 X129.953 Y110.562 E10.9522
G1 X129.35 Y113.076 E11.08195
G1 X128.881 Y113.861 E11.12784
G1 X128.735 Y114.038 E11.13935
G1 X128.336 Y114.736 E11.1797
G1 X127.49 Y115.671 E11.24298
G1 X127.517 Y115.933 E11.2562
G1 X127.416 Y117.27 E11.32349
G1 X126.501 Y119.934 E11.46485
G1 X126.169 Y120.46 E11.49607
G1 X125.912 Y120.757 E11.51578
G1 X125.404 Y121.525 E11.56199
G1 X124.171 Y122.633 E11.64518
G1 X122.133 Y123.672 E11.75998
G1 X121.447 Y123.915 E11.7965
G1 X120.912 Y124.002 E11.8237
G1 X120.565 Y124.54 E11.85583
G1 X120.041 Y125.197 E11.898
G1 X119.097 Y126.101 E11.96359
G1 X118.349 Y126.597 E12.00863
G1 X117.493 Y126.954 E12.05518
G1 X115.658 Y127.345 E12.14934
G1 X113.795 Y127.424 E12.24292
G1 X112.535 Y127.26 E12.30669
G1 X111.73 Y127.016 E12.3489
G1 X111.272 Y127.266 E12.37509
G1 X110.268 Y127.633 E12.42874
G1 X108.258 Y128.014 E12.53141
G1 X106.978 Y128.085 E12.59575
G1 X104.729 Y127.518 E12.71215
G1 X103.033 Y126.565 E12.80978
G1 X101.671 Y125.19 E12.90691
G1 X100.608 Y125.068 E12.96061
G1 X99.545 Y124.766 E13.01607
G1 X97.921 Y123.977 E13.10668
G1 X96.398 Y122.921 E13.19969
G1 X95.774 Y122.323 E13.24306
G1 X95.228 Y121.619 E13.28777
G1 X94.392 Y120.17 E13.37172
G1 X93.899 Y118.589 E13.45483
G1 X93.512 Y118.316 E13.4786
G1 X92.369 Y117.341 E13.554
G1 X91.015 Y115.547 E13.6668
G1 X90.483 Y114.662 E13.71862
G1 X90.125 Y113.61 E13.77439
G1 X90.1 Y111.579 E13.87633
G1 X90.288 Y110.785 E13.91728
G1 X90.479 Y110.324 E13.94232
G1 X90.528 Y110.093 E13.95417
G1 X90.906 Y109.04 E14.01032
G1 X90.835 Y108.786 E14.02356
G1 X90.567 Y108.17 E14.05727
G1 X90.355 Y107.302 E14.10211
G1 X90.194 Y106.097 E14.16312
G1 X90.1 Y103.867 E14.27513
G1 X90.298 Y102.878 E14.32575
G1 X90.684 Y101.911 E14.378
G1 X91.692 Y100.339 E14.47172
G1 X92.481 Y99.586 E14.52646
G1 X93.065 Y99.214 E14.56121
G1 X93.413 Y99.069 E14.58013
G1 X93.625 Y98.831 E14.59613
G1 X93.752 Y98.73 E14.60427
G1 X93.906 Y97.897 E14.64678
G1 X94.282 Y96.906 E14.69997
G1 X94.743 Y95.99 E14.75143
G1 X95.348 Y95.215 E14.80077
G1 X95.54 Y94.856 E14.8212
G1 X95.985 Y94.273 E14.85801
G1 X96.259 Y94.483 F30000
G1 F1800
G1 X96.308 Y94.419 E14.86206
G1 X97.387 Y93.53 E14.93222
G1 X97.825 Y93.114 E14.96254
G1 X99.034 Y92.433 E15.03218
G1 X100.164 Y92.037 E15.09227
G1 X100.963 Y91.961 E15.13255
G1 X102.155 Y91.805 E15.19288
G1 X102.551 Y91.8 E15.21276
G1 X102.777 Y91.583 E15.22848
G1 X103.755 Y90.863 E15.28943
G1 X105.343 Y90.093 E15.378
G1 X106.058 Y89.889 E15.41531
G1 X107.35 Y89.606 E15.48169
G1 X109.92 Y89.448 E15.61091
G1 X110.74 Y89.613 E15.65289
G1 X111.554 Y89.941 E15.69693
G1 X112.429 Y90.172 E15.74235
G1 X113.339 Y90.631 E15.7935
G1 X114.724 Y90.307 E15.86488
G1 X115.252 Y90.329 E15.8914
G1 X116.717 Y90.327 E15.96492
G1 X117.907 Y90.539 E16.02558
G1 X119.026 Y90.918 E16.08487
G1 X119.6 Y91.281 E16.11895
G1 X120.059 Y91.466 E16.14379
G1 X120.646 Y91.807 E16.17786
G1 X122.171 Y93.303 E16.28507
G1 X123.125 Y94.614 E16.36644
G1 X123.443 Y95.349 E16.40663
G1 X123.951 Y95.601 E16.43509
G1 X125.496 Y96.616 E16.52786
G1 X126.34 Y97.326 E16.58321
G1 X127.005 Y98.096 E16.63427
G1 X127.518 Y98.822 E16.67888
G1 X128.196 Y99.974 E16.74596
G1 X128.567 Y101.089 E16.80493
G1 X128.786 Y102.566 E16.87986
G1 X128.768 Y103.437 E16.92358
G1 X128.553 Y105.022 E17.00385
G1 X128.446 Y105.351 E17.02121
G1 X128.564 Y105.539 E17.03235
G1 X129.153 Y106.854 E17.10466
G1 X129.272 Y107.646 E17.14485
G1 X129.651 Y109.112 E17.22084
G1 X129.646 Y109.776 E17.25416
G1 X129.594 Y110.098 E17.27053
G1 X129.587 Y110.277 E17.27952
G1 X129.607 Y110.56 E17.29376
G1 X129.041 Y112.921 E17.41561
G1 X128.592 Y113.671 E17.45948
G1 X128.451 Y113.84 E17.47053
G1 X128.046 Y114.549 E17.51151
G1 X127.128 Y115.556 E17.5799
G1 X127.172 Y115.927 E17.59865
G1 X127.082 Y117.18 E17.66169
G1 X126.198 Y119.767 E17.79889
G1 X125.885 Y120.264 E17.82837
G1 X125.638 Y120.548 E17.84726
G1 X125.129 Y121.315 E17.89346
G1 X123.959 Y122.361 E17.97222
G1 X122.007 Y123.35 E18.08204
G1 X121.348 Y123.585 E18.11715
G1 X120.706 Y123.684 E18.14975
G1 X120.29 Y124.331 E18.18835
G1 X119.778 Y124.972 E18.22952
G1 X118.871 Y125.841 E18.29256
G1 X118.173 Y126.299 E18.33446
G1 X117.376 Y126.63 E18.37777
G1 X115.601 Y127.004 E18.46881
G1 X113.796 Y127.078 E18.55947
G1 X112.595 Y126.92 E18.62026
G1 X111.691 Y126.643 E18.66771
G1 X111.14 Y126.947 E18.69929
G1 X110.189 Y127.297 E18.75015
G1 X108.205 Y127.673 E18.85149
G1 X106.985 Y127.739 E18.91281
G1 X104.878 Y127.206 E19.02188
G1 X103.224 Y126.276 E19.11711
G1 X101.831 Y124.861 E19.21676
G1 X100.688 Y124.732 E19.27449
G1 X99.654 Y124.438 E19.32844
G1 X98.084 Y123.673 E19.41609
G1 X96.627 Y122.663 E19.50506
G1 X96.022 Y122.083 E19.54712
G1 X95.508 Y121.417 E19.58934
G1 X94.701 Y120.015 E19.67052
G1 X94.194 Y118.375 E19.75667
G1 X93.729 Y118.048 E19.7852
G1 X92.632 Y117.118 E19.85738
G1 X91.296 Y115.346 E19.96875
G1 X90.803 Y114.533 E20.01647
G1 X90.46 Y113.525 E20.06991
G1 X90.441 Y111.638 E20.16462
G1 X90.62 Y110.879 E20.20376
G1 X90.81 Y110.426 E20.22841
G1 X90.857 Y110.197 E20.24014
G1 X91.267 Y109.054 E20.30108
G1 X91.161 Y108.67 E20.32107
G1 X90.898 Y108.073 E20.35381
G1 X90.696 Y107.247 E20.39649
G1 X90.538 Y106.073 E20.45594
G1 X90.442 Y103.914 E20.5644
G1 X90.633 Y102.961 E20.61318
G1 X90.998 Y102.055 E20.6622
G1 X91.971 Y100.544 E20.75239
G1 X92.705 Y99.848 E20.80315
G1 X93.235 Y99.515 E20.83456
G1 X93.616 Y99.359 E20.85522
G1 X93.87 Y99.075 E20.87434
G1 X94.067 Y98.927 E20.88671
G1 X94.234 Y98.004 E20.93378
G1 X94.594 Y97.052 E20.98486
G1 X95.028 Y96.184 E21.03356
G1 X95.523 Y95.533 E21.0746
G1 X95.625 Y95.429 E21.08191
G1 X95.823 Y95.053 E21.10324
G1 X96.222 Y94.53 E21.13625
G1 X96.497 Y94.74 F30000
G1 F1800
G1 X96.569 Y94.645 E21.14223
G1 X97.617 Y93.788 E21.21017
G1 X98.015 Y93.403 E21.23796
G1 X99.19 Y92.741 E21.30564
G1 X100.256 Y92.37 E21.36229
G1 X101 Y92.303 E21.39978
G1 X102.189 Y92.149 E21.45995
G1 X102.692 Y92.144 E21.48519
G1 X102.992 Y91.854 E21.50613
G1 X103.945 Y91.151 E21.56556
G1 X104.912 Y90.698 E21.61915
G1 X105.456 Y90.42 E21.64981
G1 X106.138 Y90.225 E21.68541
G1 X107.386 Y89.949 E21.74956
G1 X109.875 Y89.79 E21.87473
G1 X110.656 Y89.948 E21.91472
G1 X111.444 Y90.268 E21.9574
G1 X112.324 Y90.501 E22.00309
G1 X113.058 Y90.869 E22.0443
G1 X113.239 Y91.01 E22.05581
G1 X114.734 Y90.653 E22.13295
G1 X115.245 Y90.674 E22.15862
G1 X116.702 Y90.672 E22.23174
G1 X117.809 Y90.87 E22.28818
G1 X118.86 Y91.221 E22.34379
G1 X119.443 Y91.59 E22.37842
G1 X119.897 Y91.771 E22.40295
G1 X120.454 Y92.094 E22.43526
G1 X121.918 Y93.539 E22.53849
G1 X122.834 Y94.8 E22.61671
G1 X123.175 Y95.601 E22.6604
G1 X123.77 Y95.895 E22.69371
G1 X125.299 Y96.898 E22.78548
G1 X126.088 Y97.562 E22.83723
G1 X126.739 Y98.315 E22.88718
G1 X127.225 Y99.003 E22.92945
G1 X127.889 Y100.133 E22.99523
G1 X128.234 Y101.183 E23.0507
G1 X128.442 Y102.599 E23.12253
G1 X128.418 Y103.078 E23.1466
G1 X128.423 Y103.429 E23.16422
G1 X128.214 Y104.958 E23.24167
G1 X128.065 Y105.398 E23.26498
G1 X128.255 Y105.693 E23.28259
G1 X128.829 Y106.972 E23.35295
G1 X128.933 Y107.712 E23.39045
G1 X129.311 Y109.175 E23.46628
G1 X129.301 Y109.757 E23.49549
G1 X129.25 Y110.062 E23.51101
G1 X129.242 Y110.283 E23.52211
G1 X129.262 Y110.558 E23.53595
G1 X128.731 Y112.767 E23.64997
G1 X128.304 Y113.481 E23.69172
G1 X128.149 Y113.662 E23.70368
G1 X128.089 Y113.802 E23.71132
G1 X127.76 Y114.356 E23.74366
G1 X126.918 Y115.275 E23.80621
G1 X126.761 Y115.411 E23.81663
G1 X126.827 Y115.922 E23.84249
G1 X126.748 Y117.091 E23.90129
G1 X125.895 Y119.6 E24.03428
G1 X125.601 Y120.068 E24.06202
G1 X125.364 Y120.337 E24.08001
G1 X124.854 Y121.106 E24.12632
G1 X123.749 Y122.086 E24.20044
G1 X122.791 Y122.553 E24.25393
G1 X121.88 Y123.03 E24.30554
G1 X121.248 Y123.254 E24.33919
G1 X120.5 Y123.366 E24.37715
G1 X120.015 Y124.123 E24.42227
G1 X119.516 Y124.748 E24.46241
G1 X118.644 Y125.58 E24.5229
G1 X117.999 Y126.001 E24.56156
G1 X117.261 Y126.304 E24.6016
G1 X115.545 Y126.664 E24.68959
G1 X113.798 Y126.733 E24.77733
G1 X112.655 Y126.58 E24.8352
G1 X111.653 Y126.27 E24.88784
G1 X111.008 Y126.629 E24.92489
G1 X110.111 Y126.96 E24.97287
G1 X108.152 Y127.332 E25.07294
G1 X106.993 Y127.393 E25.13119
G1 X105.026 Y126.894 E25.23303
G1 X103.452 Y126.016 E25.32348
G1 X102.006 Y124.547 E25.42693
G1 X101.757 Y124.5 E25.43965
G1 X100.768 Y124.396 E25.48956
G1 X99.763 Y124.111 E25.54199
G1 X98.248 Y123.369 E25.62665
G1 X96.855 Y122.404 E25.7117
G1 X96.287 Y121.862 E25.7511
G1 X95.788 Y121.215 E25.79211
G1 X95.024 Y119.893 E25.86874
G1 X94.556 Y118.395 E25.9475
G1 X94.518 Y118.182 E25.95836
G1 X93.945 Y117.779 E25.99352
G1 X92.896 Y116.895 E26.06237
G1 X91.576 Y115.145 E26.17238
G1 X91.109 Y114.371 E26.21775
G1 X90.796 Y113.441 E26.267
G1 X90.781 Y111.698 E26.35448
G1 X90.952 Y110.973 E26.39186
G1 X91.142 Y110.527 E26.41619
G1 X91.186 Y110.3 E26.42779
G1 X91.629 Y109.067 E26.49354
G1 X91.487 Y108.552 E26.52035
G1 X91.229 Y107.975 E26.55207
G1 X91.036 Y107.191 E26.59259
G1 X90.882 Y106.05 E26.65037
G1 X90.785 Y103.961 E26.75532
