; generated by PrusaSlicer 2.6.1+linux-x64-GTK3 on 2023-10-25 at 15:02:32 UTC

; 

; external perimeters extrusion width = 0.45mm
; perimeters extrusion width = 0.45mm
; infill extrusion width = 0.45mm
; solid infill extrusion width = 0.45mm
; top infill extrusion width = 0.40mm
; support material extrusion width = 0.40mm
; first layer extrusion width = 0.70mm

;TYPE:Custom
; M190 R30 ; Because of probe temperature drift,
; M109 R30 ; Let the beds and hotend cool down before homing the axis

G28 ; home all axes
G1 Z100.0 F3000 ; Raise head above brush
M190 S65 ; set bed temperature and wait for it to be reached
M109 S230 ; set hot end temp and wait for it

; Brush any crap off the nozzle
G1 X232.0 Y0.0 F3000 ; Goto Start of movement
G1 Z19.0 F3000 ; Lower into brush
G1 X221.0 Y2.0 F3000 ; Goto Start of movement
G1 X229.0 Y4.0 F3000 ; 
G1 X221.0 Y6.0 F3000 ; 
G1 X229.0 Y8.0 F3000 ; 
G1 X221.0 Y10.0 F3000 ;
G1 X229.0 Y12.0 F3000 ;
G1 X221.0 Y14.0 F3000 ;
G1 X229.0 Y16.0 F3000 ;
G1 X221.0 Y18.0 F3000 ;
G1 X229.0 Y20.0 F3000 ;
G1 X221.0 Y22.0 F3000 ;
G1 X229.0 Y24.0 F3000 ;
G1 X221.0 Y26.0 F3000 ;
G1 X229.0 Y28.0 F3000 ;
G1 X221.0 Y30.0 F3000 ;
G1 X229.0 Y28.0 F3000 ;
G1 X221.0 Y26.0 F3000 ;
G1 X229.0 Y24.0 F3000 ;
G1 X221.0 Y22.0 F3000 ;
G1 X229.0 Y20.0 F3000 ;
G1 X221.0 Y18.0 F3000 ;
G1 X229.0 Y16.0 F3000 ;
G1 X221.0 Y14.0 F3000 ;
G1 X229.0 Y12.0 F3000 ;
G1 X221.0 Y10.0 F3000 ;
G1 X229.0 Y8.0 F3000 ; 
G1 X221.0 Y6.0 F3000 ; 
G1 X229.0 Y4.0 F3000 ; 
G1 X221.0 Y2.0 F3000 ; 
G1 X229.0 Y0.0 F3000 ; 
G1 X225.0 Y0.0 F3000 ; 
G1 X225.0 Y30.0 F5000 ; 
G1 X225.0 Y0.0 F5000 ; 
G1 X225.0 Y30.0 F5000 ; 
G1 X225.0 Y0.0 F5000 ; 
G1 X225.0 Y30.0 F5000 ; 

; Do a purge line to prime the extruder
G92 E0 ;Reset Extruder
G1 X227.0 Y80.0 F5000 ; Goto Start of purge
G1 Z0.28 F5000 ;Move Head to start height
G1 X227.0 Y230.0 Z0.28 F1500.0 E15; Draw first line
G1 X226.7 Y230.0 Z0.28 F5000.0 ;Move to side a little
G1 X226.7 Y80.0 Z0.28 F1500.0 E30; Draw the second line
G1 Z0.4 F5000; Move Z Axis Up
G1 Y120 F1500; Wipe to the back
G1 X117.5 Y117.5 Z27.0 F5000 ; Raise head above brush
G92 E0 ;Reset Extruder
G21 ; set units to millimeters
G90 ; use absolute coordinates
M82 ; use absolute distances for extrusion
G92 E0
; Filament gcode
SET_PRESSURE_ADVANCE ADVANCE=0.063
M107
;LAYER_CHANGE
;Z:0.35
;HEIGHT:0.35
G1 Z.35 F30000
G1 E-.1 F2400
G92 E0
G1 X134.064 Y153.403 F30000
G1 E.1 F2400
;TYPE:Perimeter
;WIDTH:0.7
G1 F1800
G1 X134.323 Y153.415 E.12358
G1 X134.647 Y153.307 E.15463
G1 X152.23 Y143.62 E1.98003
G1 X152.515 Y143.378 E2.01403
G1 X152.667 Y143.095 E2.04324
G1 X152.714 Y142.748 E2.07508
G1 X152.599 Y142.347 E2.11301
G1 X144.922 Y128.412 E3.55968
G1 X141.361 Y82.628 E7.73537
G1 X141.123 Y80.806 E7.90245
G1 X140.656 Y78.874 E8.08319
G1 X140.017 Y77.098 E8.25482
G1 X139.24 Y75.486 E8.41754
G1 X138.192 Y73.798 E8.59821
G1 X137.029 Y72.311 E8.76987
G1 X135.787 Y71.024 E8.9325
G1 X134.774 Y70.169 E9.05304
G1 X134.263 Y69.748 E9.11324
G1 X132.693 Y68.7 E9.28488
G1 X131.02 Y67.824 E9.4566
G1 X129.264 Y67.131 E9.62826
G1 X127.444 Y66.627 E9.79998
G1 X125.68 Y66.331 E9.96262
G1 X123.747 Y66.21 E10.13873
G1 X69.252 Y65.807 E15.09407
G1 X68.726 Y65.131 E15.17195
G1 X67.915 Y64.29 E15.27819
G1 X66.87 Y63.411 E15.40236
G1 X65.901 Y62.757 E15.50866
G1 X64.785 Y62.158 E15.62383
G1 X63.523 Y61.653 E15.74743
G1 X62.298 Y61.304 E15.86325
G1 X61.049 Y61.091 E15.97846
G1 X59.784 Y61.011 E16.09372
G1 X58.518 Y61.064 E16.20894
G1 X57.361 Y61.23 E16.31522
G1 X56.131 Y61.536 E16.43047
G1 X54.85 Y62.009 E16.55464
G1 X53.712 Y62.577 E16.67029
G1 X52.655 Y63.255 E16.78448
G1 X51.657 Y64.046 E16.90027
G1 X50.754 Y64.936 E17.01556
G1 X49.95 Y65.915 E17.13075
G1 X49.254 Y66.974 E17.24598
G1 X48.672 Y68.1 E17.36123
G1 X48.212 Y69.28 E17.47639
G1 X47.878 Y70.503 E17.59167
G1 X47.675 Y71.754 E17.70691
G1 X47.603 Y72.969 E17.81758
G1 X47.523 Y83.806 E18.80301
G1 X47.503 Y84.244 E18.84288
G1 X47.44 Y84.789 E18.89277
G1 X47.318 Y85.323 E18.94258
G1 X47.139 Y85.842 E18.9925
G1 X46.905 Y86.338 E19.04237
G1 X46.619 Y86.806 E19.09224
G1 X46.284 Y87.24 E19.14209
G1 X45.903 Y87.636 E19.19206
G1 X45.483 Y87.988 E19.24189
G1 X45.026 Y88.292 E19.2918
G1 X44.54 Y88.546 E19.34166
G1 X44.029 Y88.745 E19.39152
G1 X43.499 Y88.888 E19.44144
G1 X42.957 Y88.972 E19.49131
G1 X42.409 Y88.998 E19.5412
G1 X41.861 Y88.964 E19.59113
G1 X41.321 Y88.871 E19.64095
G1 X40.793 Y88.72 E19.69089
G1 X40.284 Y88.513 E19.74085
G1 X39.801 Y88.252 E19.79077
G1 X39.349 Y87.94 E19.84071
G1 X38.931 Y87.579 E19.89093
G1 X38.547 Y87.166 E19.94221
G1 X38.119 Y86.573 E20.00871
G1 X37.824 Y86.023 E20.06546
G1 X37.627 Y85.516 E20.11492
G1 X37.484 Y84.986 E20.16484
G1 X37.399 Y84.443 E20.21482
G1 X37.372 Y83.868 E20.26716
G1 X37.453 Y72.92 E21.26268
G1 X37.593 Y70.575 E21.47629
G1 X37.974 Y68.283 E21.68756
G1 X38.592 Y66.043 E21.89885
G1 X39.441 Y63.88 E22.11014
G1 X40.511 Y61.818 E22.32138
G1 X41.791 Y59.878 E22.53272
G1 X43.266 Y58.083 E22.74398
G1 X44.921 Y56.453 E22.9552
G1 X46.738 Y55.004 E23.16652
G1 X48.696 Y53.753 E23.3778
G1 X50.774 Y52.713 E23.58909
G1 X52.949 Y51.896 E23.80035
G1 X55.198 Y51.312 E24.01163
G1 X57.496 Y50.965 E24.22295
G1 X59.843 Y50.86 E24.43658
G1 X140.165 Y51.454 E31.74042
G1 X141.482 Y51.534 E31.86039
G1 X142.758 Y51.748 E31.97804
G1 X144.004 Y52.097 E32.0957
G1 X145.207 Y52.576 E32.21344
G1 X146.351 Y53.179 E32.33103
G1 X147.426 Y53.9 E32.44873
G1 X148.418 Y54.731 E32.5664
G1 X149.316 Y55.662 E32.68402
G1 X150.111 Y56.683 E32.80168
G1 X150.793 Y57.783 E32.91937
G1 X151.355 Y58.949 E33.03707
G1 X151.79 Y60.167 E33.15467
G1 X152.094 Y61.425 E33.27235
G1 X152.266 Y62.734 E33.3924
G1 X158.392 Y141.501 E40.57627
G1 X158.467 Y142.517 E40.66891
G1 X158.485 Y143.216 E40.73249
G1 X158.427 Y143.962 E40.80053
G1 X158.291 Y144.699 E40.86868
G1 X158.079 Y145.417 E40.93675
G1 X157.826 Y146.03 E40.99705
G1 X157.435 Y146.773 E41.07339
G1 X157.016 Y147.387 E41.14098
G1 X156.532 Y147.959 E41.20911
G1 X155.991 Y148.477 E41.27722
G1 X155.399 Y148.936 E41.34533
G1 X154.741 Y149.344 E41.41573
G1 X137.706 Y158.729 E43.18423
G1 X137.005 Y159.069 E43.25507
G1 X136.296 Y159.325 E43.32361
G1 X135.565 Y159.505 E43.39206
G1 X134.818 Y159.608 E43.46063
G1 X134.152 Y159.629 E43.52122
G1 X133.309 Y159.577 E43.59802
G1 X132.572 Y159.445 E43.6661
G1 X131.848 Y159.235 E43.73465
G1 X131.15 Y158.951 E43.80317
G1 X130.486 Y158.596 E43.87163
G1 X129.862 Y158.173 E43.94018
G1 X129.286 Y157.687 E44.00871
G1 X128.764 Y157.144 E44.0772
G1 X128.302 Y156.549 E44.1457
G1 X127.891 Y155.887 E44.21655
G1 X122.886 Y146.803 E45.15963
G1 X122.464 Y145.908 E45.2496
G1 X122.229 Y145.22 E45.31571
G1 X122.064 Y144.513 E45.38172
G1 X121.971 Y143.794 E45.44764
G1 X121.952 Y143.07 E45.5135
G1 X122.005 Y142.349 E45.57924
G1 X122.129 Y141.639 E45.64478
G1 X122.324 Y140.947 E45.71015
G1 X122.586 Y140.279 E45.7754
G1 X122.911 Y139.642 E45.84043
G1 X123.297 Y139.043 E45.90523
G1 X123.738 Y138.487 E45.96976
G1 X124.228 Y137.98 E46.03387
G1 X124.848 Y137.463 E46.10727
G1 X133.304 Y152.812 E47.70073
G1 X133.421 Y153.015 E47.72204
G1 X133.669 Y153.262 E47.75387
G1 X134.004 Y153.4 E47.78681
G1 X134.14 Y152.794 F30000
;TYPE:External perimeter
G1 F1800
G1 X134.345 Y152.76 E47.80571
G1 X151.365 Y143.383 E49.57267
G1 X151.977 Y143.04 E49.63646
G1 X152.084 Y142.863 E49.65527
G1 X152.052 Y142.648 E49.67504
G1 X144.309 Y128.595 E51.134
G1 X140.738 Y82.676 E55.322
G1 X140.503 Y80.887 E55.48607
G1 X140.068 Y79.084 E55.65472
G1 X139.466 Y77.4 E55.81734
G1 X138.677 Y75.758 E55.98299
G1 X137.699 Y74.181 E56.15172
G1 X136.579 Y72.745 E56.31731
G1 X135.337 Y71.457 E56.48001
G1 X134.373 Y70.648 E56.59444
G1 X133.915 Y70.266 E56.64867
G1 X132.401 Y69.253 E56.81431
G1 X130.789 Y68.405 E56.97993
G1 X129.096 Y67.733 E57.14556
G1 X127.341 Y67.244 E57.31122
G1 X125.577 Y66.947 E57.47388
G1 X123.743 Y66.835 E57.64096
G1 X68.943 Y66.429 E62.62403
G1 X68.276 Y65.565 E62.72328
G1 X67.465 Y64.723 E62.82958
G1 X66.52 Y63.929 E62.94181
G1 X65.523 Y63.258 E63.05109
G1 X64.459 Y62.695 E63.16055
G1 X63.294 Y62.234 E63.27448
G1 X62.223 Y61.927 E63.37579
G1 X61.007 Y61.715 E63.48803
G1 X59.808 Y61.635 E63.5973
G1 X58.607 Y61.682 E63.70659
G1 X57.45 Y61.849 E63.81289
G1 X56.285 Y62.142 E63.92212
G1 X55.127 Y62.569 E64.03435
G1 X54.048 Y63.103 E64.14382
G1 X52.993 Y63.781 E64.25785
G1 X52.094 Y64.493 E64.36213
G1 X51.236 Y65.334 E64.47138
G1 X50.471 Y66.261 E64.58067
G1 X49.808 Y67.263 E64.68992
G1 X49.253 Y68.329 E64.7992
G1 X48.814 Y69.447 E64.90842
G1 X48.495 Y70.606 E65.01773
G1 X48.299 Y71.791 E65.12695
G1 X48.228 Y72.973 E65.23462
G1 X48.147 Y83.965 E66.23414
G1 X48.108 Y84.59 E66.29108
G1 X48.004 Y85.198 E66.34717
G1 X47.834 Y85.792 E66.40335
G1 X47.602 Y86.363 E66.45939
G1 X47.309 Y86.906 E66.51549
G1 X46.959 Y87.415 E66.57166
G1 X46.556 Y87.882 E66.62775
G1 X46.104 Y88.303 E66.68392
G1 X45.61 Y88.673 E66.74004
G1 X45.079 Y88.987 E66.79613
G1 X44.517 Y89.242 E66.85225
G1 X43.931 Y89.435 E66.90835
G1 X43.327 Y89.563 E66.96449
G1 X42.713 Y89.625 E67.0206
G1 X42.096 Y89.621 E67.0767
G1 X41.483 Y89.549 E67.13282
G1 X40.881 Y89.412 E67.18896
G1 X40.298 Y89.211 E67.24503
G1 X39.74 Y88.948 E67.30112
G1 X39.214 Y88.625 E67.35725
G1 X38.725 Y88.248 E67.41339
G1 X38.28 Y87.821 E67.46947
G1 X37.884 Y87.347 E67.52563
G1 X37.582 Y86.894 E67.57514
G1 X37.256 Y86.285 E67.63795
G1 X37.032 Y85.712 E67.69389
G1 X36.872 Y85.116 E67.75
G1 X36.776 Y84.506 E67.80615
G1 X36.747 Y83.88 E67.86313
G1 X36.828 Y72.899 E68.86165
G1 X36.972 Y70.505 E69.07973
G1 X37.363 Y68.148 E69.29698
G1 X37.998 Y65.845 E69.51421
G1 X38.871 Y63.621 E69.73146
G1 X39.971 Y61.501 E69.94864
G1 X41.287 Y59.507 E70.16588
G1 X42.804 Y57.661 E70.38314
G1 X44.506 Y55.984 E70.60041
G1 X46.374 Y54.495 E70.81763
G1 X48.387 Y53.208 E71.03488
G1 X50.524 Y52.14 E71.25211
G1 X52.76 Y51.3 E71.4693
G1 X55.073 Y50.699 E71.6866
G1 X57.435 Y50.342 E71.90381
G1 X59.831 Y50.235 E72.12189
G1 X140.186 Y50.829 E79.42873
G1 X141.553 Y50.912 E79.55326
G1 X142.895 Y51.138 E79.67701
G1 X144.205 Y51.504 E79.80069
G1 X145.469 Y52.007 E79.92439
G1 X146.672 Y52.641 E80.04804
G1 X147.802 Y53.399 E80.17177
G1 X148.845 Y54.273 E80.29551
G1 X149.789 Y55.252 E80.41917
G1 X150.625 Y56.326 E80.54293
G1 X151.342 Y57.482 E80.66662
G1 X151.932 Y58.707 E80.79025
G1 X152.39 Y59.988 E80.91395
G1 X152.709 Y61.311 E81.0377
G1 X152.887 Y62.669 E81.16224
G1 X159.015 Y141.452 E88.34758
G1 X159.092 Y142.501 E88.44322
G1 X159.111 Y143.232 E88.50971
G1 X159.047 Y144.044 E88.58377
G1 X158.899 Y144.844 E88.65775
G1 X158.669 Y145.625 E88.73178
G1 X158.393 Y146.295 E88.79767
G1 X157.971 Y147.096 E88.87999
G1 X157.514 Y147.766 E88.95374
G1 X156.987 Y148.387 E89.0278
G1 X156.399 Y148.95 E89.10182
G1 X155.756 Y149.449 E89.17583
G1 X155.057 Y149.884 E89.25069
G1 X137.993 Y159.284 E91.02216
G1 X137.248 Y159.645 E91.09744
G1 X136.478 Y159.923 E91.17188
G1 X135.683 Y160.12 E91.24636
G1 X134.871 Y160.231 E91.32088
G1 X134.142 Y160.255 E91.3872
G1 X133.234 Y160.198 E91.46993
G1 X132.43 Y160.054 E91.5442
G1 X131.643 Y159.827 E91.61868
G1 X130.884 Y159.518 E91.6932
G1 X130.162 Y159.131 E91.76769
G1 X129.484 Y158.672 E91.84214
G1 X128.858 Y158.144 E91.91661
G1 X128.291 Y157.553 E91.99108
G1 X127.788 Y156.906 E92.0656
G1 X127.351 Y156.203 E92.14087
G1 X122.293 Y147.022 E93.094
G1 X121.942 Y146.301 E93.16692
G1 X121.669 Y145.556 E93.23907
G1 X121.473 Y144.788 E93.31114
G1 X121.356 Y144.004 E93.38322
G1 X121.318 Y143.212 E93.45532
G1 X121.361 Y142.42 E93.52744
G1 X121.484 Y141.636 E93.5996
G1 X121.685 Y140.869 E93.6717
G1 X121.964 Y140.127 E93.74378
G1 X122.315 Y139.416 E93.81588
G1 X122.737 Y138.744 E93.88803
G1 X123.225 Y138.119 E93.96013
G1 X123.773 Y137.547 E94.03216
G1 X124.397 Y137.019 E94.10649
G1 X124.829 Y136.718 E94.15437
G1 X125.181 Y136.773 E94.18677
G1 X133.851 Y152.51 E95.82052
G1 X133.957 Y152.689 E95.83944
G1 X134.088 Y152.764 E95.85317
G1 X134.216 Y152.988 F30000
G1 E95.75317 F2400
G92 E0
G1 X56.332 Y51.33 F30000
G1 E.1 F2400
;TYPE:Solid infill
;WIDTH:0.702026
G1 F1800
G1 X60.113 Y51.33 E.44492
G1 X140.149 Y51.923 E7.74635
G1 X140.72 Y51.957 E7.79853
G1 X54.578 Y51.957 E15.65678
G1 X53.091 Y52.344 E15.79695
G1 X52.451 Y52.584 E15.8593
G1 X143.961 Y52.584 E24.20724
G1 X145.01 Y53.002 E24.31025
G1 X145.407 Y53.211 E24.35118
G1 X50.826 Y53.211 E32.97927
G1 X49.573 Y53.838 E33.10709
G1 X146.493 Y53.838 E41.94855
G1 X147.144 Y54.275 E42.02008
G1 X147.371 Y54.465 E42.04708
G1 X48.452 Y54.465 E51.0709
G1 X47.47 Y55.092 E51.17719
G1 X148.115 Y55.092 E60.35846
G1 X148.72 Y55.719 E60.43794
G1 X46.593 Y55.719 E69.75441
G1 X45.807 Y56.346 E69.84613
G1 X149.254 Y56.346 E79.28301
G1 X149.739 Y56.973 E79.35532
G1 X45.061 Y56.973 E88.9045
G1 X44.425 Y57.599 E88.98591
G1 X150.128 Y57.599 E98.6286
G1 X150.382 Y58.009 E98.6726
G1 X150.487 Y58.226 E98.69459
G1 X43.789 Y58.226 E108.42804
G1 X43.613 Y58.4 E108.45062
G1 X43.24 Y58.853 E108.50415
G1 X150.789 Y58.853 E118.31524
G1 X150.922 Y59.13 E118.34327
G1 X151.047 Y59.48 E118.37717
G1 X42.725 Y59.48 E128.25877
G1 X42.209 Y60.107 E128.33285
G1 X151.271 Y60.107 E138.28196
G1 X151.34 Y60.301 E138.30074
G1 X151.445 Y60.734 E138.34138
G1 X41.787 Y60.734 E148.34486
G1 X41.374 Y61.361 E148.41335
G1 X55.249 Y61.361 E149.67909
G1 X54.649 Y61.585 E149.73751
G1 X53.845 Y61.988 E149.81955
G1 X40.96 Y61.988 E150.99498
G1 X40.915 Y62.055 E151.00234
G1 X40.625 Y62.615 E151.05987
G1 X52.787 Y62.615 E152.16934
G1 X52.35 Y62.896 E152.21674
G1 X51.911 Y63.242 E152.26773
G1 X40.3 Y63.242 E153.32694
G1 X39.975 Y63.869 E153.39136
G1 X51.176 Y63.869 E154.41316
G1 X50.531 Y64.496 E154.49522
G1 X39.703 Y64.496 E155.483
G1 X39.457 Y65.122 E155.54436
G1 X49.994 Y65.122 E156.50559
G1 X49.596 Y65.604 E156.56261
G1 X49.499 Y65.749 E156.57852
G1 X39.211 Y65.749 E157.51704
G1 X39.037 Y66.191 E157.56037
G1 X38.986 Y66.376 E157.57788
G1 X49.084 Y66.376 E158.49906
G1 X48.869 Y66.7 E158.53453
G1 X48.711 Y67.003 E158.5657
G1 X38.813 Y67.003 E159.46864
G1 X38.64 Y67.63 E159.52797
G1 X48.385 Y67.63 E160.41695
G1 X48.262 Y67.866 E160.44123
G1 X48.108 Y68.257 E160.47957
G1 X38.467 Y68.257 E161.35906
G1 X38.349 Y68.884 E161.41726
G1 X47.861 Y68.884 E162.28499
G1 X47.78 Y69.089 E162.3051
G1 X47.663 Y69.511 E162.34505
G1 X38.245 Y69.511 E163.2042
G1 X38.141 Y70.138 E163.26218
G1 X47.488 Y70.138 E164.11485
G1 X47.445 Y70.291 E164.12935
G1 X47.366 Y70.765 E164.17319
G1 X38.052 Y70.765 E165.02285
G1 X38.014 Y71.392 E165.08015
G1 X47.262 Y71.392 E165.92379
G1 X47.208 Y71.718 E165.95393
G1 X47.19 Y72.018 E165.98135
G1 X37.977 Y72.018 E166.8218
G1 X37.939 Y72.645 E166.8791
G1 X47.153 Y72.645 E167.71964
G1 X47.132 Y73.272 E167.77687
G1 X37.919 Y73.272 E168.61732
G1 X37.915 Y73.899 E168.67452
G1 X47.128 Y73.899 E169.51497
G1 X47.123 Y74.526 E169.57217
G1 X37.91 Y74.526 E170.41262
G1 X37.905 Y75.153 E170.46982
G1 X47.118 Y75.153 E171.31027
G1 X47.114 Y75.78 E171.36747
G1 X37.901 Y75.78 E172.20792
G1 X37.896 Y76.407 E172.26512
G1 X47.109 Y76.407 E173.10557
G1 X47.104 Y77.034 E173.16277
G1 X37.891 Y77.034 E174.00322
G1 X37.887 Y77.661 E174.06042
G1 X47.1 Y77.661 E174.90087
G1 X47.095 Y78.288 E174.95807
G1 X37.882 Y78.288 E175.79852
G1 X37.877 Y78.915 E175.85572
G1 X47.091 Y78.915 E176.69626
G1 X47.086 Y79.541 E176.75337
G1 X37.873 Y79.541 E177.59382
G1 X37.868 Y80.168 E177.65102
G1 X47.081 Y80.168 E178.49147
G1 X47.077 Y80.795 E178.54867
G1 X37.863 Y80.795 E179.38921
G1 X37.859 Y81.422 E179.44641
G1 X47.072 Y81.422 E180.28686
G1 X47.067 Y82.049 E180.34406
G1 X37.854 Y82.049 E181.18451
G1 X37.85 Y82.676 E181.24171
G1 X47.063 Y82.676 E182.08216
G1 X47.058 Y83.303 E182.13936
G1 X37.845 Y83.303 E182.97981
G1 X37.844 Y83.93 E183.03701
G1 X47.053 Y83.93 E183.87709
G1 X47.004 Y84.557 E183.93446
G1 X37.891 Y84.557 E184.76579
G1 X37.943 Y84.888 E184.79636
G1 X38.023 Y85.184 E184.82433
G1 X46.871 Y85.184 E185.63148
G1 X46.799 Y85.434 E185.65521
G1 X46.646 Y85.811 E185.69233
G1 X38.245 Y85.811 E186.45871
G1 X38.592 Y86.438 E186.52408
G1 X46.304 Y86.438 E187.2276
G1 X46.092 Y86.745 E187.26163
G1 X45.816 Y87.064 E187.30011
G1 X39.073 Y87.064 E187.91524
G1 X39.44 Y87.419 E187.96182
