; generated by PrusaSlicer 2.6.1+linux-x64-GTK3 on 2023-10-25 at 00:02:50 UTC

; 

; external perimeters extrusion width = 0.45mm
; perimeters extrusion width = 0.45mm
; infill extrusion width = 0.45mm
; solid infill extrusion width = 0.45mm
; top infill extrusion width = 0.40mm
; first layer extrusion width = 0.70mm

;TYPE:Custom
; M190 R30 ; Because of probe temperature drift,
; M109 R30 ; Let the beds and hotend cool down before homing the axis

G28 ; home all axes
G1 Z100.0 F3000 ; Raise head above brush
M190 S65 ; set bed temperature and wait for it to be reached
M109 S230 ; set hot end temp and wait for it

; Brush any crap off the nozzle
G1 X232.0 Y0.0 F3000 ; Goto Start of movement
G1 Z19.0 F3000 ; Lower into brush
G1 X221.0 Y2.0 F3000 ; Goto Start of movement
G1 X229.0 Y4.0 F3000 ; 
G1 X221.0 Y6.0 F3000 ; 
G1 X229.0 Y8.0 F3000 ; 
G1 X221.0 Y10.0 F3000 ;
G1 X229.0 Y12.0 F3000 ;
G1 X221.0 Y14.0 F3000 ;
G1 X229.0 Y16.0 F3000 ;
G1 X221.0 Y18.0 F3000 ;
G1 X229.0 Y20.0 F3000 ;
G1 X221.0 Y22.0 F3000 ;
G1 X229.0 Y24.0 F3000 ;
G1 X221.0 Y26.0 F3000 ;
G1 X229.0 Y28.0 F3000 ;
G1 X221.0 Y30.0 F3000 ;
G1 X229.0 Y28.0 F3000 ;
G1 X221.0 Y26.0 F3000 ;
G1 X229.0 Y24.0 F3000 ;
G1 X221.0 Y22.0 F3000 ;
G1 X229.0 Y20.0 F3000 ;
G1 X221.0 Y18.0 F3000 ;
G1 X229.0 Y16.0 F3000 ;
G1 X221.0 Y14.0 F3000 ;
G1 X229.0 Y12.0 F3000 ;
G1 X221.0 Y10.0 F3000 ;
G1 X229.0 Y8.0 F3000 ; 
G1 X221.0 Y6.0 F3000 ; 
G1 X229.0 Y4.0 F3000 ; 
G1 X221.0 Y2.0 F3000 ; 
G1 X229.0 Y0.0 F3000 ; 
G1 X225.0 Y0.0 F3000 ; 
G1 X225.0 Y30.0 F5000 ; 
G1 X225.0 Y0.0 F5000 ; 
G1 X225.0 Y30.0 F5000 ; 
G1 X225.0 Y0.0 F5000 ; 
G1 X225.0 Y30.0 F5000 ; 

; Do a purge line to prime the extruder
G92 E0 ;Reset Extruder
G1 X227.0 Y80.0 F5000 ; Goto Start of purge
G1 Z0.28 F5000 ;Move Head to start height
G1 X227.0 Y230.0 Z0.28 F1500.0 E15; Draw first line
G1 X226.7 Y230.0 Z0.28 F5000.0 ;Move to side a little
G1 X226.7 Y80.0 Z0.28 F1500.0 E30; Draw the second line
G1 Z0.4 F5000; Move Z Axis Up
G1 Y120 F1500; Wipe to the back
G1 X117.5 Y117.5 Z27.0 F5000 ; Raise head above brush
G92 E0 ;Reset Extruder
G21 ; set units to millimeters
G90 ; use absolute coordinates
M82 ; use absolute distances for extrusion
G92 E0
; Filament gcode
SET_PRESSURE_ADVANCE ADVANCE=0.063
M107
;LAYER_CHANGE
;Z:0.35
;HEIGHT:0.35
G1 Z.35 F30000
G1 E-.1 F2400
G92 E0
G1 X107.984 Y128.703 F30000
G1 E.1 F2400
;TYPE:Perimeter
;WIDTH:0.7
G1 F1800
G1 X106.829 Y127.608 E.24472
G1 X105.798 Y126.395 E.38948
G1 X104.905 Y125.078 E.53417
G1 X104.16 Y123.672 E.67886
G1 X103.571 Y122.193 E.82362
G1 X103.145 Y120.66 E.9683
G1 X102.887 Y119.089 E1.11306
G1 X102.801 Y117.5 E1.25776
G1 X102.887 Y115.911 E1.40246
G1 X103.145 Y114.34 E1.54722
G1 X103.571 Y112.807 E1.6919
G1 X104.16 Y111.328 E1.83666
G1 X104.905 Y109.922 E1.98135
G1 X105.798 Y108.605 E2.12604
G1 X106.829 Y107.392 E2.2708
G1 X107.984 Y106.297 E2.41552
G1 X109.251 Y105.334 E2.56023
G1 X110.615 Y104.514 E2.70495
G1 X112.059 Y103.845 E2.84966
G1 X113.568 Y103.337 E2.99444
G1 X115.122 Y102.995 E3.13913
G1 X116.704 Y102.823 E3.28383
G1 X118.296 Y102.823 E3.42859
G1 X119.878 Y102.995 E3.57329
G1 X121.432 Y103.337 E3.71798
G1 X122.941 Y103.845 E3.86276
G1 X124.385 Y104.514 E4.00747
G1 X125.749 Y105.334 E4.15219
G1 X127.016 Y106.297 E4.2969
G1 X128.171 Y107.392 E4.44162
G1 X129.202 Y108.605 E4.58638
G1 X130.095 Y109.922 E4.73107
G1 X130.84 Y111.328 E4.87576
G1 X131.429 Y112.807 E5.02052
G1 X131.855 Y114.34 E5.1652
G1 X132.113 Y115.911 E5.30996
G1 X132.199 Y117.5 E5.45466
G1 X132.113 Y119.089 E5.59936
G1 X131.855 Y120.66 E5.74412
G1 X131.429 Y122.193 E5.8888
G1 X130.84 Y123.672 E6.03356
G1 X130.095 Y125.078 E6.17825
G1 X129.202 Y126.395 E6.32294
G1 X128.171 Y127.608 E6.4677
G1 X127.016 Y128.703 E6.61242
G1 X125.749 Y129.666 E6.75713
G1 X124.385 Y130.486 E6.90185
G1 X122.941 Y131.155 E7.04656
G1 X121.432 Y131.663 E7.19134
G1 X119.878 Y132.005 E7.33603
G1 X118.296 Y132.177 E7.48073
G1 X116.704 Y132.177 E7.62549
G1 X115.122 Y132.005 E7.77019
G1 X113.568 Y131.663 E7.91488
G1 X112.059 Y131.155 E8.05966
G1 X110.615 Y130.486 E8.20437
G1 X109.251 Y129.666 E8.34909
G1 X108.032 Y128.739 E8.48834
G1 X107.579 Y129.18 F30000
;TYPE:External perimeter
G1 F1800
G1 X106.374 Y128.039 E8.63924
G1 X105.3 Y126.774 E8.79013
G1 X104.369 Y125.401 E8.94097
G1 X103.592 Y123.935 E9.09184
G1 X102.978 Y122.393 E9.24276
G1 X102.534 Y120.794 E9.39366
G1 X102.265 Y119.157 E9.54451
G1 X102.176 Y117.5 E9.6954
G1 X102.265 Y115.843 E9.84629
G1 X102.534 Y114.206 E9.99714
G1 X102.978 Y112.607 E10.14804
G1 X103.592 Y111.065 E10.29896
G1 X104.369 Y109.599 E10.44983
G1 X105.3 Y108.226 E10.60067
G1 X106.374 Y106.961 E10.75156
G1 X107.579 Y105.82 E10.90246
G1 X108.9 Y104.816 E11.05333
G1 X110.322 Y103.961 E11.2042
G1 X111.828 Y103.264 E11.35509
G1 X113.4 Y102.734 E11.50594
G1 X115.021 Y102.377 E11.65687
G1 X116.67 Y102.198 E11.80769
G1 X118.33 Y102.198 E11.95863
G1 X119.979 Y102.377 E12.10945
G1 X121.6 Y102.734 E12.26038
G1 X123.172 Y103.264 E12.41123
G1 X124.678 Y103.961 E12.56212
G1 X126.1 Y104.816 E12.71299
G1 X127.421 Y105.82 E12.86386
G1 X128.626 Y106.961 E13.01476
G1 X129.7 Y108.226 E13.16565
G1 X130.631 Y109.599 E13.31649
G1 X131.408 Y111.065 E13.46736
G1 X132.022 Y112.607 E13.61828
G1 X132.466 Y114.206 E13.76918
G1 X132.735 Y115.843 E13.92003
G1 X132.824 Y117.5 E14.07092
G1 X132.735 Y119.157 E14.22181
G1 X132.466 Y120.794 E14.37266
G1 X132.022 Y122.393 E14.52356
G1 X131.408 Y123.935 E14.67448
G1 X130.631 Y125.401 E14.82535
G1 X129.7 Y126.774 E14.97619
G1 X128.626 Y128.039 E15.12708
G1 X127.421 Y129.18 E15.27798
G1 X126.1 Y130.184 E15.42885
G1 X124.678 Y131.039 E15.57972
G1 X123.172 Y131.736 E15.73061
G1 X121.6 Y132.266 E15.88146
G1 X119.979 Y132.623 E16.03239
G1 X118.33 Y132.802 E16.18321
G1 X116.67 Y132.802 E16.33415
G1 X115.021 Y132.623 E16.48497
G1 X113.4 Y132.266 E16.6359
G1 X111.828 Y131.736 E16.78675
G1 X110.322 Y131.039 E16.93764
G1 X108.9 Y130.184 E17.08851
G1 X107.627 Y129.216 E17.23393
G1 X107.651 Y128.786 F30000
G1 E17.13393 F2400
G92 E0
G1 X120.368 Y103.295 F30000
G1 E.1 F2400
;TYPE:Solid infill
;WIDTH:0.706454
G1 F1800
G1 X116.7 Y103.295 E.43697
G1 X115.198 Y103.458 E.57577
G1 X113.693 Y103.789 E.71734
G1 X113.287 Y103.926 E.7567
G1 X121.713 Y103.926 E1.53079
G1 X122.767 Y104.281 E1.63296
G1 X123.364 Y104.558 E1.69342
G1 X111.636 Y104.558 E2.77086
G1 X110.835 Y104.928 E2.85192
G1 X110.402 Y105.189 E2.89837
G1 X124.598 Y105.189 E4.20254
G1 X125.485 Y105.723 E4.29766
G1 X125.614 Y105.82 E4.31249
G1 X109.386 Y105.82 E5.80333
G1 X108.556 Y106.452 E5.89917
G1 X126.444 Y106.452 E7.54252
G1 X126.712 Y106.655 E7.57341
G1 X127.164 Y107.083 E7.6306
G1 X107.836 Y107.083 E9.40624
G1 X107.17 Y107.714 E9.49053
G1 X127.83 Y107.714 E11.38854
G1 X128.366 Y108.346 E11.46467
G1 X106.634 Y108.346 E13.46116
G1 X106.112 Y108.977 E13.53639
G1 X128.888 Y108.977 E15.62879
G1 X129.316 Y109.608 E15.69884
G1 X105.684 Y109.608 E17.86988
G1 X105.267 Y110.24 E17.93944
G1 X129.733 Y110.24 E20.1871
G1 X130.067 Y110.871 E20.25269
G1 X104.933 Y110.871 E22.56172
G1 X104.598 Y111.502 E22.62735
G1 X130.402 Y111.502 E24.99793
G1 X130.657 Y112.134 E25.06054
G1 X104.343 Y112.134 E27.47797
G1 X104.092 Y112.765 E27.54036
G1 X130.908 Y112.765 E30.00391
G1 X130.984 Y112.957 E30.02288
G1 X131.107 Y113.396 E30.06476
G1 X103.893 Y113.396 E32.56487
G1 X103.718 Y114.028 E32.62512
G1 X131.282 Y114.028 E35.15739
G1 X131.397 Y114.441 E35.19678
G1 X131.432 Y114.659 E35.21706
G1 X103.568 Y114.659 E37.77689
G1 X103.464 Y115.29 E37.83564
G1 X131.536 Y115.29 E40.41458
G1 X131.639 Y115.922 E40.47341
G1 X103.361 Y115.922 E43.07127
G1 X103.322 Y116.553 E43.12935
G1 X131.678 Y116.553 E45.73438
G1 X131.712 Y117.184 E45.79243
G1 X103.288 Y117.184 E48.4037
G1 X103.271 Y117.5 E48.43277
G1 X103.288 Y117.816 E48.46184
G1 X131.712 Y117.816 E51.07311
G1 X131.678 Y118.447 E51.13116
G1 X103.322 Y118.447 E53.73619
G1 X103.361 Y119.078 E53.79427
G1 X131.639 Y119.078 E56.39213
G1 X131.536 Y119.71 E56.45096
G1 X103.464 Y119.71 E59.0299
G1 X103.568 Y120.341 E59.08865
G1 X131.432 Y120.341 E61.64848
G1 X131.397 Y120.559 E61.66876
G1 X131.282 Y120.972 E61.70815
G1 X103.718 Y120.972 E64.24042
G1 X103.893 Y121.604 E64.30067
G1 X131.107 Y121.604 E66.80078
G1 X130.984 Y122.043 E66.84266
G1 X130.908 Y122.235 E66.86163
G1 X104.092 Y122.235 E69.32518
G1 X104.343 Y122.866 E69.38757
G1 X130.657 Y122.866 E71.805
G1 X130.402 Y123.498 E71.86761
G1 X104.598 Y123.498 E74.23819
G1 X104.933 Y124.129 E74.30382
G1 X130.067 Y124.129 E76.61285
G1 X129.733 Y124.76 E76.67844
G1 X105.267 Y124.76 E78.9261
G1 X105.684 Y125.392 E78.99566
G1 X129.316 Y125.392 E81.1667
G1 X128.888 Y126.023 E81.23675
G1 X106.112 Y126.023 E83.32915
G1 X106.634 Y126.655 E83.40445
G1 X128.366 Y126.655 E85.40094
G1 X127.83 Y127.286 E85.477
G1 X107.17 Y127.286 E87.37501
G1 X107.836 Y127.917 E87.4593
G1 X127.164 Y127.917 E89.23494
G1 X126.712 Y128.345 E89.29213
G1 X126.444 Y128.549 E89.32307
G1 X108.556 Y128.549 E90.96642
G1 X109.386 Y129.18 E91.0622
G1 X125.614 Y129.18 E92.55304
G1 X125.485 Y129.277 E92.56787
G1 X124.598 Y129.811 E92.66299
G1 X110.402 Y129.811 E93.96716
G1 X110.835 Y130.072 E94.01361
G1 X111.636 Y130.443 E94.09471
G1 X123.364 Y130.443 E95.17215
G1 X122.767 Y130.719 E95.23257
G1 X121.713 Y131.074 E95.33474
G1 X113.287 Y131.074 E96.10883
G1 X113.693 Y131.211 E96.14819
G1 X115.198 Y131.542 E96.28976
G1 X116.7 Y131.705 E96.42856
G1 X120.368 Y131.705 E96.76553
M106 S51
;LAYER_CHANGE
;Z:0.65
;HEIGHT:0.3
G1 Z.65 F30000
M104 S225 ; set temperature
M140 S60 ; set bed temperature
G1 E96.66553 F2400
G92 E0
G1 X107.538 Y129.229 F30000
G1 E.1 F2400
;TYPE:Perimeter
;WIDTH:0.45
G1 F10372.933
G1 X106.328 Y128.083 E.18016
G1 X105.249 Y126.813 E.26031
G1 X104.314 Y125.434 E.34044
G1 X103.534 Y123.961 E.42061
G1 X102.917 Y122.414 E.50071
G1 X102.471 Y120.808 E.58088
G1 X102.202 Y119.164 E.661
G1 X102.112 Y117.5 E.74115
G1 X102.202 Y115.836 E.8213
G1 X102.471 Y114.192 E.90142
G1 X102.917 Y112.586 E.98159
G1 X103.534 Y111.039 E1.06169
G1 X104.314 Y109.566 E1.14186
G1 X105.249 Y108.187 E1.22199
G1 X106.328 Y106.917 E1.30214
G1 X107.538 Y105.771 E1.3823
G1 X108.864 Y104.763 E1.46241
G1 X110.292 Y103.904 E1.54256
G1 X111.804 Y103.204 E1.6227
G1 X113.383 Y102.672 E1.70284
G1 X115.01 Y102.314 E1.78297
G1 X116.667 Y102.134 E1.86313
G1 X118.333 Y102.134 E1.94326
G1 X119.99 Y102.314 E2.02342
G1 X121.617 Y102.672 E2.10355
G1 X123.196 Y103.204 E2.18369
G1 X124.708 Y103.904 E2.26383
G1 X126.136 Y104.763 E2.34398
G1 X127.462 Y105.771 E2.42409
G1 X128.672 Y106.917 E2.50425
G1 X129.751 Y108.187 E2.5844
G1 X130.686 Y109.566 E2.66453
G1 X131.466 Y111.039 E2.7447
G1 X132.083 Y112.586 E2.8248
G1 X132.529 Y114.192 E2.90497
G1 X132.798 Y115.836 E2.98509
G1 X132.888 Y117.5 E3.06524
G1 X132.798 Y119.164 E3.14539
G1 X132.529 Y120.808 E3.22551
G1 X132.083 Y122.414 E3.30568
G1 X131.466 Y123.961 E3.38578
G1 X130.686 Y125.434 E3.46595
G1 X129.751 Y126.813 E3.54608
G1 X128.672 Y128.083 E3.62623
G1 X127.462 Y129.229 E3.70639
G1 X126.136 Y130.237 E3.7865
G1 X124.708 Y131.096 E3.86665
G1 X123.196 Y131.796 E3.94679
G1 X121.617 Y132.328 E4.02693
G1 X119.99 Y132.686 E4.10706
G1 X118.333 Y132.866 E4.18722
G1 X116.667 Y132.866 E4.26735
G1 X115.01 Y132.686 E4.34751
G1 X113.383 Y132.328 E4.42764
G1 X111.804 Y131.796 E4.50778
G1 X110.292 Y131.096 E4.58792
G1 X108.864 Y130.237 E4.66807
G1 X107.585 Y129.265 E4.74533
G1 X107.288 Y129.523 F30000
;TYPE:External perimeter
G1 F6000
G1 X106.048 Y128.348 E4.82749
G1 X104.942 Y127.046 E4.90966
G1 X103.983 Y125.633 E4.99179
G1 X103.183 Y124.124 E5.07394
G1 X102.551 Y122.537 E5.1561
G1 X102.094 Y120.891 E5.23826
G1 X101.818 Y119.206 E5.32038
G1 X101.725 Y117.5 E5.40255
G1 X101.818 Y115.794 E5.48472
G1 X102.094 Y114.109 E5.56684
G1 X102.551 Y112.463 E5.649
G1 X103.183 Y110.876 E5.73116
G1 X103.983 Y109.367 E5.81331
G1 X104.942 Y107.954 E5.89544
G1 X106.048 Y106.652 E5.97761
G1 X107.288 Y105.477 E6.05977
G1 X108.647 Y104.443 E6.1419
G1 X110.111 Y103.563 E6.22405
G1 X111.661 Y102.846 E6.30619
G1 X113.28 Y102.3 E6.38837
G1 X114.948 Y101.933 E6.47051
G1 X116.646 Y101.748 E6.55266
G1 X118.354 Y101.748 E6.63481
G1 X120.052 Y101.933 E6.71696
G1 X121.72 Y102.3 E6.7991
G1 X123.339 Y102.846 E6.88128
G1 X124.889 Y103.563 E6.96342
G1 X126.353 Y104.443 E7.04557
G1 X127.712 Y105.477 E7.1277
G1 X128.952 Y106.652 E7.20986
G1 X130.058 Y107.954 E7.29203
G1 X131.017 Y109.367 E7.37416
G1 X131.817 Y110.876 E7.45631
G1 X132.449 Y112.463 E7.53847
G1 X132.906 Y114.109 E7.62063
G1 X133.182 Y115.794 E7.70275
G1 X133.275 Y117.5 E7.78492
G1 X133.182 Y119.206 E7.86709
G1 X132.906 Y120.891 E7.94921
G1 X132.449 Y122.537 E8.03137
G1 X131.817 Y124.124 E8.11353
G1 X131.017 Y125.633 E8.19568
G1 X130.058 Y127.046 E8.27781
G1 X128.952 Y128.348 E8.35998
G1 X127.712 Y129.523 E8.44214
G1 X126.353 Y130.557 E8.52427
G1 X124.889 Y131.437 E8.60642
G1 X123.339 Y132.154 E8.68856
G1 X121.72 Y132.7 E8.77074
G1 X120.052 Y133.067 E8.85288
G1 X118.354 Y133.252 E8.93503
G1 X116.646 Y133.252 E9.01718
G1 X114.948 Y133.067 E9.09933
G1 X113.28 Y132.7 E9.18147
G1 X111.661 Y132.154 E9.26365
G1 X110.111 Y131.437 E9.34579
G1 X108.647 Y130.557 E9.42794
G1 X107.335 Y129.559 E9.50722
G1 X107.36 Y129.129 F30000
G1 E9.40722 F2400
G92 E0
G1 X102.349 Y115.853 F30000
G1 E.1 F2400
;TYPE:Solid infill
;WIDTH:0.404381
G1 F7920
G1 X102.305 Y117.5 E.16987
G1 X102.349 Y119.147 E.23974
G1 X102.675 Y120.762 F30000
G1 F7920
G1 X102.623 Y120.124 E.26689
;WIDTH:0.45
G1 X102.594 Y119.767 E.28412
G1 X102.594 Y115.233 E.50219
G1 X102.623 Y114.876 E.51942
;WIDTH:0.404381
G1 X102.675 Y114.237 E.54661
G1 X102.979 Y113.443 F30000
;WIDTH:0.45
G1 F7920
G1 X102.979 Y121.557 E.93687
G1 X103.068 Y121.896 E.95373
;WIDTH:0.404381
G1 X103.047 Y121.933 E.95553
G1 X102.983 Y121.896 E.95866
G1 X103.047 Y121.859 E.96179
G1 X103.45 Y123.041 F30000
G1 F7920
G1 X103.387 Y123.078 E.96489
G1 X103.45 Y123.115 E.96799
G1 X103.472 Y123.078 E.96982
;WIDTH:0.45
G1 X103.365 Y122.756 E.98614
G1 X103.365 Y112.244 E1.49173
G1 X103.751 Y111.276 F30000
G1 F7920
G1 X103.751 Y123.724 E2.09044
G1 X103.867 Y124.036 E2.10645
;WIDTH:0.404381
G1 X103.845 Y124.073 E2.10828
G1 X103.782 Y124.036 E2.11138
G1 X103.845 Y123.999 E2.11448
G1 X104.237 Y124.75 F30000
G1 F7920
G1 X104.173 Y124.787 E2.11761
G1 X104.237 Y124.823 E2.12072
G1 X104.258 Y124.787 E2.12249
;WIDTH:0.45
G1 X104.136 Y124.48 E2.13838
G1 X104.136 Y110.52 E2.80981
G1 X104.522 Y109.792 F30000
G1 F7920
G1 X104.522 Y125.208 E3.55127
G1 X104.907 Y125.793 E3.58495
G1 X104.907 Y109.207 E4.38268
G1 X105.293 Y108.638 E4.41575
G1 X105.293 Y126.362 E5.26821
G1 X105.679 Y126.871 E5.29893
G1 X105.679 Y108.129 E6.20036
G1 X106.064 Y107.675 E6.22899
G1 X106.064 Y127.325 E7.17409
G1 X106.45 Y127.779 E7.20275
G1 X106.45 Y107.221 E8.19152
G1 X106.835 Y106.835 E8.21774
G1 X106.835 Y128.165 E9.24364
G1 X107.221 Y128.53 E9.26919
G1 X107.221 Y106.47 E10.3302
G1 X107.607 Y106.104 E10.35578
G1 X107.607 Y128.896 E11.452
G1 X107.992 Y129.211 E11.47593
G1 X107.992 Y105.789 E12.60245
G1 X108.378 Y105.496 E12.62576
G1 X108.378 Y129.504 E13.78046
G1 X108.764 Y129.797 E13.80377
G1 X108.764 Y105.203 E14.98666
G1 X109.149 Y104.929 E15.00939
G1 X109.149 Y130.071 E16.21863
G1 X109.535 Y130.303 E16.24029
G1 X109.535 Y104.697 E17.47185
G1 X109.92 Y104.465 E17.49347
G1 X109.92 Y130.535 E18.74735
G1 X110.306 Y130.767 E18.76901
G1 X110.306 Y104.233 E20.0452
G1 X110.692 Y104.038 E20.066
G1 X110.692 Y130.962 E21.36095
G1 X111.077 Y131.141 E21.38137
G1 X111.077 Y103.859 E22.69354
G1 X111.463 Y103.681 E22.71398
G1 X111.463 Y131.319 E24.04327
G1 X111.849 Y131.497 E24.06371
G1 X111.849 Y103.503 E25.41012
G1 X112.234 Y103.365 E25.42979
G1 X112.234 Y131.635 E26.78948
G1 X112.62 Y131.765 E26.80907
G1 X112.62 Y103.235 E28.18126
G1 X113.005 Y103.105 E28.2008
G1 X113.005 Y131.895 E29.5855
G1 X113.391 Y132.025 E29.60509
G1 X113.391 Y102.975 E31.00229
G1 X113.777 Y102.882 E31.02139
G1 X113.777 Y132.118 E32.42754
G1 X114.162 Y132.203 E32.4465
G1 X114.162 Y102.797 E33.86083
G1 X114.548 Y102.712 E33.87984
G1 X114.548 Y132.288 E35.30234
G1 X114.933 Y132.373 E35.3213
G1 X114.933 Y102.627 E36.75198
