; generated by PrusaSlicer 2.6.1+linux-x64-GTK3 on 2023-10-08 at 22:10:22 UTC

; 

; external perimeters extrusion width = 0.45mm
; perimeters extrusion width = 0.45mm
; infill extrusion width = 0.45mm
; solid infill extrusion width = 0.45mm
; top infill extrusion width = 0.40mm
; first layer extrusion width = 0.70mm

;TYPE:Custom
; M190 R30 ; Because of probe temperature drift,
; M109 R30 ; Let the beds and hotend cool down before homing the axis
G28 ; home all axes
G1 Z5 F5000 ; lift nozzle
M190 S65 ; set bed temperature and wait for it to be reached
M109 S205 ; set hot end temp and wait for it
G21 ; set units to millimeters
G90 ; use absolute coordinates
M82 ; use absolute distances for extrusion
G92 E0
; Filament gcode
M107
;LAYER_CHANGE
;Z:0.35
;HEIGHT:0.35
G1 Z.35 F30000
G1 E-.1 F2400
G92 E0
G1 X223.948 Y119.328 F30000
G1 E.1 F2400
;TYPE:Perimeter
;WIDTH:0.7
G1 F1800
G1 X223.787 Y119.025 E.1312
G1 X223.475 Y118.713 E.17132
G1 X223.086 Y118.5 E.21165
G1 X222.538 Y118.4 E.2623
G1 X209.1 Y118.4 E1.48421
G1 X209.1 Y116.6 E1.64788
G1 X222.538 Y116.6 E2.86979
G1 X223.086 Y116.5 E2.92044
G1 X223.475 Y116.287 E2.96077
G1 X223.787 Y115.975 E3.00089
G1 X224.015 Y115.544 E3.04523
G1 X224.1 Y115.038 E3.09188
G1 X224.1 Y99.1 E4.54111
G1 X225.9 Y99.1 E4.70478
G1 X225.9 Y135.9 E8.05099
G1 X224.1 Y135.9 E8.21466
G1 X224.1 Y119.962 E9.66389
G1 X224.015 Y119.456 E9.71054
G1 X223.976 Y119.381 E9.71823
G1 X223.39 Y119.595 F30000
G1 F1800
G1 X223.287 Y119.4 E9.73828
G1 X223.1 Y119.213 E9.76233
G1 X222.867 Y119.085 E9.7865
G1 X222.538 Y119.025 E9.81691
G1 X208.475 Y119.025 E11.09565
G1 X208.475 Y115.975 E11.37299
G1 X222.538 Y115.975 E12.65173
G1 X222.867 Y115.915 E12.68214
G1 X223.1 Y115.787 E12.70631
G1 X223.287 Y115.6 E12.73036
G1 X223.424 Y115.342 E12.75692
G1 X223.475 Y115.038 E12.78495
G1 X223.475 Y98.475 E14.29102
G1 X226.525 Y98.475 E14.56836
G1 X226.525 Y136.525 E18.02823
G1 X223.475 Y136.525 E18.30557
G1 X223.475 Y119.962 E19.81164
G1 X223.419 Y119.648 E19.84064
G1 X222.833 Y119.861 F30000
;TYPE:External perimeter
G1 F1800
G1 X222.725 Y119.712 E19.85737
G1 X222.538 Y119.65 E19.87528
G1 X207.85 Y119.65 E21.21085
G1 X207.85 Y115.35 E21.60185
G1 X222.538 Y115.35 E22.93742
G1 X222.647 Y115.33 E22.9475
G1 X222.788 Y115.225 E22.96349
G1 X222.85 Y115.038 E22.9814
G1 X222.85 Y97.85 E24.5443
G1 X227.15 Y97.85 E24.9353
G1 X227.15 Y137.15 E28.50883
G1 X222.85 Y137.15 E28.89983
G1 X222.843 Y119.92 E30.46655
G1 X222.929 Y119.704 F30000
G1 E30.36655 F2400
G92 E0
G1 X225.713 Y100.581 F30000
G1 E.1 F2400
;TYPE:Solid infill
;WIDTH:0.71447
G1 F1800
G1 X224.7 Y99.568 E.23328
G1 X224.568 Y99.568 E.24556
G1 X224.568 Y100.341 E.31748
G1 X225.432 Y101.204 E.43109
G1 X225.432 Y102.108 E.51519
G1 X224.568 Y101.245 E.6288
G1 X224.568 Y102.149 E.7129
G1 X225.432 Y103.012 E.82651
G1 X225.432 Y103.917 E.91071
G1 X224.568 Y103.054 E1.02432
G1 X224.568 Y103.958 E1.10842
G1 X225.432 Y104.821 E1.22203
G1 X225.432 Y105.725 E1.30613
G1 X224.568 Y104.862 E1.41974
G1 X224.568 Y105.766 E1.50384
G1 X225.432 Y106.629 E1.61745
G1 X225.432 Y107.533 E1.70155
G1 X224.568 Y106.67 E1.81516
G1 X224.568 Y107.574 E1.89926
G1 X225.432 Y108.438 E2.01294
G1 X225.432 Y109.342 E2.09704
G1 X224.568 Y108.479 E2.21065
G1 X224.568 Y109.383 E2.29475
G1 X225.432 Y110.246 E2.40836
G1 X225.432 Y111.15 E2.49246
G1 X224.568 Y110.287 E2.60607
G1 X224.568 Y111.191 E2.69017
G1 X225.432 Y112.054 E2.80378
G1 X225.432 Y112.959 E2.88798
G1 X224.568 Y112.095 E3.00166
G1 X224.568 Y113 E3.08586
G1 X225.432 Y113.863 E3.19947
G1 X225.432 Y114.767 E3.28357
G1 X224.568 Y113.904 E3.39718
G1 X224.568 Y114.808 E3.48128
G1 X225.432 Y115.671 E3.59489
G1 X225.432 Y116.575 E3.67899
G1 X224.478 Y115.622 E3.80444
G1 X224.458 Y115.702 E3.81211
G1 X224.18 Y116.227 E3.86738
G1 X225.432 Y117.48 E4.03217
G1 X225.432 Y118.384 E4.11627
G1 X223.728 Y116.68 E4.34047
G1 X223.249 Y116.942 E4.39126
G1 X223.111 Y116.967 E4.40431
G1 X225.432 Y119.288 E4.70969
G1 X225.432 Y120.192 E4.79379
G1 X222.027 Y116.787 E5.24179
G1 X222.553 Y118.218 F30000
G1 F1800
G1 X221.404 Y117.068 E5.39303
G1 X220.5 Y117.068 E5.47713
G1 X221.363 Y117.932 E5.59074
G1 X220.458 Y117.932 E5.67494
G1 X219.595 Y117.068 E5.78855
G1 X218.691 Y117.068 E5.87265
G1 X219.554 Y117.932 E5.98626
G1 X218.65 Y117.932 E6.07036
G1 X217.787 Y117.068 E6.18397
G1 X216.883 Y117.068 E6.26807
G1 X217.746 Y117.932 E6.38168
G1 X216.842 Y117.932 E6.46578
G1 X215.979 Y117.068 E6.57939
G1 X215.074 Y117.068 E6.66359
G1 X215.938 Y117.932 E6.77727
G1 X215.033 Y117.932 E6.86147
G1 X214.17 Y117.068 E6.97508
G1 X213.266 Y117.068 E7.05918
G1 X214.129 Y117.932 E7.17279
G1 X213.225 Y117.932 E7.25689
G1 X212.362 Y117.068 E7.3705
G1 X211.458 Y117.068 E7.4546
G1 X212.321 Y117.932 E7.56821
G1 X211.417 Y117.932 E7.65231
G1 X210.553 Y117.068 E7.76599
G1 X209.649 Y117.068 E7.85009
G1 X210.512 Y117.932 E7.9637
G1 X209.608 Y117.932 E8.0478
G1 X209.287 Y117.611 E8.09003
G1 E7.99003 F2400
G92 E0
G1 X224.283 Y119.948 F30000
G1 E.1 F2400
G1 F1800
G1 X225.432 Y121.096 E.25111
G1 X225.432 Y122 E.33521
G1 X224.568 Y121.137 E.44882
G1 X224.568 Y122.042 E.53302
G1 X225.432 Y122.905 E.64663
G1 X225.432 Y123.809 E.73073
G1 X224.568 Y122.946 E.84434
G1 X224.568 Y123.85 E.92844
G1 X225.432 Y124.713 E1.04205
G1 X225.432 Y125.617 E1.12615
G1 X224.568 Y124.754 E1.23976
G1 X224.568 Y125.658 E1.32386
G1 X225.432 Y126.521 E1.43747
G1 X225.432 Y127.426 E1.52167
G1 X224.568 Y126.562 E1.63535
G1 X224.568 Y127.467 E1.71955
G1 X225.432 Y128.33 E1.83316
G1 X225.432 Y129.234 E1.91726
G1 X224.568 Y128.371 E2.03087
G1 X224.568 Y129.275 E2.11497
G1 X225.432 Y130.138 E2.22858
G1 X225.432 Y131.042 E2.31268
G1 X224.568 Y130.179 E2.42629
G1 X224.568 Y131.083 E2.51039
G1 X225.432 Y131.947 E2.62407
G1 X225.432 Y132.851 E2.70817
G1 X224.568 Y131.988 E2.82178
G1 X224.568 Y132.892 E2.90588
G1 X225.432 Y133.755 E3.01949
G1 X225.432 Y134.659 E3.10359
G1 X224.568 Y133.796 E3.2172
G1 X224.568 Y134.7 E3.3013
G1 X225.581 Y135.713 E3.43458
G1 E3.33458 F2400
G92 E0
G1 X119.108 Y223.831 F30000
G1 E.1 F2400
;TYPE:Perimeter
;WIDTH:0.7
G1 F1800
G1 X119.456 Y224.015 E.13579
G1 X119.962 Y224.1 E.18244
G1 X135.9 Y224.1 E1.63167
G1 X135.9 Y225.9 E1.79534
G1 X99.1 Y225.9 E5.14155
G1 X99.1 Y224.1 E5.30522
G1 X115.038 Y224.1 E6.75445
G1 X115.544 Y224.015 E6.8011
G1 X115.975 Y223.787 E6.84544
G1 X116.287 Y223.475 E6.88556
G1 X116.5 Y223.086 E6.92589
G1 X116.6 Y222.538 E6.97654
G1 X116.6 Y209.1 E8.19845
G1 X118.4 Y209.1 E8.36212
G1 X118.4 Y222.538 E9.58403
G1 X118.5 Y223.086 E9.63468
G1 X118.713 Y223.475 E9.67501
G1 X119.055 Y223.803 E9.7181
G1 X119.442 Y223.309 F30000
G1 F1800
G1 X119.658 Y223.424 E9.74035
G1 X119.962 Y223.475 E9.76838
G1 X136.525 Y223.475 E11.27445
G1 X136.525 Y226.525 E11.55179
G1 X98.475 Y226.525 E15.01166
G1 X98.475 Y223.475 E15.289
G1 X115.038 Y223.475 E16.79507
G1 X115.2 Y223.461 E16.80986
G1 X115.6 Y223.287 E16.84952
G1 X115.787 Y223.1 E16.87357
G1 X115.915 Y222.867 E16.89774
G1 X115.975 Y222.538 E16.92815
G1 X115.975 Y208.475 E18.20689
G1 X119.025 Y208.475 E18.48423
G1 X119.025 Y222.538 E19.76297
G1 X119.085 Y222.867 E19.79338
G1 X119.213 Y223.1 E19.81755
G1 X119.391 Y223.278 E19.84044
G1 X119.775 Y222.788 F30000
;TYPE:External perimeter
G1 F1800
G1 X119.962 Y222.85 E19.85835
G1 X137.15 Y222.85 E21.42125
G1 X137.15 Y227.15 E21.81225
G1 X97.85 Y227.15 E25.38578
G1 X97.85 Y222.85 E25.77678
G1 X115.038 Y222.85 E27.33968
G1 X115.139 Y222.833 E27.34899
G1 X115.288 Y222.725 E27.36572
G1 X115.35 Y222.538 E27.38363
G1 X115.35 Y207.85 E28.7192
G1 X119.65 Y207.85 E29.1102
G1 X119.65 Y222.538 E30.44577
G1 X119.67 Y222.647 E30.45585
G1 X119.739 Y222.739 E30.46631
G1 X119.763 Y222.985 F30000
G1 E30.36631 F2400
G92 E0
G1 X135.713 Y225.581 F30000
G1 E.1 F2400
;TYPE:Solid infill
;WIDTH:0.71447
G1 F1800
G1 X134.7 Y224.568 E.23328
G1 X133.796 Y224.568 E.31738
G1 X134.659 Y225.432 E.43099
G1 X133.755 Y225.432 E.51509
G1 X132.892 Y224.568 E.6287
G1 X131.988 Y224.568 E.7128
G1 X132.851 Y225.432 E.82641
G1 X131.946 Y225.432 E.91061
G1 X131.083 Y224.568 E1.02422
G1 X130.179 Y224.568 E1.10832
G1 X131.042 Y225.432 E1.22193
G1 X130.138 Y225.432 E1.30603
G1 X129.275 Y224.568 E1.41964
G1 X128.371 Y224.568 E1.50374
G1 X129.234 Y225.432 E1.61735
G1 X128.33 Y225.432 E1.70145
G1 X127.467 Y224.568 E1.81506
G1 X126.562 Y224.568 E1.89926
G1 X127.426 Y225.432 E2.01294
G1 X126.521 Y225.432 E2.09714
G1 X125.658 Y224.568 E2.21075
G1 X124.754 Y224.568 E2.29485
G1 X125.617 Y225.432 E2.40846
G1 X124.713 Y225.432 E2.49256
G1 X123.85 Y224.568 E2.60617
G1 X122.946 Y224.568 E2.69027
G1 X123.809 Y225.432 E2.80388
G1 X122.905 Y225.432 E2.88798
G1 X122.041 Y224.568 E3.00166
G1 X121.137 Y224.568 E3.08576
G1 X122 Y225.432 E3.19937
G1 X121.096 Y225.432 E3.28347
G1 X119.948 Y224.283 E3.43458
G1 E3.33458 F2400
G92 E0
G1 X118.213 Y209.889 F30000
G1 E.1 F2400
G1 F1800
G1 X117.892 Y209.568 E.14223
G1 X117.068 Y209.568 E.21889
G1 X117.068 Y209.649 E.22643
G1 X117.932 Y210.512 E.34004
G1 X117.932 Y211.417 E.42424
G1 X117.068 Y210.553 E.53792
G1 X117.067 Y211.457 E.62202
G1 X117.932 Y212.321 E.73576
G1 X117.932 Y213.225 E.81986
G1 X117.067 Y212.36 E.93367
G1 X117.066 Y213.264 E1.01777
G1 X117.932 Y214.129 E1.13165
G1 X117.932 Y215.033 E1.21575
G1 X117.066 Y214.168 E1.32963
G1 X117.065 Y215.071 E1.41364
G1 X117.932 Y215.938 E1.52771
G1 X117.932 Y216.842 E1.61181
G1 X117.065 Y215.975 E1.72588
G1 X117.064 Y216.879 E1.80998
G1 X117.932 Y217.746 E1.92412
G1 X117.932 Y218.65 E2.00822
G1 X117.064 Y217.783 E2.12236
G1 X117.063 Y218.686 E2.20637
G1 X117.932 Y219.554 E2.32064
G1 X117.932 Y220.459 E2.40484
G1 X117.063 Y219.59 E2.51918
G1 X117.062 Y220.494 E2.60328
G1 X117.932 Y221.363 E2.71768
G1 X117.932 Y222.267 E2.80178
G1 X117.062 Y221.397 E2.91625
G1 X117.062 Y222.301 E3.00035
G1 X120.192 Y225.432 E3.41223
G1 X119.288 Y225.432 E3.49633
G1 X116.971 Y223.115 E3.80118
G1 X116.94 Y223.252 E3.81425
G1 X116.68 Y223.728 E3.86471
G1 X118.384 Y225.432 E4.08891
G1 X117.479 Y225.432 E4.17311
G1 X116.227 Y224.18 E4.33784
G1 X115.702 Y224.458 E4.39311
G1 X115.622 Y224.478 E4.40078
G1 X116.575 Y225.432 E4.52623
G1 X115.671 Y225.432 E4.61033
G1 X114.808 Y224.568 E4.72394
G1 X113.904 Y224.568 E4.80804
G1 X114.767 Y225.432 E4.92165
G1 X113.863 Y225.432 E5.00575
G1 X113 Y224.568 E5.11936
G1 X112.095 Y224.568 E5.20356
G1 X112.958 Y225.432 E5.31717
G1 X112.054 Y225.432 E5.40127
G1 X111.191 Y224.568 E5.51488
G1 X110.287 Y224.568 E5.59898
G1 X111.15 Y225.432 E5.71259
G1 X110.246 Y225.432 E5.79669
G1 X109.383 Y224.568 E5.9103
G1 X108.479 Y224.568 E5.9944
G1 X109.342 Y225.432 E6.10801
G1 X108.438 Y225.432 E6.19211
G1 X107.574 Y224.568 E6.30579
G1 X106.67 Y224.568 E6.38989
G1 X107.533 Y225.432 E6.5035
G1 X106.629 Y225.432 E6.5876
G1 X105.766 Y224.568 E6.70121
G1 X104.862 Y224.568 E6.78531
G1 X105.725 Y225.432 E6.89892
G1 X104.821 Y225.432 E6.98302
G1 X103.958 Y224.568 E7.09663
G1 X103.053 Y224.568 E7.18083
G1 X103.917 Y225.432 E7.29451
G1 X103.012 Y225.432 E7.37871
G1 X102.149 Y224.568 E7.49232
G1 X101.245 Y224.568 E7.57642
G1 X102.108 Y225.432 E7.69003
G1 X101.204 Y225.432 E7.77413
G1 X100.341 Y224.568 E7.88774
G1 X99.568 Y224.568 E7.95966
G1 X99.568 Y224.7 E7.97194
G1 X100.581 Y225.713 E8.10522
G1 E8.00522 F2400
G92 E0
G1 X11.052 Y115.672 F30000
G1 E.1 F2400
;TYPE:Perimeter
;WIDTH:0.7
G1 F1800
G1 X11.213 Y115.975 E.1312
G1 X11.525 Y116.287 E.17132
G1 X11.914 Y116.5 E.21165
G1 X12.462 Y116.6 E.2623
G1 X25.9 Y116.6 E1.48421
G1 X25.9 Y118.4 E1.64788
G1 X12.462 Y118.4 E2.86979
G1 X11.914 Y118.5 E2.92044
G1 X11.525 Y118.713 E2.96077
G1 X11.213 Y119.025 E3.00089
G1 X10.985 Y119.456 E3.04523
G1 X10.9 Y119.962 E3.09188
G1 X10.9 Y135.9 E4.54111
G1 X9.1 Y135.9 E4.70478
G1 X9.1 Y99.1 E8.05099
G1 X10.9 Y99.1 E8.21466
G1 X10.9 Y115.038 E9.66389
G1 X10.985 Y115.544 E9.71054
G1 X11.024 Y115.619 E9.71823
G1 X11.615 Y115.374 F30000
G1 F1800
G1 X11.713 Y115.6 E9.74063
G1 X11.9 Y115.787 E9.76468
G1 X12.133 Y115.915 E9.78885
G1 X12.462 Y115.975 E9.81926
G1 X26.525 Y115.975 E11.098
G1 X26.525 Y119.025 E11.37534
G1 X12.462 Y119.025 E12.65408
G1 X12.133 Y119.085 E12.68449
G1 X11.9 Y119.213 E12.70866
G1 X11.713 Y119.4 E12.73271
G1 X11.576 Y119.658 E12.75927
G1 X11.525 Y119.962 E12.7873
G1 X11.525 Y136.525 E14.29337
G1 X8.475 Y136.525 E14.57071
G1 X8.475 Y98.475 E18.03058
G1 X11.525 Y98.475 E18.30792
G1 X11.525 Y115.038 E19.81399
G1 X11.539 Y115.2 E19.82878
G1 X11.591 Y115.319 E19.84059
G1 X12.167 Y115.139 F30000
;TYPE:External perimeter
G1 F1800
G1 X12.275 Y115.288 E19.85732
G1 X12.462 Y115.35 E19.87523
G1 X27.15 Y115.35 E21.2108
G1 X27.15 Y119.65 E21.6018
G1 X12.462 Y119.65 E22.93737
G1 X12.353 Y119.67 E22.94745
G1 X12.212 Y119.775 E22.96344
G1 X12.15 Y119.962 E22.98135
G1 X12.15 Y137.15 E24.54425
G1 X7.85 Y137.15 E24.93525
G1 X7.85 Y97.85 E28.50878
G1 X12.15 Y97.85 E28.89978
G1 X12.157 Y115.08 E30.4665
G1 X12.071 Y115.296 F30000
G1 E30.3665 F2400
G92 E0
G1 X9.419 Y99.287 F30000
G1 E.1 F2400
;TYPE:Solid infill
;WIDTH:0.71447
G1 F1800
G1 X10.432 Y100.3 E.23328
G1 X10.432 Y101.204 E.31738
G1 X9.568 Y100.341 E.43099
G1 X9.568 Y101.245 E.51509
G1 X10.432 Y102.108 E.6287
G1 X10.432 Y103.012 E.7128
G1 X9.568 Y102.149 E.82641
G1 X9.568 Y103.054 E.91061
G1 X10.432 Y103.917 E1.02422
G1 X10.432 Y104.821 E1.10832
G1 X9.568 Y103.958 E1.22193
G1 X9.568 Y104.862 E1.30603
G1 X10.432 Y105.725 E1.41964
G1 X10.432 Y106.629 E1.50374
G1 X9.568 Y105.766 E1.61735
G1 X9.568 Y106.67 E1.70145
G1 X10.432 Y107.533 E1.81506
G1 X10.432 Y108.438 E1.89926
G1 X9.568 Y107.574 E2.01294
G1 X9.568 Y108.479 E2.09714
G1 X10.432 Y109.342 E2.21075
G1 X10.432 Y110.246 E2.29485
G1 X9.568 Y109.383 E2.40846
G1 X9.568 Y110.287 E2.49256
G1 X10.432 Y111.15 E2.60617
G1 X10.432 Y112.054 E2.69027
G1 X9.568 Y111.191 E2.80388
G1 X9.568 Y112.095 E2.88798
G1 X10.432 Y112.959 E3.00166
G1 X10.432 Y113.863 E3.08576
G1 X9.568 Y113 E3.19937
G1 X9.568 Y113.904 E3.28347
G1 X10.714 Y115.05 E3.43425
G1 E3.33425 F2400
G92 E0
G1 X25.11 Y116.787 F30000
G1 E.1 F2400
G1 F1800
G1 X25.432 Y117.108 E.1423
G1 X25.432 Y117.932 E.21896
G1 X25.351 Y117.932 E.2265
G1 X24.487 Y117.068 E.34018
G1 X23.582 Y117.067 E.42438
G1 X24.447 Y117.932 E.53819
G1 X23.543 Y117.933 E.62229
G1 X22.678 Y117.067 E.73617
G1 X21.773 Y117.066 E.82037
G1 X22.64 Y117.933 E.93444
G1 X21.736 Y117.934 E1.01854
G1 X20.868 Y117.066 E1.13274
G1 X19.964 Y117.065 E1.21684
G1 X20.832 Y117.934 E1.33111
G1 X19.929 Y117.935 E1.41512
G1 X19.059 Y117.065 E1.52959
G1 X18.154 Y117.064 E1.61379
G1 X19.025 Y117.935 E1.72839
G1 X18.121 Y117.936 E1.81249
G1 X17.25 Y117.064 E1.92715
G1 X16.345 Y117.063 E2.01135
G1 X17.217 Y117.936 E2.12615
G1 X16.314 Y117.937 E2.21016
G1 X15.44 Y117.063 E2.32515
G1 X14.536 Y117.063 E2.40925
G1 X15.41 Y117.937 E2.52424
G1 X14.506 Y117.938 E2.60834
G1 X13.631 Y117.062 E2.72353
G1 X12.726 Y117.062 E2.80773
G1 X13.603 Y117.938 E2.92305
G1 X12.699 Y117.938 E3.00715
G1 X9.568 Y114.808 E3.41903
G1 X9.568 Y115.712 E3.50313
G1 X11.885 Y118.029 E3.80798
G1 X11.748 Y118.06 E3.82105
G1 X11.272 Y118.32 E3.87151
G1 X9.568 Y116.616 E4.09571
G1 X9.568 Y117.521 E4.17991
G1 X10.82 Y118.773 E4.34464
G1 X10.539 Y119.304 E4.40053
G1 X10.526 Y119.382 E4.40789
G1 X9.568 Y118.425 E4.53387
G1 X9.568 Y119.329 E4.61797
G1 X10.432 Y120.192 E4.73158
G1 X10.432 Y121.096 E4.81568
G1 X9.568 Y120.233 E4.92929
G1 X9.568 Y121.137 E5.01339
G1 X10.432 Y122 E5.127
G1 X10.432 Y122.905 E5.2112
G1 X9.568 Y122.042 E5.32481
G1 X9.568 Y122.946 E5.40891
G1 X10.432 Y123.809 E5.52252
G1 X10.432 Y124.713 E5.60662
G1 X9.568 Y123.85 E5.72023
G1 X9.568 Y124.754 E5.80433
G1 X10.432 Y125.617 E5.91794
G1 X10.432 Y126.521 E6.00204
G1 X9.568 Y125.658 E6.11565
G1 X9.568 Y126.562 E6.19975
G1 X10.432 Y127.426 E6.31343
G1 X10.432 Y128.33 E6.39753
G1 X9.568 Y127.467 E6.51114
G1 X9.568 Y128.371 E6.59524
G1 X10.432 Y129.234 E6.70885
G1 X10.432 Y130.138 E6.79295
G1 X9.568 Y129.275 E6.90656
G1 X9.568 Y130.179 E6.99066
G1 X10.432 Y131.042 E7.10427
G1 X10.432 Y131.947 E7.18847
G1 X9.568 Y131.083 E7.30215
G1 X9.568 Y131.988 E7.38635
G1 X10.432 Y132.851 E7.49996
G1 X10.432 Y133.755 E7.58406
G1 X9.568 Y132.892 E7.69767
G1 X9.568 Y133.796 E7.78177
