; generated by PrusaSlicer 2.6.1+linux-x64-GTK3 on 2023-10-07 at 03:19:34 UTC

; 

; external perimeters extrusion width = 0.45mm
; perimeters extrusion width = 0.45mm
; infill extrusion width = 0.45mm
; solid infill extrusion width = 0.45mm
; top infill extrusion width = 0.40mm
; first layer extrusion width = 0.42mm

M190 S65 ; set bed temperature and wait for it to be reached
M104 S205 ; set temperature
;TYPE:Custom
G28 ; home all axes
G1 Z5 F5000 ; lift nozzle
M109 S205 ; set temperature and wait for it to be reached
G21 ; set units to millimeters
G90 ; use absolute coordinates
M82 ; use absolute distances for extrusion
G92 E0
; Filament gcode
M107
;LAYER_CHANGE
;Z:0.25
;HEIGHT:0.25
G1 Z.25 F30000
G1 E-.1 F2400
G92 E0
G1 X6.688 Y6.476 F30000
G1 E.1 F2400
;TYPE:Skirt/Brim
;WIDTH:0.42
G1 F3600
G1 X7.393 Y5.749 E.13856
G1 X9.677 Y4.519 E.23734
G1 X12.5 Y4.035 E.3464
G1 X212.5 Y4.035 E7.96192
G1 X215.064 Y4.432 E8.06071
G1 X217.387 Y5.588 E8.15951
G1 X219.251 Y7.393 E8.25831
G1 X220.481 Y9.677 E8.35709
G1 X220.965 Y12.5 E8.46615
G1 X220.965 Y212.5 E16.08167
G1 X220.568 Y215.064 E16.18046
G1 X219.412 Y217.387 E16.27926
G1 X217.607 Y219.251 E16.37806
G1 X215.323 Y220.481 E16.47684
G1 X212.5 Y220.965 E16.5859
G1 X12.5 Y220.965 E24.20142
G1 X9.936 Y220.568 E24.30021
G1 X7.613 Y219.412 E24.39901
G1 X5.749 Y217.607 E24.49781
G1 X4.519 Y215.323 E24.59659
G1 X4.035 Y212.5 E24.70565
G1 X4.035 Y12.5 E32.32117
G1 X4.432 Y9.936 E32.41996
G1 X5.588 Y7.613 E32.51876
G1 X6.647 Y6.519 E32.57674
G1 X6.907 Y6.781 F30000
G1 F3600
G1 X7.748 Y5.941 E32.622
G1 X10.011 Y4.793 E32.71862
G1 X12.5 Y4.401 E32.81456
G1 X212.5 Y4.401 E40.43008
G1 X215.006 Y4.798 E40.52669
G1 X217.266 Y5.952 E40.62332
G1 X219.059 Y7.748 E40.71995
G1 X220.207 Y10.011 E40.81657
G1 X220.599 Y12.5 E40.91251
G1 X220.599 Y212.5 E48.52803
G1 X220.202 Y215.006 E48.62464
G1 X219.048 Y217.266 E48.72127
G1 X217.252 Y219.059 E48.8179
G1 X214.989 Y220.207 E48.91452
G1 X212.5 Y220.599 E49.01046
G1 X12.5 Y220.599 E56.62598
G1 X9.994 Y220.202 E56.72259
G1 X7.734 Y219.048 E56.81922
G1 X5.941 Y217.252 E56.91585
G1 X4.793 Y214.989 E57.01247
G1 X4.401 Y212.5 E57.10841
G1 X4.401 Y12.5 E64.72393
G1 X4.798 Y9.994 E64.82054
G1 X5.952 Y7.734 E64.91717
G1 X6.865 Y6.823 E64.96628
G1 X7.118 Y7.086 F30000
G1 F3600
G1 X8.103 Y6.139 E65.01831
G1 X10.342 Y5.075 E65.1127
G1 X12.5 Y4.767 E65.1957
G1 X212.5 Y4.767 E72.81122
G1 X214.947 Y5.165 E72.90562
G1 X217.143 Y6.316 E73.00003
G1 X218.861 Y8.103 E73.09442
G1 X219.926 Y10.342 E73.18883
G1 X220.233 Y12.5 E73.27183
G1 X220.233 Y212.5 E80.88735
G1 X219.835 Y214.947 E80.98175
G1 X218.684 Y217.143 E81.07616
G1 X216.897 Y218.861 E81.17055
G1 X214.658 Y219.926 E81.26496
G1 X212.5 Y220.233 E81.34796
G1 X12.5 Y220.233 E88.96348
G1 X10.053 Y219.835 E89.05788
G1 X7.857 Y218.684 E89.15229
G1 X6.139 Y216.897 E89.24668
G1 X5.075 Y214.658 E89.34107
G1 X4.767 Y212.5 E89.42407
G1 X4.767 Y12.5 E97.03959
G1 X5.165 Y10.053 E97.13399
G1 X6.316 Y7.857 E97.2284
G1 X7.075 Y7.128 E97.26847
G1 X7.32 Y7.393 F30000
G1 F3600
G1 X8.457 Y6.342 E97.32743
G1 X10.67 Y5.365 E97.41954
G1 X12.5 Y5.134 E97.48977
G1 X212.5 Y5.134 E105.10529
G1 X214.886 Y5.531 E105.19739
G1 X217.016 Y6.68 E105.28954
G1 X218.658 Y8.457 E105.38167
G1 X219.635 Y10.67 E105.47378
G1 X219.866 Y12.5 E105.54401
G1 X219.866 Y212.5 E113.15953
G1 X219.469 Y214.886 E113.25163
G1 X218.32 Y217.016 E113.34378
G1 X216.543 Y218.658 E113.43591
G1 X214.33 Y219.635 E113.52802
G1 X212.5 Y219.866 E113.59825
G1 X12.5 Y219.866 E121.21377
G1 X10.114 Y219.469 E121.30587
G1 X7.984 Y218.32 E121.39802
G1 X6.342 Y216.543 E121.49015
G1 X5.365 Y214.33 E121.58226
G1 X5.134 Y212.5 E121.65249
G1 X5.134 Y12.5 E129.26801
G1 X5.531 Y10.114 E129.36011
G1 X6.68 Y7.984 E129.45226
G1 X7.276 Y7.434 E129.48314
G1 E129.38314 F2400
G92 E0
G1 X20.987 Y183.076 F30000
G1 E.1 F2400
;TYPE:Perimeter
;WIDTH:0.419999
G1 F3600
G1 X41.924 Y183.076 E.89723
G1 X41.924 Y211.924 E1.99569
G1 X13.076 Y211.924 E3.09415
G1 X13.076 Y183.076 E4.19261
G1 X20.927 Y183.076 E4.49156
G1 X20.567 Y182.71 F30000
;TYPE:External perimeter
G1 F3600
G1 X42.29 Y182.71 E5.31872
G1 X42.29 Y212.29 E6.44505
G1 X12.71 Y212.29 E7.57138
G1 X12.71 Y182.71 E8.69771
G1 X20.507 Y182.71 E8.9946
G1 X20.895 Y182.939 F30000
G1 E8.8946 F2400
G92 E0
G1 X41.814 Y183.931 F30000
G1 E.1 F2400
;TYPE:Solid infill
;WIDTH:0.42217
G1 F3600
G1 X41.233 Y183.351 E.13145
G1 X40.712 Y183.351 E.15141
G1 X41.649 Y184.288 E.20217
G1 X41.649 Y184.809 E.22213
G1 X40.191 Y183.351 E.30111
G1 X39.67 Y183.351 E.32107
G1 X41.649 Y185.33 E.42827
G1 X41.649 Y185.851 E.44823
G1 X39.149 Y183.351 E.58365
G1 X38.628 Y183.351 E.60361
G1 X41.649 Y186.372 E.76725
G1 X41.649 Y186.894 E.78724
G1 X38.106 Y183.351 E.97916
G1 X37.585 Y183.351 E.99912
G1 X41.649 Y187.415 E1.21926
G1 X41.649 Y187.936 E1.23922
G1 X37.064 Y183.351 E1.48758
G1 X36.543 Y183.351 E1.50754
G1 X41.649 Y188.457 E1.78413
G1 X41.649 Y188.978 E1.80409
G1 X36.022 Y183.351 E2.1089
G1 X35.501 Y183.351 E2.12886
G1 X41.649 Y189.499 E2.46189
G1 X41.649 Y190.021 E2.48188
G1 X34.979 Y183.351 E2.84319
G1 X34.458 Y183.351 E2.86315
G1 X41.649 Y190.542 E3.25268
G1 X41.649 Y191.063 E3.27264
G1 X33.937 Y183.351 E3.69039
G1 X33.416 Y183.351 E3.71035
G1 X41.649 Y191.584 E4.15632
G1 X41.649 Y192.105 E4.17628
G1 X32.895 Y183.351 E4.65047
G1 X32.374 Y183.351 E4.67043
G1 X41.649 Y192.626 E5.17285
G1 X41.649 Y193.148 E5.19284
G1 X31.852 Y183.351 E5.72353
G1 X31.331 Y183.351 E5.74349
G1 X41.649 Y193.669 E6.3024
G1 X41.649 Y194.19 E6.32236
G1 X30.81 Y183.351 E6.9095
G1 X30.289 Y183.351 E6.92946
G1 X41.649 Y194.711 E7.54482
G1 X41.649 Y195.232 E7.56478
G1 X29.768 Y183.351 E8.20836
G1 X29.247 Y183.351 E8.22832
G1 X41.649 Y195.753 E8.90012
G1 X41.649 Y196.275 E8.92011
G1 X28.725 Y183.351 E9.62019
G1 X28.204 Y183.351 E9.64015
G1 X41.649 Y196.796 E10.36845
G1 X41.649 Y197.317 E10.38841
G1 X27.683 Y183.351 E11.14493
G1 X27.162 Y183.351 E11.16489
G1 X41.649 Y197.838 E11.94963
G1 X41.649 Y198.359 E11.96959
G1 X26.641 Y183.351 E12.78256
G1 X26.12 Y183.351 E12.80252
G1 X41.649 Y198.88 E13.64371
G1 X41.649 Y199.402 E13.6637
G1 X25.598 Y183.351 E14.53317
G1 X25.077 Y183.351 E14.55313
G1 X41.649 Y199.923 E15.45082
G1 X41.649 Y200.444 E15.47078
G1 X24.556 Y183.351 E16.39669
G1 X24.035 Y183.351 E16.41665
G1 X41.649 Y200.965 E17.37078
G1 X41.649 Y201.486 E17.39074
G1 X23.514 Y183.351 E18.37309
G1 X22.993 Y183.351 E18.39305
G1 X41.649 Y202.007 E19.40363
G1 X41.649 Y202.529 E19.42362
G1 X22.471 Y183.351 E20.46247
G1 X21.95 Y183.351 E20.48243
G1 X41.649 Y203.05 E21.5495
G1 X41.649 Y203.571 E21.56946
G1 X21.429 Y183.351 E22.66476
G1 X20.908 Y183.351 E22.68472
G1 X41.649 Y204.092 E23.80824
G1 X41.649 Y204.613 E23.8282
G1 X20.387 Y183.351 E24.97994
G1 X19.866 Y183.351 E24.9999
G1 X41.649 Y205.134 E26.17986
G1 X41.649 Y205.656 E26.19985
G1 X19.344 Y183.351 E27.40809
G1 X18.823 Y183.351 E27.42805
G1 X41.649 Y206.177 E28.66451
G1 X41.649 Y206.698 E28.68447
G1 X18.302 Y183.351 E29.94915
G1 X17.781 Y183.351 E29.96911
G1 X41.649 Y207.219 E31.26201
G1 X41.649 Y207.74 E31.28197
G1 X17.26 Y183.351 E32.6031
G1 X16.739 Y183.351 E32.62306
G1 X41.649 Y208.261 E33.97241
G1 X41.649 Y208.783 E33.9924
G1 X16.217 Y183.351 E35.37002
G1 X15.696 Y183.351 E35.38998
G1 X41.649 Y209.304 E36.79583
G1 X41.649 Y209.825 E36.81579
G1 X15.175 Y183.351 E38.24986
G1 X14.654 Y183.351 E38.26982
G1 X41.649 Y210.346 E39.73211
G1 X41.649 Y210.867 E39.75207
G1 X14.133 Y183.351 E41.24258
G1 X13.612 Y183.351 E41.26254
G1 X41.649 Y211.388 E42.78127
G1 X41.649 Y211.649 E42.79127
G1 X41.388 Y211.649 E42.80127
G1 X13.351 Y183.612 E44.32
G1 X13.351 Y184.133 E44.33996
G1 X40.867 Y211.649 E45.83047
G1 X40.346 Y211.649 E45.85043
G1 X13.351 Y184.654 E47.31272
G1 X13.351 Y185.175 E47.33268
G1 X39.825 Y211.649 E48.76675
G1 X39.304 Y211.649 E48.78671
G1 X13.351 Y185.696 E50.19256
G1 X13.351 Y186.218 E50.21255
G1 X38.782 Y211.649 E51.59012
G1 X38.261 Y211.649 E51.61008
G1 X13.351 Y186.739 E52.95943
G1 X13.351 Y187.26 E52.97939
G1 X37.74 Y211.649 E54.30052
G1 X37.219 Y211.649 E54.32048
G1 X13.351 Y187.781 E55.61338
G1 X13.351 Y188.302 E55.63334
G1 X36.698 Y211.649 E56.89802
G1 X36.177 Y211.649 E56.91798
G1 X13.351 Y188.823 E58.15444
G1 X13.351 Y189.345 E58.17443
G1 X35.655 Y211.649 E59.38261
G1 X35.134 Y211.649 E59.40257
G1 X13.351 Y189.866 E60.58253
G1 X13.351 Y190.387 E60.60249
G1 X34.613 Y211.649 E61.75423
G1 X34.092 Y211.649 E61.77419
G1 X13.351 Y190.908 E62.89771
G1 X13.351 Y191.429 E62.91767
G1 X33.571 Y211.649 E64.01297
G1 X33.05 Y211.649 E64.03293
G1 X13.351 Y191.95 E65.1
G1 X13.351 Y192.472 E65.11999
G1 X32.528 Y211.649 E66.15879
G1 X32.007 Y211.649 E66.17875
G1 X13.351 Y192.993 E67.18933
G1 X13.351 Y193.514 E67.20929
G1 X31.486 Y211.649 E68.19164
G1 X30.965 Y211.649 E68.2116
G1 X13.351 Y194.035 E69.16573
G1 X13.351 Y194.556 E69.18569
G1 X30.444 Y211.649 E70.1116
G1 X29.923 Y211.649 E70.13156
G1 X13.351 Y195.077 E71.02925
G1 X13.351 Y195.599 E71.04924
G1 X29.401 Y211.649 E71.91865
G1 X28.88 Y211.649 E71.93861
G1 X13.351 Y196.12 E72.7798
G1 X13.351 Y196.641 E72.79976
G1 X28.359 Y211.649 E73.61273
G1 X27.838 Y211.649 E73.63269
G1 X13.351 Y197.162 E74.41743
G1 X13.351 Y197.683 E74.43739
G1 X27.317 Y211.649 E75.19391
G1 X26.796 Y211.649 E75.21387
G1 X13.351 Y198.204 E75.94217
G1 X13.351 Y198.726 E75.96216
G1 X26.274 Y211.649 E76.66218
G1 X25.753 Y211.649 E76.68214
G1 X13.351 Y199.247 E77.35394
G1 X13.351 Y199.768 E77.3739
G1 X25.232 Y211.649 E78.01748
G1 X24.711 Y211.649 E78.03744
G1 X13.351 Y200.289 E78.6528
G1 X13.351 Y200.81 E78.67276
G1 X24.19 Y211.649 E79.2599
G1 X23.669 Y211.649 E79.27986
G1 X13.351 Y201.331 E79.83877
G1 X13.351 Y201.853 E79.85876
G1 X23.147 Y211.649 E80.3894
G1 X22.626 Y211.649 E80.40936
G1 X13.351 Y202.374 E80.91178
G1 X13.351 Y202.895 E80.93174
G1 X22.105 Y211.649 E81.40593
G1 X21.584 Y211.649 E81.42589
G1 X13.351 Y203.416 E81.87186
G1 X13.351 Y203.937 E81.89182
G1 X21.063 Y211.649 E82.30957
G1 X20.542 Y211.649 E82.32953
G1 X13.351 Y204.458 E82.71906
G1 X13.351 Y204.98 E82.73905
G1 X20.02 Y211.649 E83.1003
G1 X19.499 Y211.649 E83.12026
G1 X13.351 Y205.501 E83.45329
G1 X13.351 Y206.022 E83.47325
G1 X18.978 Y211.649 E83.77806
G1 X18.457 Y211.649 E83.79802
G1 X13.351 Y206.543 E84.07461
G1 X13.351 Y207.064 E84.09457
G1 X17.936 Y211.649 E84.34293
G1 X17.415 Y211.649 E84.36289
G1 X13.351 Y207.585 E84.58303
G1 X13.351 Y208.107 E84.60302
G1 X16.893 Y211.649 E84.79489
G1 X16.372 Y211.649 E84.81485
G1 X13.351 Y208.628 E84.97849
G1 X13.351 Y209.149 E84.99845
G1 X15.851 Y211.649 E85.13387
G1 X15.33 Y211.649 E85.15383
G1 X13.351 Y209.67 E85.26103
G1 X13.351 Y210.191 E85.28099
G1 X14.809 Y211.649 E85.35997
G1 X14.288 Y211.649 E85.37993
G1 X13.351 Y210.712 E85.43069
G1 X13.351 Y211.234 E85.45068
G1 X13.931 Y211.814 E85.4821
G1 E85.3821 F2400
G92 E0
G1 X13.076 Y108.895 F30000
G1 E.1 F2400
;TYPE:Perimeter
;WIDTH:0.419999
G1 F3600
G1 X13.076 Y98.076 E.51196
G1 X41.924 Y98.076 E1.61042
G1 X41.924 Y126.924 E2.70888
G1 X13.076 Y126.924 E3.80734
G1 X13.076 Y108.955 E4.49156
G1 X12.71 Y109.315 F30000
;TYPE:External perimeter
G1 F3600
G1 X12.71 Y97.71 E4.93345
G1 X42.29 Y97.71 E6.05978
G1 X42.29 Y127.29 E7.18611
G1 X12.71 Y127.29 E8.31244
G1 X12.71 Y109.375 E8.9946
G1 X12.969 Y109.011 F30000
G1 E8.8946 F2400
G92 E0
G1 X41.814 Y98.931 F30000
G1 E.1 F2400
;TYPE:Solid infill
;WIDTH:0.42217
G1 F3600
G1 X41.233 Y98.351 E.13145
G1 X40.712 Y98.351 E.15141
G1 X41.649 Y99.288 E.20217
G1 X41.649 Y99.809 E.22213
G1 X40.191 Y98.351 E.30111
G1 X39.67 Y98.351 E.32107
G1 X41.649 Y100.33 E.42827
G1 X41.649 Y100.851 E.44823
G1 X39.149 Y98.351 E.58365
G1 X38.628 Y98.351 E.60361
G1 X41.649 Y101.372 E.76725
G1 X41.649 Y101.894 E.78724
G1 X38.106 Y98.351 E.97916
G1 X37.585 Y98.351 E.99912
G1 X41.649 Y102.415 E1.21926
G1 X41.649 Y102.936 E1.23922
G1 X37.064 Y98.351 E1.48758
G1 X36.543 Y98.351 E1.50754
G1 X41.649 Y103.457 E1.78413
G1 X41.649 Y103.978 E1.80409
G1 X36.022 Y98.351 E2.1089
G1 X35.501 Y98.351 E2.12886
G1 X41.649 Y104.499 E2.46189
G1 X41.649 Y105.021 E2.48188
G1 X34.979 Y98.351 E2.84319
G1 X34.458 Y98.351 E2.86315
G1 X41.649 Y105.542 E3.25268
G1 X41.649 Y106.063 E3.27264
G1 X33.937 Y98.351 E3.69039
G1 X33.416 Y98.351 E3.71035
G1 X41.649 Y106.584 E4.15632
G1 X41.649 Y107.105 E4.17628
G1 X32.895 Y98.351 E4.65047
G1 X32.374 Y98.351 E4.67043
G1 X41.649 Y107.626 E5.17285
G1 X41.649 Y108.148 E5.19284
G1 X31.852 Y98.351 E5.72353
G1 X31.331 Y98.351 E5.74349
G1 X41.649 Y108.669 E6.3024
G1 X41.649 Y109.19 E6.32236
G1 X30.81 Y98.351 E6.9095
G1 X30.289 Y98.351 E6.92946
G1 X41.649 Y109.711 E7.54482
G1 X41.649 Y110.232 E7.56478
G1 X29.768 Y98.351 E8.20836
G1 X29.247 Y98.351 E8.22832
G1 X41.649 Y110.753 E8.90012
G1 X41.649 Y111.275 E8.92011
G1 X28.725 Y98.351 E9.62019
G1 X28.204 Y98.351 E9.64015
G1 X41.649 Y111.796 E10.36845
G1 X41.649 Y112.317 E10.38841
G1 X27.683 Y98.351 E11.14493
G1 X27.162 Y98.351 E11.16489
G1 X41.649 Y112.838 E11.94963
G1 X41.649 Y113.359 E11.96959
G1 X26.641 Y98.351 E12.78256
G1 X26.12 Y98.351 E12.80252
G1 X41.649 Y113.88 E13.64371
G1 X41.649 Y114.402 E13.6637
G1 X25.598 Y98.351 E14.53317
G1 X25.077 Y98.351 E14.55313
G1 X41.649 Y114.923 E15.45082
G1 X41.649 Y115.444 E15.47078
G1 X24.556 Y98.351 E16.39669
G1 X24.035 Y98.351 E16.41665
G1 X41.649 Y115.965 E17.37078
G1 X41.649 Y116.486 E17.39074
G1 X23.514 Y98.351 E18.37309
G1 X22.993 Y98.351 E18.39305
G1 X41.649 Y117.007 E19.40363
G1 X41.649 Y117.529 E19.42362
G1 X22.471 Y98.351 E20.46247
G1 X21.95 Y98.351 E20.48243
G1 X41.649 Y118.05 E21.5495
G1 X41.649 Y118.571 E21.56946
G1 X21.429 Y98.351 E22.66476
G1 X20.908 Y98.351 E22.68472
G1 X41.649 Y119.092 E23.80824
G1 X41.649 Y119.613 E23.8282
G1 X20.387 Y98.351 E24.97994
G1 X19.866 Y98.351 E24.9999
G1 X41.649 Y120.134 E26.17986
G1 X41.649 Y120.656 E26.19985
G1 X19.344 Y98.351 E27.40809
G1 X18.823 Y98.351 E27.42805
G1 X41.649 Y121.177 E28.66451
G1 X41.649 Y121.698 E28.68447
G1 X18.302 Y98.351 E29.94915
G1 X17.781 Y98.351 E29.96911
G1 X41.649 Y122.219 E31.26201
G1 X41.649 Y122.74 E31.28197
G1 X17.26 Y98.351 E32.6031
G1 X16.739 Y98.351 E32.62306
G1 X41.649 Y123.261 E33.97241
G1 X41.649 Y123.783 E33.9924
G1 X16.217 Y98.351 E35.37002
G1 X15.696 Y98.351 E35.38998
G1 X41.649 Y124.304 E36.79583
G1 X41.649 Y124.825 E36.81579
G1 X15.175 Y98.351 E38.24986
G1 X14.654 Y98.351 E38.26982
G1 X41.649 Y125.346 E39.73211
G1 X41.649 Y125.867 E39.75207
G1 X14.133 Y98.351 E41.24258
G1 X13.612 Y98.351 E41.26254
G1 X41.649 Y126.388 E42.78127
G1 X41.649 Y126.649 E42.79127
G1 X41.388 Y126.649 E42.80127
G1 X13.351 Y98.612 E44.32
G1 X13.351 Y99.133 E44.33996
G1 X40.867 Y126.649 E45.83047
G1 X40.346 Y126.649 E45.85043
G1 X13.351 Y99.654 E47.31272
G1 X13.351 Y100.175 E47.33268
G1 X39.825 Y126.649 E48.76675
G1 X39.304 Y126.649 E48.78671
G1 X13.351 Y100.696 E50.19256
G1 X13.351 Y101.218 E50.21255
G1 X38.782 Y126.649 E51.59012
G1 X38.261 Y126.649 E51.61008
G1 X13.351 Y101.739 E52.95943
G1 X13.351 Y102.26 E52.97939
G1 X37.74 Y126.649 E54.30052
G1 X37.219 Y126.649 E54.32048
G1 X13.351 Y102.781 E55.61338
G1 X13.351 Y103.302 E55.63334
G1 X36.698 Y126.649 E56.89802
G1 X36.177 Y126.649 E56.91798
G1 X13.351 Y103.823 E58.15444
G1 X13.351 Y104.345 E58.17443
G1 X35.655 Y126.649 E59.38261
G1 X35.134 Y126.649 E59.40257
G1 X13.351 Y104.866 E60.58253
G1 X13.351 Y105.387 E60.60249
G1 X34.613 Y126.649 E61.75423
G1 X34.092 Y126.649 E61.77419
G1 X13.351 Y105.908 E62.89771
G1 X13.351 Y106.429 E62.91767
G1 X33.571 Y126.649 E64.01297
G1 X33.05 Y126.649 E64.03293
G1 X13.351 Y106.95 E65.1
G1 X13.351 Y107.472 E65.11999
G1 X32.528 Y126.649 E66.15879
G1 X32.007 Y126.649 E66.17875
G1 X13.351 Y107.993 E67.18933
G1 X13.351 Y108.514 E67.20929
G1 X31.486 Y126.649 E68.19164
G1 X30.965 Y126.649 E68.2116
G1 X13.351 Y109.035 E69.16573
G1 X13.351 Y109.556 E69.18569
G1 X30.444 Y126.649 E70.1116
G1 X29.923 Y126.649 E70.13156
G1 X13.351 Y110.077 E71.02925
G1 X13.351 Y110.599 E71.04924
G1 X29.401 Y126.649 E71.91865
G1 X28.88 Y126.649 E71.93861
G1 X13.351 Y111.12 E72.7798
G1 X13.351 Y111.641 E72.79976
G1 X28.359 Y126.649 E73.61273
G1 X27.838 Y126.649 E73.63269
G1 X13.351 Y112.162 E74.41743
