; generated by PrusaSlicer 2.6.1+linux-x64-GTK3 on 2023-10-08 at 11:18:55 UTC

; 

; external perimeters extrusion width = 0.45mm
; perimeters extrusion width = 0.45mm
; infill extrusion width = 0.45mm
; solid infill extrusion width = 0.45mm
; top infill extrusion width = 0.40mm
; first layer extrusion width = 0.70mm

;TYPE:Custom
; M190 R30 ; Because of probe temperature drift,
; M109 R30 ; Let the beds and hotend cool down before homing the axis
G28 ; home all axes
G1 Z5 F5000 ; lift nozzle
M190 S65 ; set bed temperature and wait for it to be reached
M109 S205 ; set hot end temp and wait for it
G21 ; set units to millimeters
G90 ; use absolute coordinates
M82 ; use absolute distances for extrusion
G92 E0
; Filament gcode
M107
;LAYER_CHANGE
;Z:0.35
;HEIGHT:0.35
G1 Z.35 F30000
G1 E-.1 F2400
G92 E0
G1 X6.673 Y6.442 F30000
G1 E.1 F2400
;TYPE:Skirt/Brim
;WIDTH:0.7
G1 F1800
G1 X7.36 Y5.731 E.1899
G1 X9.646 Y4.494 E.42625
G1 X12.5 Y4 E.68962
G1 X212.5 Y4 E18.87554
G1 X215.069 Y4.398 E19.11192
G1 X217.398 Y5.554 E19.34835
G1 X219.269 Y7.36 E19.58481
G1 X220.506 Y9.646 E19.82116
G1 X221 Y12.5 E20.08453
G1 X221 Y212.5 E38.27045
G1 X220.602 Y215.069 E38.50683
G1 X219.446 Y217.398 E38.74326
G1 X217.64 Y219.269 E38.97972
G1 X215.354 Y220.506 E39.21607
G1 X212.5 Y221 E39.47944
G1 X12.5 Y221 E57.66536
G1 X9.931 Y220.602 E57.90174
G1 X7.602 Y219.446 E58.13817
G1 X5.731 Y217.64 E58.37463
G1 X4.494 Y215.354 E58.61098
G1 X4 Y212.5 E58.87435
G1 X4 Y12.5 E77.06027
G1 X4.398 Y9.931 E77.29665
G1 X5.554 Y7.602 E77.53308
G1 X6.632 Y6.485 E77.67423
G1 X7.071 Y6.935 F30000
G1 F1800
G1 X7.966 Y6.062 E77.78792
G1 X10.214 Y4.964 E78.01541
G1 X12.5 Y4.625 E78.22555
G1 X212.5 Y4.625 E96.41147
G1 X214.97 Y5.023 E96.63896
G1 X217.191 Y6.175 E96.86646
G1 X218.938 Y7.966 E97.09396
G1 X220.036 Y10.214 E97.32145
G1 X220.375 Y12.5 E97.53159
G1 X220.375 Y212.5 E115.71751
G1 X219.977 Y214.97 E115.945
G1 X218.825 Y217.191 E116.1725
G1 X217.034 Y218.938 E116.4
G1 X214.786 Y220.036 E116.62749
G1 X212.5 Y220.375 E116.83763
G1 X12.5 Y220.375 E135.02355
G1 X10.03 Y219.977 E135.25104
G1 X7.809 Y218.825 E135.47854
G1 X6.062 Y217.034 E135.70604
G1 X4.964 Y214.786 E135.93353
G1 X4.625 Y212.5 E136.14367
G1 X4.625 Y12.5 E154.32959
G1 X5.023 Y10.03 E154.55708
G1 X6.175 Y7.809 E154.78458
G1 X7.028 Y6.977 E154.89293
G1 X7.445 Y7.434 F30000
G1 F1800
G1 X8.569 Y6.409 E155.03125
G1 X10.773 Y5.459 E155.24948
G1 X12.5 Y5.25 E155.40766
G1 X212.5 Y5.25 E173.59358
G1 X214.867 Y5.647 E173.81182
G1 X216.974 Y6.796 E174.03004
G1 X218.591 Y8.569 E174.24824
G1 X219.541 Y10.773 E174.46647
G1 X219.75 Y12.5 E174.62465
G1 X219.75 Y212.5 E192.81057
G1 X219.353 Y214.867 E193.02881
G1 X218.204 Y216.974 E193.24703
G1 X216.431 Y218.591 E193.46523
G1 X214.227 Y219.541 E193.68346
G1 X212.5 Y219.75 E193.84164
G1 X12.5 Y219.75 E212.02756
G1 X10.133 Y219.353 E212.2458
G1 X8.026 Y218.204 E212.46402
G1 X6.409 Y216.431 E212.68222
G1 X5.459 Y214.227 E212.90045
G1 X5.25 Y212.5 E213.05863
G1 X5.25 Y12.5 E231.24455
G1 X5.647 Y10.133 E231.46279
G1 X6.796 Y8.026 E231.68101
G1 X7.4 Y7.474 E231.75541
G1 X7.79 Y7.937 F30000
G1 F1800
G1 X9.168 Y6.774 E231.91937
G1 X11.32 Y5.981 E232.12791
G1 X12.5 Y5.875 E232.23564
G1 X212.5 Y5.875 E250.42156
G1 X214.759 Y6.272 E250.63012
G1 X216.747 Y7.415 E250.83864
G1 X218.226 Y9.168 E251.04719
G1 X219.019 Y11.32 E251.25573
G1 X219.125 Y12.5 E251.36346
G1 X219.125 Y212.5 E269.54938
G1 X218.728 Y214.759 E269.75794
G1 X217.585 Y216.747 E269.96646
G1 X215.832 Y218.226 E270.17501
G1 X213.68 Y219.019 E270.38355
G1 X212.5 Y219.125 E270.49128
G1 X12.5 Y219.125 E288.6772
G1 X10.241 Y218.728 E288.88576
G1 X8.253 Y217.585 E289.09428
G1 X6.774 Y215.832 E289.30283
G1 X5.981 Y213.68 E289.51137
G1 X5.875 Y212.5 E289.6191
G1 X5.875 Y12.5 E307.80502
G1 X6.272 Y10.241 E308.01358
G1 X7.415 Y8.253 E308.2221
G1 X7.745 Y7.975 E308.26134
G1 E308.16134 F2400
G92 E0
G1 X40.9 Y184.1 F30000
G1 E.1 F2400
;TYPE:Perimeter
;WIDTH:0.7
G1 F1800
G1 X40.9 Y210.9 E2.53691
G1 X14.1 Y210.9 E4.97382
G1 X14.1 Y184.1 E7.41073
G1 X40.84 Y184.1 E9.84219
G1 X41.525 Y183.475 F30000
G1 F1800
G1 X41.525 Y211.525 E12.39276
G1 X13.475 Y211.525 E14.94333
G1 X13.475 Y183.475 E17.4939
G1 X41.465 Y183.475 E20.03902
G1 X42.15 Y182.85 F30000
;TYPE:External perimeter
G1 F1800
G1 X42.15 Y212.15 E22.70326
G1 X12.85 Y212.15 E25.3675
G1 X12.85 Y182.85 E28.03174
G1 X42.09 Y182.85 E30.69052
G1 X42.046 Y183.236 F30000
G1 E30.59052 F2400
G92 E0
G1 X40.713 Y185.572 F30000
G1 E.1 F2400
;TYPE:Solid infill
;WIDTH:0.710021
G1 F1800
G1 X39.71 Y184.568 E.23111
G1 X38.812 Y184.568 E.31407
G1 X40.432 Y186.188 E.52573
G1 X40.432 Y187.086 E.60869
G1 X37.914 Y184.568 E.93768
G1 X37.016 Y184.568 E1.02064
G1 X40.432 Y187.984 E1.46696
G1 X40.432 Y188.882 E1.54992
G1 X36.118 Y184.568 E2.11357
G1 X35.22 Y184.568 E2.19653
G1 X40.432 Y189.78 E2.87751
G1 X40.432 Y190.678 E2.96047
G1 X34.322 Y184.568 E3.75878
G1 X33.424 Y184.568 E3.84174
G1 X40.432 Y191.576 E4.75738
G1 X40.432 Y192.474 E4.84034
G1 X32.526 Y184.568 E5.87331
G1 X31.628 Y184.568 E5.95627
G1 X40.432 Y193.372 E7.10657
G1 X40.432 Y194.269 E7.18944
G1 X30.731 Y184.568 E8.45693
G1 X29.833 Y184.568 E8.53989
G1 X40.432 Y195.167 E9.92471
G1 X40.432 Y196.065 E10.00767
G1 X28.935 Y184.568 E11.50982
G1 X28.037 Y184.568 E11.59278
G1 X40.432 Y196.963 E13.21226
G1 X40.432 Y197.861 E13.29522
G1 X27.139 Y184.568 E15.03203
G1 X26.241 Y184.568 E15.11499
G1 X40.432 Y198.759 E16.96913
G1 X40.432 Y199.657 E17.05209
G1 X25.343 Y184.568 E19.02356
G1 X24.445 Y184.568 E19.10652
G1 X40.432 Y200.555 E21.19532
G1 X40.432 Y201.453 E21.27828
G1 X23.547 Y184.568 E23.48441
G1 X22.649 Y184.568 E23.56737
G1 X40.432 Y202.351 E25.89082
G1 X40.432 Y203.248 E25.97369
G1 X21.752 Y184.568 E28.41434
G1 X20.854 Y184.568 E28.4973
G1 X40.432 Y204.146 E31.05528
G1 X40.432 Y205.044 E31.13824
G1 X19.956 Y184.568 E33.81355
G1 X19.058 Y184.568 E33.89651
G1 X40.432 Y205.942 E36.68915
G1 X40.432 Y206.84 E36.77211
G1 X18.16 Y184.568 E39.68208
G1 X17.262 Y184.568 E39.76504
G1 X40.432 Y207.738 E42.79234
G1 X40.432 Y208.636 E42.8753
G1 X16.364 Y184.568 E46.01993
G1 X15.466 Y184.568 E46.10289
G1 X40.432 Y209.534 E49.36485
G1 X40.432 Y210.432 E49.44781
G1 X14.568 Y184.568 E52.8271
G1 X14.568 Y185.466 E52.91006
G1 X39.534 Y210.432 E56.17202
G1 X38.636 Y210.432 E56.25498
G1 X14.568 Y186.364 E59.39961
G1 X14.568 Y187.262 E59.48257
G1 X37.738 Y210.432 E62.50987
G1 X36.84 Y210.432 E62.59283
G1 X14.568 Y188.16 E65.5028
G1 X14.568 Y189.058 E65.58576
G1 X35.942 Y210.432 E68.3784
G1 X35.044 Y210.432 E68.46136
G1 X14.568 Y189.956 E71.13667
G1 X14.568 Y190.854 E71.21963
G1 X34.146 Y210.432 E73.77761
G1 X33.248 Y210.432 E73.86057
G1 X14.568 Y191.752 E76.30122
G1 X14.568 Y192.65 E76.38418
G1 X32.35 Y210.432 E78.7075
G1 X31.453 Y210.432 E78.79037
G1 X14.568 Y193.547 E80.9965
G1 X14.568 Y194.445 E81.07946
G1 X30.555 Y210.432 E83.16826
G1 X29.657 Y210.432 E83.25122
G1 X14.568 Y195.343 E85.22269
G1 X14.568 Y196.241 E85.30565
G1 X28.759 Y210.432 E87.15979
G1 X27.861 Y210.432 E87.24275
G1 X14.568 Y197.139 E88.97956
G1 X14.568 Y198.037 E89.06252
G1 X26.963 Y210.432 E90.682
G1 X26.065 Y210.432 E90.76496
G1 X14.568 Y198.935 E92.26711
G1 X14.568 Y199.833 E92.35007
G1 X25.167 Y210.432 E93.73489
G1 X24.269 Y210.432 E93.81785
G1 X14.568 Y200.731 E95.08534
G1 X14.568 Y201.629 E95.1683
G1 X23.371 Y210.432 E96.31846
G1 X22.474 Y210.432 E96.40133
G1 X14.568 Y202.526 E97.4343
G1 X14.568 Y203.424 E97.51726
G1 X21.576 Y210.432 E98.4329
G1 X20.678 Y210.432 E98.51586
G1 X14.568 Y204.322 E99.31417
G1 X14.568 Y205.22 E99.39713
G1 X19.78 Y210.432 E100.07811
G1 X18.882 Y210.432 E100.16107
G1 X14.568 Y206.118 E100.72472
G1 X14.568 Y207.016 E100.80768
G1 X17.984 Y210.432 E101.254
G1 X17.086 Y210.432 E101.33696
G1 X14.568 Y207.914 E101.66595
G1 X14.568 Y208.812 E101.74891
G1 X16.188 Y210.432 E101.96057
G1 X15.29 Y210.432 E102.04353
G1 X14.287 Y209.428 E102.17464
G1 E102.07464 F2400
G92 E0
G1 X40.9 Y125.9 F30000
G1 E.1 F2400
;TYPE:Perimeter
;WIDTH:0.7
G1 F1800
G1 X14.1 Y125.9 E2.53691
G1 X14.1 Y99.1 E4.97382
G1 X40.9 Y99.1 E7.41073
G1 X40.9 Y125.84 E9.84219
G1 X41.525 Y126.525 F30000
G1 F1800
G1 X13.475 Y126.525 E12.39276
G1 X13.475 Y98.475 E14.94333
G1 X41.525 Y98.475 E17.4939
G1 X41.525 Y126.465 E20.03902
G1 X42.15 Y127.15 F30000
;TYPE:External perimeter
G1 F1800
G1 X12.85 Y127.15 E22.70326
G1 X12.85 Y97.85 E25.3675
G1 X42.15 Y97.85 E28.03174
G1 X42.15 Y127.09 E30.69052
G1 X41.764 Y127.046 F30000
G1 E30.59052 F2400
G92 E0
G1 X40.713 Y100.572 F30000
G1 E.1 F2400
;TYPE:Solid infill
;WIDTH:0.710021
G1 F1800
G1 X39.71 Y99.568 E.23111
G1 X38.812 Y99.568 E.31407
G1 X40.432 Y101.188 E.52573
G1 X40.432 Y102.086 E.60869
G1 X37.914 Y99.568 E.93768
G1 X37.016 Y99.568 E1.02064
G1 X40.432 Y102.984 E1.46696
G1 X40.432 Y103.882 E1.54992
G1 X36.118 Y99.568 E2.11357
G1 X35.22 Y99.568 E2.19653
G1 X40.432 Y104.78 E2.87751
G1 X40.432 Y105.678 E2.96047
G1 X34.322 Y99.568 E3.75878
G1 X33.424 Y99.568 E3.84174
G1 X40.432 Y106.576 E4.75738
G1 X40.432 Y107.474 E4.84034
G1 X32.526 Y99.568 E5.87331
G1 X31.628 Y99.568 E5.95627
G1 X40.432 Y108.372 E7.10657
G1 X40.432 Y109.269 E7.18944
G1 X30.731 Y99.568 E8.45693
G1 X29.833 Y99.568 E8.53989
G1 X40.432 Y110.167 E9.92471
G1 X40.432 Y111.065 E10.00767
G1 X28.935 Y99.568 E11.50982
G1 X28.037 Y99.568 E11.59278
G1 X40.432 Y111.963 E13.21226
G1 X40.432 Y112.861 E13.29522
G1 X27.139 Y99.568 E15.03203
G1 X26.241 Y99.568 E15.11499
G1 X40.432 Y113.759 E16.96913
G1 X40.432 Y114.657 E17.05209
G1 X25.343 Y99.568 E19.02356
G1 X24.445 Y99.568 E19.10652
G1 X40.432 Y115.555 E21.19532
G1 X40.432 Y116.453 E21.27828
G1 X23.547 Y99.568 E23.48441
G1 X22.649 Y99.568 E23.56737
G1 X40.432 Y117.351 E25.89082
G1 X40.432 Y118.248 E25.97369
G1 X21.752 Y99.568 E28.41434
G1 X20.854 Y99.568 E28.4973
G1 X40.432 Y119.146 E31.05528
G1 X40.432 Y120.044 E31.13824
G1 X19.956 Y99.568 E33.81355
G1 X19.058 Y99.568 E33.89651
G1 X40.432 Y120.942 E36.68915
G1 X40.432 Y121.84 E36.77211
G1 X18.16 Y99.568 E39.68208
G1 X17.262 Y99.568 E39.76504
G1 X40.432 Y122.738 E42.79234
G1 X40.432 Y123.636 E42.8753
G1 X16.364 Y99.568 E46.01993
G1 X15.466 Y99.568 E46.10289
G1 X40.432 Y124.534 E49.36485
G1 X40.432 Y125.432 E49.44781
G1 X14.568 Y99.568 E52.8271
G1 X14.568 Y100.466 E52.91006
G1 X39.534 Y125.432 E56.17202
G1 X38.636 Y125.432 E56.25498
G1 X14.568 Y101.364 E59.39961
G1 X14.568 Y102.262 E59.48257
G1 X37.738 Y125.432 E62.50987
G1 X36.84 Y125.432 E62.59283
G1 X14.568 Y103.16 E65.5028
G1 X14.568 Y104.058 E65.58576
G1 X35.942 Y125.432 E68.3784
G1 X35.044 Y125.432 E68.46136
G1 X14.568 Y104.956 E71.13667
G1 X14.568 Y105.854 E71.21963
G1 X34.146 Y125.432 E73.77761
G1 X33.248 Y125.432 E73.86057
G1 X14.568 Y106.752 E76.30122
G1 X14.568 Y107.65 E76.38418
G1 X32.35 Y125.432 E78.7075
G1 X31.453 Y125.432 E78.79037
G1 X14.568 Y108.547 E80.9965
G1 X14.568 Y109.445 E81.07946
G1 X30.555 Y125.432 E83.16826
G1 X29.657 Y125.432 E83.25122
G1 X14.568 Y110.343 E85.22269
G1 X14.568 Y111.241 E85.30565
G1 X28.759 Y125.432 E87.15979
G1 X27.861 Y125.432 E87.24275
G1 X14.568 Y112.139 E88.97956
G1 X14.568 Y113.037 E89.06252
G1 X26.963 Y125.432 E90.682
G1 X26.065 Y125.432 E90.76496
G1 X14.568 Y113.935 E92.26711
G1 X14.568 Y114.833 E92.35007
G1 X25.167 Y125.432 E93.73489
G1 X24.269 Y125.432 E93.81785
G1 X14.568 Y115.731 E95.08534
G1 X14.568 Y116.629 E95.1683
G1 X23.371 Y125.432 E96.31846
G1 X22.474 Y125.432 E96.40133
G1 X14.568 Y117.526 E97.4343
G1 X14.568 Y118.424 E97.51726
G1 X21.576 Y125.432 E98.4329
G1 X20.678 Y125.432 E98.51586
G1 X14.568 Y119.322 E99.31417
G1 X14.568 Y120.22 E99.39713
G1 X19.78 Y125.432 E100.07811
G1 X18.882 Y125.432 E100.16107
G1 X14.568 Y121.118 E100.72472
G1 X14.568 Y122.016 E100.80768
G1 X17.984 Y125.432 E101.254
G1 X17.086 Y125.432 E101.33696
G1 X14.568 Y122.914 E101.66595
G1 X14.568 Y123.812 E101.74891
G1 X16.188 Y125.432 E101.96057
G1 X15.29 Y125.432 E102.04353
G1 X14.287 Y124.428 E102.17464
G1 E102.07464 F2400
G92 E0
G1 X40.9 Y40.9 F30000
G1 E.1 F2400
;TYPE:Perimeter
;WIDTH:0.7
G1 F1800
G1 X14.1 Y40.9 E2.53691
G1 X14.1 Y14.1 E4.97382
G1 X40.9 Y14.1 E7.41073
G1 X40.9 Y40.84 E9.84219
G1 X41.525 Y41.525 F30000
G1 F1800
G1 X13.475 Y41.525 E12.39276
G1 X13.475 Y13.475 E14.94333
G1 X41.525 Y13.475 E17.4939
G1 X41.525 Y41.465 E20.03902
G1 X42.15 Y42.15 F30000
;TYPE:External perimeter
G1 F1800
G1 X12.85 Y42.15 E22.70326
G1 X12.85 Y12.85 E25.3675
G1 X42.15 Y12.85 E28.03174
G1 X42.15 Y42.09 E30.69052
G1 X41.764 Y42.046 F30000
G1 E30.59052 F2400
G92 E0
G1 X40.713 Y15.572 F30000
G1 E.1 F2400
;TYPE:Solid infill
;WIDTH:0.710021
G1 F1800
G1 X39.71 Y14.568 E.23111
G1 X38.812 Y14.568 E.31407
G1 X40.432 Y16.188 E.52573
G1 X40.432 Y17.086 E.60869
G1 X37.914 Y14.568 E.93768
G1 X37.016 Y14.568 E1.02064
G1 X40.432 Y17.984 E1.46696
G1 X40.432 Y18.882 E1.54992
G1 X36.118 Y14.568 E2.11357
G1 X35.22 Y14.568 E2.19653
G1 X40.432 Y19.78 E2.87751
G1 X40.432 Y20.678 E2.96047
G1 X34.322 Y14.568 E3.75878
G1 X33.424 Y14.568 E3.84174
G1 X40.432 Y21.576 E4.75738
G1 X40.432 Y22.474 E4.84034
G1 X32.526 Y14.568 E5.87331
G1 X31.628 Y14.568 E5.95627
G1 X40.432 Y23.372 E7.10657
G1 X40.432 Y24.269 E7.18944
G1 X30.731 Y14.568 E8.45693
G1 X29.833 Y14.568 E8.53989
G1 X40.432 Y25.167 E9.92471
G1 X40.432 Y26.065 E10.00767
G1 X28.935 Y14.568 E11.50982
G1 X28.037 Y14.568 E11.59278
G1 X40.432 Y26.963 E13.21226
G1 X40.432 Y27.861 E13.29522
G1 X27.139 Y14.568 E15.03203
G1 X26.241 Y14.568 E15.11499
G1 X40.432 Y28.759 E16.96913
G1 X40.432 Y29.657 E17.05209
G1 X25.343 Y14.568 E19.02356
G1 X24.445 Y14.568 E19.10652
G1 X40.432 Y30.555 E21.19532
G1 X40.432 Y31.453 E21.27828
G1 X23.547 Y14.568 E23.48441
G1 X22.649 Y14.568 E23.56737
G1 X40.432 Y32.351 E25.89082
G1 X40.432 Y33.248 E25.97369
G1 X21.752 Y14.568 E28.41434
G1 X20.854 Y14.568 E28.4973
G1 X40.432 Y34.146 E31.05528
G1 X40.432 Y35.044 E31.13824
G1 X19.956 Y14.568 E33.81355
G1 X19.058 Y14.568 E33.89651
G1 X40.432 Y35.942 E36.68915
G1 X40.432 Y36.84 E36.77211
G1 X18.16 Y14.568 E39.68208
G1 X17.262 Y14.568 E39.76504
G1 X40.432 Y37.738 E42.79234
G1 X40.432 Y38.636 E42.8753
G1 X16.364 Y14.568 E46.01993
G1 X15.466 Y14.568 E46.10289
G1 X40.432 Y39.534 E49.36485
G1 X40.432 Y40.432 E49.44781
G1 X14.568 Y14.568 E52.8271
G1 X14.568 Y15.466 E52.91006
G1 X39.534 Y40.432 E56.17202
G1 X38.636 Y40.432 E56.25498
G1 X14.568 Y16.364 E59.39961
G1 X14.568 Y17.262 E59.48257
G1 X37.738 Y40.432 E62.50987
G1 X36.84 Y40.432 E62.59283
G1 X14.568 Y18.16 E65.5028
G1 X14.568 Y19.058 E65.58576
G1 X35.942 Y40.432 E68.3784
G1 X35.044 Y40.432 E68.46136
G1 X14.568 Y19.956 E71.13667
G1 X14.568 Y20.854 E71.21963
G1 X34.146 Y40.432 E73.77761
G1 X33.248 Y40.432 E73.86057
G1 X14.568 Y21.752 E76.30122
G1 X14.568 Y22.65 E76.38418
G1 X32.35 Y40.432 E78.7075
G1 X31.453 Y40.432 E78.79037
G1 X14.568 Y23.547 E80.9965
G1 X14.568 Y24.445 E81.07946
G1 X30.555 Y40.432 E83.16826
G1 X29.657 Y40.432 E83.25122
G1 X14.568 Y25.343 E85.22269
G1 X14.568 Y26.241 E85.30565
G1 X28.759 Y40.432 E87.15979
G1 X27.861 Y40.432 E87.24275
G1 X14.568 Y27.139 E88.97956
G1 X14.568 Y28.037 E89.06252
G1 X26.963 Y40.432 E90.682
G1 X26.065 Y40.432 E90.76496
G1 X14.568 Y28.935 E92.26711
G1 X14.568 Y29.833 E92.35007
G1 X25.167 Y40.432 E93.73489
G1 X24.269 Y40.432 E93.81785
G1 X14.568 Y30.731 E95.08534
G1 X14.568 Y31.629 E95.1683
G1 X23.371 Y40.432 E96.31846
G1 X22.474 Y40.432 E96.40133
G1 X14.568 Y32.526 E97.4343
G1 X14.568 Y33.424 E97.51726
G1 X21.576 Y40.432 E98.4329
G1 X20.678 Y40.432 E98.51586
G1 X14.568 Y34.322 E99.31417
G1 X14.568 Y35.22 E99.39713
G1 X19.78 Y40.432 E100.07811
G1 X18.882 Y40.432 E100.16107
G1 X14.568 Y36.118 E100.72472
G1 X14.568 Y37.016 E100.80768
G1 X17.984 Y40.432 E101.254
G1 X17.086 Y40.432 E101.33696
G1 X14.568 Y37.914 E101.66595
G1 X14.568 Y38.812 E101.74891
G1 X16.188 Y40.432 E101.96057
G1 X15.29 Y40.432 E102.04353
G1 X14.287 Y39.428 E102.17464
G1 E102.07464 F2400
G92 E0
G1 X99.1 Y40.9 F30000
G1 E.1 F2400
;TYPE:Perimeter
;WIDTH:0.7
G1 F1800
G1 X99.1 Y14.1 E2.53691
G1 X125.9 Y14.1 E4.97382
G1 X125.9 Y40.9 E7.41073
G1 X99.16 Y40.9 E9.84219
G1 X98.475 Y41.525 F30000
G1 F1800
G1 X98.475 Y13.475 E12.39276
G1 X126.525 Y13.475 E14.94333
