; generated by PrusaSlicer 2.6.1+linux-x64-GTK3 on 2023-10-19 at 00:57:08 UTC

; 

; external perimeters extrusion width = 0.45mm
; perimeters extrusion width = 0.45mm
; infill extrusion width = 0.45mm
; solid infill extrusion width = 0.45mm
; top infill extrusion width = 0.40mm
; first layer extrusion width = 0.70mm

;TYPE:Custom
; M190 R30 ; Because of probe temperature drift,
; M109 R30 ; Let the beds and hotend cool down before homing the axis

G28 ; home all axes
G1 Z100.0 F3000 ; Raise head above brush
M190 S100 ; set bed temperature and wait for it to be reached
M109 S255 ; set hot end temp and wait for it

; Brush any crap off the nozzle
G1 X232.0 Y0.0 F3000 ; Goto Start of movement
G1 Z19.0 F3000 ; Lower into brush
G1 X221.0 Y2.0 F3000 ; Goto Start of movement
G1 X229.0 Y4.0 F3000 ; 
G1 X221.0 Y6.0 F3000 ; 
G1 X229.0 Y8.0 F3000 ; 
G1 X221.0 Y10.0 F3000 ;
G1 X229.0 Y12.0 F3000 ;
G1 X221.0 Y14.0 F3000 ;
G1 X229.0 Y16.0 F3000 ;
G1 X221.0 Y18.0 F3000 ;
G1 X229.0 Y20.0 F3000 ;
G1 X221.0 Y22.0 F3000 ;
G1 X229.0 Y24.0 F3000 ;
G1 X221.0 Y26.0 F3000 ;
G1 X229.0 Y28.0 F3000 ;
G1 X221.0 Y30.0 F3000 ;
G1 X229.0 Y28.0 F3000 ;
G1 X221.0 Y26.0 F3000 ;
G1 X229.0 Y24.0 F3000 ;
G1 X221.0 Y22.0 F3000 ;
G1 X229.0 Y20.0 F3000 ;
G1 X221.0 Y18.0 F3000 ;
G1 X229.0 Y16.0 F3000 ;
G1 X221.0 Y14.0 F3000 ;
G1 X229.0 Y12.0 F3000 ;
G1 X221.0 Y10.0 F3000 ;
G1 X229.0 Y8.0 F3000 ; 
G1 X221.0 Y6.0 F3000 ; 
G1 X229.0 Y4.0 F3000 ; 
G1 X221.0 Y2.0 F3000 ; 
G1 X229.0 Y0.0 F3000 ; 
G1 X225.0 Y0.0 F3000 ; 
G1 X225.0 Y30.0 F5000 ; 
G1 X225.0 Y0.0 F5000 ; 
G1 X225.0 Y30.0 F5000 ; 
G1 X225.0 Y0.0 F5000 ; 
G1 X225.0 Y30.0 F5000 ; 

; Do a purge line to prime the extruder
G92 E0 ;Reset Extruder
G1 X227.0 Y80.0 F5000 ; Goto Start of purge
G1 Z0.28 F5000 ;Move Head to start height
G1 X227.0 Y230.0 Z0.28 F1500.0 E15; Draw first line
G1 X226.7 Y230.0 Z0.28 F5000.0 ;Move to side a little
G1 X226.7 Y80.0 Z0.28 F1500.0 E30; Draw the second line
G1 Z0.4 F5000; Move Z Axis Up
G1 Y120 F1500; Wipe to the back
G1 X117.5 Y117.5 Z27.0 F5000 ; Raise head above brush
G92 E0 ;Reset Extruder
G21 ; set units to millimeters
G90 ; use absolute coordinates
M82 ; use absolute distances for extrusion
G92 E0
; Filament gcode
SET_PRESSURE_ADVANCE ADVANCE=0.051
M107
;LAYER_CHANGE
;Z:0.35
;HEIGHT:0.35
G1 Z.35 F30000
G1 E-2 F2400
G92 E0
G1 X48.57 Y109.897 F30000
G1 E2 F2400
;TYPE:Skirt/Brim
;WIDTH:0.7
G1 F1800
G1 X49.211 Y109.738 E2.06005
G1 X199.053 Y109.744 E15.68512
G1 X199.233 Y109.784 E15.70189
G1 X199.579 Y109.928 E15.73597
G1 X199.783 Y110.063 E15.75821
G1 X200.492 Y110.781 E15.84996
G1 X200.591 Y110.937 E15.86676
G1 X200.736 Y111.287 E15.90121
G1 X200.776 Y111.467 E15.91798
G1 X200.782 Y122.492 E16.92048
G1 X200.734 Y122.732 E16.94274
G1 X200.592 Y123.076 E16.97658
G1 X200.456 Y123.279 E16.9988
G1 X199.781 Y123.955 E17.08567
G1 X199.628 Y124.062 E17.10265
G1 X199.234 Y124.231 E17.14163
G1 X198.996 Y124.278 E17.16369
G1 X36.059 Y124.278 E31.97948
G1 X35.796 Y124.221 E32.00395
G1 X35.424 Y124.05 E32.04118
G1 X35.21 Y123.888 E32.06559
G1 X34.49 Y123.036 E32.16702
G1 X34.399 Y122.857 E32.18528
G1 X34.275 Y122.397 E32.2286
G1 X34.268 Y122.193 E32.24716
G1 X34.53 Y120.595 E32.39441
G1 X34.644 Y120.318 E32.42165
G1 X34.886 Y119.921 E32.46393
G1 X35.176 Y119.605 E32.50293
G1 X48.231 Y110.065 E33.97319
G1 X48.516 Y109.924 E34.0021
G1 X48.763 Y110.492 F30000
G1 F1800
G1 X49.253 Y110.363 E34.04817
G1 X198.965 Y110.363 E47.66142
G1 X199.363 Y110.528 E47.7006
G1 X199.992 Y111.157 E47.78149
G1 X200.157 Y111.555 E47.82067
G1 X200.157 Y122.461 E48.81235
G1 X199.992 Y122.859 E48.85153
G1 X199.363 Y123.489 E48.93248
G1 X198.965 Y123.654 E48.97166
G1 X36.092 Y123.654 E63.78163
G1 X36.026 Y123.639 E63.78778
G1 X35.662 Y123.456 E63.82483
G1 X35.021 Y122.707 E63.91447
G1 X34.989 Y122.647 E63.92065
G1 X34.892 Y122.252 E63.95763
G1 X35.125 Y120.79 E64.09225
G1 X35.193 Y120.618 E64.10907
G1 X35.403 Y120.272 E64.14587
G1 X35.569 Y120.092 E64.16813
G1 X48.58 Y110.584 E65.63345
G1 X48.71 Y110.519 E65.64667
G1 X48.968 Y111.082 F30000
G1 F1800
G1 X49.3 Y110.988 E65.67805
G1 X198.872 Y110.988 E79.27857
G1 X198.987 Y111.035 E79.28987
G1 X199.485 Y111.533 E79.35391
G1 X199.532 Y111.648 E79.36521
G1 X199.532 Y122.368 E80.33998
G1 X199.485 Y122.483 E80.35128
G1 X198.987 Y122.981 E80.41532
G1 X198.872 Y123.029 E80.42665
G1 X36.195 Y123.029 E95.2188
G1 X36.07 Y122.971 E95.23133
G1 X35.562 Y122.378 E95.30233
G1 X35.525 Y122.246 E95.3148
G1 X35.723 Y120.972 E95.43203
G1 X35.963 Y120.578 E95.47398
G1 X48.916 Y111.112 E96.93278
G1 E94.93278 F2400
G92 E0
G1 X146.022 Y115.474 F30000
G1 E2 F2400
;TYPE:Perimeter
;WIDTH:0.7
G1 F1800
G1 X195.046 Y115.474 E6.45773
G1 X195.046 Y118.542 E6.7367
G1 X146.925 Y118.542 E11.11232
G1 X146.925 Y118.128 E11.14996
G1 X146.819 Y117.333 E11.22289
G1 X146.576 Y116.547 E11.2977
G1 X146.264 Y115.872 E11.36532
G1 X146.053 Y115.526 E11.40217
G1 X144.638 Y114.85 F30000
G1 F1800
G1 X195.67 Y114.85 E16.04249
G1 X195.67 Y119.167 E16.43503
G1 X146.264 Y119.167 E20.92749
G1 X146.303 Y118.804 E20.96069
G1 X146.303 Y118.196 E21.01598
G1 X146.208 Y117.466 E21.08292
G1 X145.984 Y116.746 E21.15148
G1 X145.729 Y116.195 E21.20669
G1 X145.502 Y115.817 E21.24678
G1 X145.134 Y115.333 E21.30207
G1 X144.681 Y114.891 E21.35962
G1 E19.35962 F2400
G92 E0
G1 X136.94 Y115.474 F30000
G1 E2 F2400
G1 F1800
G1 X136.776 Y115.715 E2.02651
G1 X136.364 Y116.547 E2.11093
G1 X136.223 Y116.965 E2.15104
G1 X136.063 Y117.69 E2.21855
G1 X136.015 Y118.542 E2.29614
G1 X56.025 Y118.542 E9.56959
G1 X56.025 Y118.128 E9.60723
G1 X55.919 Y117.333 E9.68016
G1 X55.676 Y116.547 E9.75497
G1 X55.261 Y115.711 E9.83984
G1 X55.1 Y115.474 E9.86589
G1 X136.88 Y115.474 E17.30211
G1 X138.303 Y114.85 F30000
G1 F1800
G1 X137.664 Y115.52 E17.3863
G1 X137.294 Y116.066 E17.44627
G1 X136.956 Y116.747 E17.5154
G1 X136.732 Y117.466 E17.58388
G1 X136.637 Y118.196 E17.65082
G1 X136.676 Y119.167 E17.73918
G1 X55.364 Y119.167 E25.13284
G1 X55.403 Y118.804 E25.16604
G1 X55.403 Y118.196 E25.22133
G1 X55.308 Y117.466 E25.28827
G1 X55.084 Y116.746 E25.35683
G1 X54.744 Y116.062 E25.42629
G1 X54.37 Y115.513 E25.48669
G1 X53.745 Y114.85 E25.56954
G1 X138.243 Y114.85 E33.2529
G1 E31.2529 F2400
G92 E0
G1 X49.404 Y114.594 F30000
G1 E2 F2400
;WIDTH:0.424722
G1 F1800
G1 X50.098 Y114.087 E2.04372
G1 X50.58 Y114.083 E2.06824
;WIDTH:0.441707
G1 X51.043 Y114.096 E2.09295
;WIDTH:0.467517
G1 X51.506 Y114.108 E2.1194
;WIDTH:0.514013
G1 X51.594 Y114.132 E2.12523
;WIDTH:0.56051
G1 X51.682 Y114.155 E2.13165
;WIDTH:0.607006
G1 X51.771 Y114.178 E2.13876
;WIDTH:0.653503
G1 X51.859 Y114.201 E2.14642
;WIDTH:0.7
G1 X51.947 Y114.225 E2.15471
G1 X140.062 Y114.225 E10.16697
G1 X140.161 Y114.201 E10.17623
;WIDTH:0.652966
G1 X140.26 Y114.178 E10.18478
;WIDTH:0.605932
G1 X140.36 Y114.154 E10.19272
;WIDTH:0.558899
G1 X140.459 Y114.131 E10.19987
;WIDTH:0.511865
G1 X140.559 Y114.107 E10.20641
;WIDTH:0.464832
G1 X140.959 Y114.094 E10.22911
;WIDTH:0.439552
G1 X141.36 Y114.082 E10.25038
;WIDTH:0.427804
G1 X141.919 Y114.089 E10.27907
;WIDTH:0.47317
G1 X142.021 Y114.111 E10.28511
;WIDTH:0.518536
G1 X142.122 Y114.134 E10.29179
;WIDTH:0.563902
G1 X142.223 Y114.157 E10.29916
;WIDTH:0.609268
G1 X142.325 Y114.179 E10.30727
;WIDTH:0.654634
G1 X142.426 Y114.202 E10.31601
;WIDTH:0.7
G1 X142.527 Y114.225 E10.32543
G1 X196.295 Y114.225 E15.21453
G1 X196.295 Y117.008 E15.46759
G1 X196.295 Y119.792 E15.72074
G1 X145.481 Y119.792 E20.34123
G1 X145.634 Y119.175 E20.39903
G1 X145.682 Y118.264 E20.48198
G1 X145.598 Y117.598 E20.54302
G1 X145.392 Y116.946 E20.60519
G1 X144.966 Y116.139 E20.68817
G1 X144.377 Y115.443 E20.77108
G1 X143.652 Y114.889 E20.85405
G1 X143.122 Y114.627 E20.90781
G1 X142.496 Y114.416 E20.96788
G1 X142.398 Y114.42 E20.9768
;WIDTH:0.654634
G1 X142.301 Y114.424 E20.98499
;WIDTH:0.609268
G1 X142.203 Y114.429 E20.99262
;WIDTH:0.563902
G1 X142.105 Y114.433 E20.9996
;WIDTH:0.518536
G1 X142.007 Y114.437 E21.00593
;WIDTH:0.47317
G1 X141.91 Y114.441 E21.01155
;WIDTH:0.428951
G1 X141.028 Y114.441 E21.05696
;WIDTH:0.474125
G1 X140.876 Y114.451 E21.0658
;WIDTH:0.5193
G1 X140.724 Y114.462 E21.07565
;WIDTH:0.564475
G1 X140.572 Y114.473 E21.0865
;WIDTH:0.60965
G1 X140.419 Y114.483 E21.09843
;WIDTH:0.654825
G1 X140.267 Y114.494 E21.11129
;WIDTH:0.7
G1 X140.115 Y114.505 E21.12515
G1 X139.706 Y114.668 E21.16518
G1 X139.191 Y114.959 E21.21897
G1 X138.667 Y115.358 E21.27886
G1 X138.181 Y115.871 E21.34312
G1 X137.811 Y116.417 E21.40309
G1 X137.548 Y116.946 E21.45681
G1 X137.342 Y117.598 E21.51898
G1 X137.258 Y118.264 E21.58002
G1 X137.306 Y119.175 E21.66297
G1 X137.46 Y119.792 E21.72079
G1 X54.581 Y119.792 E29.25694
G1 X54.734 Y119.175 E29.31474
G1 X54.782 Y118.264 E29.39769
G1 X54.698 Y117.598 E29.45873
G1 X54.492 Y116.946 E29.5209
G1 X54.228 Y116.414 E29.5749
G1 X53.854 Y115.864 E29.63538
G1 X53.461 Y115.427 E29.68882
G1 X52.738 Y114.881 E29.7712
G1 X51.909 Y114.5 E29.85416
G1 X51.76 Y114.49 E29.86774
;WIDTH:0.654638
G1 X51.61 Y114.48 E29.88042
;WIDTH:0.609277
G1 X51.46 Y114.47 E29.89211
;WIDTH:0.563916
G1 X51.31 Y114.461 E29.9028
;WIDTH:0.518555
G1 X51.161 Y114.451 E29.91244
;WIDTH:0.473194
G1 X51.011 Y114.441 E29.92115
;WIDTH:0.427833
G1 X50.128 Y114.443 E29.96647
;WIDTH:0.424722
G1 X49.463 Y114.582 E30.00103
G1 E28.00103 F2400
G92 E0
G1 X45.774 Y119.164 F30000
G1 E2 F2400
;WIDTH:0.706269
G1 F1800
G1 X44.449 Y119.164 E2.12169
G1 X45.737 Y118.223 E2.26819
G1 X45.729 Y118.72 E2.31384
G1 X45.768 Y119.104 E2.34929
G1 X46.566 Y119.792 F30000
;WIDTH:0.7
G1 F1800
G1 X42.526 Y119.792 E2.71665
G1 X46.773 Y116.688 E3.19498
G1 X46.613 Y117.06 E3.2318
G1 X46.437 Y117.696 E3.2918
G1 X46.357 Y118.281 E3.34549
G1 X46.357 Y118.72 E3.38541
G1 X46.408 Y119.19 E3.4284
G1 X46.55 Y119.733 E3.47944
G1 E1.47944 F2400
G92 E0
G1 X40.611 Y120.416 F30000
G1 E2 F2400
G1 F1800
G1 X47.257 Y115.56 E2.74844
;WIDTH:0.727562
G1 X47.612 Y115.318 E2.78923
;WIDTH:0.755124
G1 X47.967 Y115.075 E2.8318
;WIDTH:0.793348
G1 X48.675 Y114.581 E2.92203
G1 X48.839 Y114.433 E2.94512
;WIDTH:0.746674
G1 X49.003 Y114.284 E2.96677
;WIDTH:0.7
G1 X49.939 Y113.6 E3.07218
G1 X196.92 Y113.6 E16.43709
G1 X196.92 Y117.008 E16.74698
G1 X196.92 Y120.416 E17.05687
G1 X144.487 Y120.416 E21.82458
G1 X144.802 Y119.849 E21.88356
G1 X145.013 Y119.107 E21.9537
G1 X145.061 Y118.331 E22.0244
G1 X144.987 Y117.731 E22.07937
G1 X144.8 Y117.146 E22.13522
G1 X144.431 Y116.461 E22.20597
G1 X143.923 Y115.873 E22.27663
G1 X143.301 Y115.407 E22.3473
G1 X142.923 Y115.219 E22.38569
G1 X142.297 Y115.008 E22.44576
G1 X141.883 Y114.929 E22.48408
G1 X141.36 Y114.903 E22.53169
G1 X140.655 Y114.998 E22.59637
G1 X139.937 Y115.248 E22.6655
G1 X139.57 Y115.456 E22.70386
G1 X139.045 Y115.855 E22.76382
G1 X138.698 Y116.222 E22.80975
G1 X138.328 Y116.767 E22.86965
G1 X138.14 Y117.146 E22.90812
G1 X137.953 Y117.731 E22.96397
G1 X137.879 Y118.331 E23.01894
G1 X137.927 Y119.107 E23.08964
G1 X138.14 Y119.854 E23.16027
G1 X138.436 Y120.416 E23.21803
G1 X53.587 Y120.416 E30.93331
G1 X53.9 Y119.853 E30.99188
G1 X54.113 Y119.107 E31.06242
G1 X54.161 Y118.331 E31.13312
G1 X54.087 Y117.731 E31.18809
G1 X53.9 Y117.146 E31.24394
G1 X53.711 Y116.765 E31.28261
G1 X53.337 Y116.216 E31.34301
G1 X53.056 Y115.904 E31.38119
G1 X52.445 Y115.433 E31.45134
G1 X51.742 Y115.102 E31.52199
G1 X50.984 Y114.929 E31.59269
G1 X50.46 Y114.903 E31.6404
G1 X49.772 Y114.995 E31.70352
;WIDTH:0.746674
G1 X49.396 Y115.1 E31.74167
;WIDTH:0.793348
G1 X49.02 Y115.205 E31.78247
G1 X48.721 Y115.381 E31.81873
;WIDTH:0.769143
G1 X48.1 Y115.84 E31.89672
G1 X47.957 Y116.016 E31.91962
;WIDTH:0.734571
G1 X47.814 Y116.192 E31.94138
;WIDTH:0.7
G1 X47.382 Y116.839 E32.01212
G1 X47.215 Y117.227 E32.05053
G1 X47.039 Y117.863 E32.11053
G1 X46.982 Y118.281 E32.14889
G1 X46.983 Y118.784 E32.19463
G1 X47.113 Y119.486 E32.25955
G1 X47.259 Y119.883 E32.29801
G1 X47.542 Y120.416 E32.35288
G1 X40.671 Y120.416 E32.97766
G1 E30.97766 F2400
G92 E0
G1 X38.697 Y121.041 F30000
G1 E2 F2400
G1 F1800
G1 X49.735 Y112.975 E3.2431
G1 X197.545 Y112.975 E16.68339
G1 X197.545 Y121.041 E17.41683
G1 X142.999 Y121.041 E22.37667
G1 X143.518 Y120.647 E22.43592
G1 X143.727 Y120.425 E22.46364
G1 X144.21 Y119.65 E22.54668
G1 X144.392 Y119.039 E22.60465
G1 X144.44 Y118.399 E22.66301
G1 X144.348 Y117.763 E22.72144
G1 X144.123 Y117.161 E22.77988
G1 X143.773 Y116.622 E22.83832
G1 X143.315 Y116.171 E22.89677
G1 X142.723 Y115.811 E22.95977
G1 X141.849 Y115.553 E23.04263
G1 X141.208 Y115.54 E23.10093
G1 X140.578 Y115.666 E23.15935
G1 X139.948 Y115.954 E23.22234
G1 X139.423 Y116.353 E23.2823
G1 X139.215 Y116.573 E23.30983
G1 X138.732 Y117.345 E23.39263
G1 X138.564 Y117.863 E23.44215
G1 X138.5 Y118.399 E23.49123
G1 X138.548 Y119.039 E23.54959
G1 X138.732 Y119.655 E23.60805
G1 X139.045 Y120.216 E23.66646
G1 X139.47 Y120.698 E23.72489
G1 X139.975 Y121.041 E23.7804
G1 X52.099 Y121.041 E31.77092
G1 X52.618 Y120.647 E31.83017
G1 X52.826 Y120.426 E31.85777
G1 X53.308 Y119.654 E31.94053
G1 X53.492 Y119.039 E31.9989
G1 X53.54 Y118.399 E32.05726
G1 X53.448 Y117.763 E32.11569
G1 X53.194 Y117.117 E32.17881
G1 X52.652 Y116.38 E32.262
G1 X52.153 Y115.985 E32.31987
G1 X51.575 Y115.704 E32.37831
G1 X50.95 Y115.553 E32.43678
G1 X50.308 Y115.54 E32.49517
G1 X49.678 Y115.666 E32.55359
G1 X49.089 Y115.924 E32.61206
G1 X48.57 Y116.302 E32.67044
G1 X48.145 Y116.784 E32.72887
G1 X47.817 Y117.394 E32.79185
G1 X47.607 Y118.281 E32.87473
G1 X47.629 Y118.922 E32.93305
G1 X47.811 Y119.59 E32.99601
G1 X48.12 Y120.173 E33.05601
G1 X48.304 Y120.415 E33.08365
G1 X48.783 Y120.868 E33.1436
G1 X49.037 Y121.041 E33.17154
G1 X38.757 Y121.041 E34.1063
G1 X36.994 Y121.666 F30000
;TYPE:External perimeter
G1 F1800
G1 X37.021 Y121.492 E34.12231
G1 X49.531 Y112.35 E35.53121
G1 X198.17 Y112.35 E49.04688
G1 X198.17 Y117.008 E49.47043
G1 X198.17 Y121.666 E49.89398
G1 X142.747 Y121.666 E54.93357
;WIDTH:0.746141
G1 X142.547 Y121.643 E54.95323
;WIDTH:0.792283
G1 X142.347 Y121.62 E54.97424
;WIDTH:0.838425
G1 X142.147 Y121.597 E54.9966
G1 X141.698 Y121.615 E55.04651
;WIDTH:0.809507
G1 X141.101 Y121.611 E55.11031
G1 X140.901 Y121.63 E55.13178
;WIDTH:0.773004
G1 X140.701 Y121.648 E55.15217
;WIDTH:0.736502
G1 X140.501 Y121.666 E55.1715
;WIDTH:0.7
G1 X51.847 Y121.666 E63.23277
;WIDTH:0.746142
G1 X51.647 Y121.643 E63.25243
;WIDTH:0.792284
G1 X51.447 Y121.62 E63.27344
;WIDTH:0.838426
G1 X51.247 Y121.597 E63.2958
G1 X50.798 Y121.615 E63.34571
;WIDTH:0.809508
G1 X50.201 Y121.611 E63.40951
G1 X50 Y121.63 E63.43109
;WIDTH:0.773005
G1 X49.8 Y121.648 E63.45148
;WIDTH:0.736502
G1 X49.6 Y121.666 E63.47081
;WIDTH:0.7
G1 X37.054 Y121.666 E64.61161
G1 E62.61161 F2400
G92 E0
G1 X140.397 Y116.421 F30000
G1 E2 F2400
G1 F1800
G1 X140.809 Y116.246 E2.0407
G1 X141.309 Y116.157 E2.08688
G1 X141.816 Y116.177 E2.13302
G1 X142.524 Y116.403 E2.2006
G1 X142.965 Y116.688 E2.24835
G1 X143.319 Y117.052 E2.29452
G1 X143.587 Y117.483 E2.34067
G1 X143.756 Y117.962 E2.38686
G1 X143.818 Y118.466 E2.43303
G1 X143.771 Y118.972 E2.47924
G1 X143.617 Y119.45 E2.5249
G1 X143.209 Y120.075 E2.59277
G1 X142.614 Y120.549 E2.66194
;WIDTH:0.741462
G1 X142.38 Y120.671 E2.68753
;WIDTH:0.782925
G1 X142.146 Y120.792 E2.71466
;WIDTH:0.810316
G1 X142.112 Y120.816 E2.71911
;WIDTH:0.837707
G1 X142.077 Y120.84 E2.72382
G1 X141.561 Y120.895 E2.7814
;WIDTH:0.822591
G1 X141.04 Y120.871 E2.83813
G1 X140.879 Y120.801 E2.85723
;WIDTH:0.781727
G1 X140.717 Y120.731 E2.87538
;WIDTH:0.740863
G1 X140.556 Y120.661 E2.89239
;WIDTH:0.7
G1 X139.99 Y120.321 E2.95243
G1 X139.621 Y119.948 E3.00014
G1 X139.353 Y119.517 E3.04629
G1 X139.169 Y118.972 E3.09859
G1 X139.122 Y118.466 E3.1448
G1 X139.184 Y117.962 E3.19097
G1 X139.362 Y117.469 E3.23863
G1 X139.732 Y116.923 E3.2986
G1 X140.342 Y116.444 E3.36912
G1 X140.394 Y116.021 F30000
G1 E1.36912 F2400
G92 E0
G1 X48.65 Y119.811 F30000
G1 E2 F2400
G1 F1800
G1 X48.363 Y119.297 E2.05353
G1 X48.232 Y118.72 E2.10733
G1 X48.243 Y118.197 E2.1549
G1 X48.419 Y117.561 E2.2149
G1 X48.68 Y117.106 E2.2626
G1 X49.024 Y116.732 E2.30881
G1 X49.44 Y116.441 E2.35497
G1 X49.909 Y116.246 E2.40116
G1 X50.409 Y116.157 E2.44734
G1 X50.917 Y116.177 E2.49357
