; generated by PrusaSlicer 2.6.1+linux-x64-GTK3 on 2023-10-16 at 17:04:31 UTC

; 

; external perimeters extrusion width = 0.45mm
; perimeters extrusion width = 0.45mm
; infill extrusion width = 0.45mm
; solid infill extrusion width = 0.45mm
; top infill extrusion width = 0.40mm
; first layer extrusion width = 0.70mm

;TYPE:Custom
; M190 R30 ; Because of probe temperature drift,
; M109 R30 ; Let the beds and hotend cool down before homing the axis

G28 ; home all axes
G1 Z100.0 F3000 ; Raise head above brush
M190 S65 ; set bed temperature and wait for it to be reached
M109 S205 ; set hot end temp and wait for it

; Brush any crap off the nozzle
G1 X232.0 Y0.0 F3000 ; Goto Start of movement
G1 Z19.0 F3000 ; Lower into brush
G1 X221.0 Y2.0 F3000 ; Goto Start of movement
G1 X229.0 Y4.0 F3000 ; 
G1 X221.0 Y6.0 F3000 ; 
G1 X229.0 Y8.0 F3000 ; 
G1 X221.0 Y10.0 F3000 ;
G1 X229.0 Y12.0 F3000 ;
G1 X221.0 Y14.0 F3000 ;
G1 X229.0 Y16.0 F3000 ;
G1 X221.0 Y18.0 F3000 ;
G1 X229.0 Y20.0 F3000 ;
G1 X221.0 Y22.0 F3000 ;
G1 X229.0 Y24.0 F3000 ;
G1 X221.0 Y26.0 F3000 ;
G1 X229.0 Y28.0 F3000 ;
G1 X221.0 Y30.0 F3000 ;
G1 X229.0 Y28.0 F3000 ;
G1 X221.0 Y26.0 F3000 ;
G1 X229.0 Y24.0 F3000 ;
G1 X221.0 Y22.0 F3000 ;
G1 X229.0 Y20.0 F3000 ;
G1 X221.0 Y18.0 F3000 ;
G1 X229.0 Y16.0 F3000 ;
G1 X221.0 Y14.0 F3000 ;
G1 X229.0 Y12.0 F3000 ;
G1 X221.0 Y10.0 F3000 ;
G1 X229.0 Y8.0 F3000 ; 
G1 X221.0 Y6.0 F3000 ; 
G1 X229.0 Y4.0 F3000 ; 
G1 X221.0 Y2.0 F3000 ; 
G1 X229.0 Y0.0 F3000 ; 
G1 X225.0 Y0.0 F3000 ; 
G1 X225.0 Y30.0 F5000 ; 
G1 X225.0 Y0.0 F5000 ; 
G1 X225.0 Y30.0 F5000 ; 
G1 X225.0 Y0.0 F5000 ; 
G1 X225.0 Y30.0 F5000 ; 

; Do a purge line to prime the extruder
G92 E0 ;Reset Extruder
G1 X227.0 Y80.0 F5000 ; Goto Start of purge
G1 Z0.28 F5000 ;Move Head to start height
G1 X227.0 Y230.0 Z0.28 F1500.0 E15; Draw first line
G1 X226.7 Y230.0 Z0.28 F5000.0 ;Move to side a little
G1 X226.7 Y80.0 Z0.28 F1500.0 E30; Draw the second line
G1 Z0.4 F5000; Move Z Axis Up
G1 Y120 F1500; Wipe to the back
G1 X117.5 Y117.5 Z27.0 F5000 ; Raise head above brush
G92 E0 ;Reset Extruder
G21 ; set units to millimeters
G90 ; use absolute coordinates
M82 ; use absolute distances for extrusion
G92 E0
; Filament gcode
SET_PRESSURE_ADVANCE ADVANCE=0.0944
M107
;LAYER_CHANGE
;Z:0.35
;HEIGHT:0.35
G1 Z.35 F30000
G1 E-.1 F2400
G92 E0
G1 X42.84 Y109.897 F30000
G1 E.1 F2400
;TYPE:Skirt/Brim
;WIDTH:0.7
G1 F1800
G1 X43.481 Y109.738 E.16005
G1 X205.373 Y109.744 E14.88082
G1 X205.553 Y109.784 E14.89759
G1 X205.899 Y109.928 E14.93167
G1 X206.103 Y110.063 E14.95391
G1 X206.812 Y110.781 E15.04566
G1 X206.911 Y110.937 E15.06246
G1 X207.056 Y111.287 E15.09691
G1 X207.096 Y111.467 E15.11368
G1 X207.102 Y122.492 E16.11618
G1 X207.054 Y122.732 E16.13844
G1 X206.912 Y123.076 E16.17228
G1 X206.776 Y123.279 E16.1945
G1 X206.101 Y123.955 E16.28137
G1 X205.948 Y124.062 E16.29835
G1 X205.554 Y124.231 E16.33733
G1 X205.316 Y124.278 E16.35939
G1 X29.978 Y124.278 E32.3028
G1 X29.479 Y124.159 E32.34945
G1 X28.982 Y123.906 E32.40016
G1 X28.698 Y123.687 E32.43277
G1 X28.024 Y122.786 E32.53508
G1 X27.951 Y122.619 E32.55165
G1 X27.854 Y122.197 E32.59102
G1 X27.851 Y122.012 E32.60784
G1 X28.012 Y121.013 E32.69985
G1 X28.08 Y120.84 E32.71675
G1 X28.275 Y120.52 E32.75082
G1 X28.441 Y120.339 E32.77315
G1 X42.501 Y110.065 E34.35657
G1 X42.786 Y109.924 E34.38548
G1 X43.033 Y110.492 F30000
G1 F1800
G1 X43.523 Y110.363 E34.43155
G1 X205.285 Y110.363 E49.1405
G1 X205.683 Y110.528 E49.17968
G1 X206.312 Y111.157 E49.26057
G1 X206.477 Y111.555 E49.29975
G1 X206.477 Y122.461 E50.29143
G1 X206.312 Y122.859 E50.33061
G1 X205.683 Y123.489 E50.41156
G1 X205.285 Y123.654 E50.45074
G1 X30.015 Y123.654 E66.38797
G1 X29.729 Y123.585 E66.41472
G1 X29.295 Y123.365 E66.45896
G1 X29.122 Y123.226 E66.47914
G1 X28.575 Y122.491 E66.56245
G1 X28.476 Y122.135 E66.59605
G1 X28.611 Y121.194 E66.68249
G1 X28.835 Y120.826 E66.72166
G1 X42.85 Y110.584 E68.30006
G1 X42.98 Y110.519 E68.31328
G1 X43.238 Y111.082 F30000
G1 F1800
G1 X43.57 Y110.988 E68.34466
G1 X205.192 Y110.988 E83.04088
G1 X205.307 Y111.035 E83.05218
G1 X205.805 Y111.533 E83.11622
G1 X205.852 Y111.648 E83.12752
G1 X205.852 Y122.368 E84.10229
G1 X205.805 Y122.483 E84.11359
G1 X205.307 Y122.981 E84.17763
G1 X205.192 Y123.029 E84.18896
G1 X30.051 Y123.029 E100.11446
G1 X29.98 Y123.011 E100.12112
G1 X29.615 Y122.826 E100.15833
G1 X29.559 Y122.779 E100.16498
G1 X29.135 Y122.198 E100.23038
G1 X29.105 Y122.077 E100.24172
G1 X29.214 Y121.382 E100.30569
G1 X29.278 Y121.276 E100.31695
G1 X43.186 Y111.112 E101.88331
G1 E101.78331 F2400
G92 E0
G1 X164.392 Y115.474 F30000
G1 E.1 F2400
;TYPE:Perimeter
;WIDTH:0.7
G1 F1800
G1 X201.366 Y115.474 E3.46203
G1 X201.366 Y118.542 E3.741
G1 X165.295 Y118.542 E7.02092
G1 X165.295 Y118.128 E7.05856
G1 X165.189 Y117.333 E7.13149
G1 X164.946 Y116.547 E7.2063
G1 X164.634 Y115.872 E7.27392
G1 X164.423 Y115.526 E7.31077
G1 X163.008 Y114.85 F30000
G1 F1800
G1 X201.99 Y114.85 E10.85538
G1 X201.99 Y119.167 E11.24792
G1 X164.634 Y119.167 E14.64468
G1 X164.673 Y118.804 E14.67788
G1 X164.673 Y118.196 E14.73317
G1 X164.578 Y117.466 E14.80011
G1 X164.354 Y116.746 E14.86867
G1 X164.099 Y116.195 E14.92388
G1 X163.872 Y115.817 E14.96397
G1 X163.504 Y115.333 E15.01926
G1 X163.051 Y114.891 E15.07681
G1 E14.97681 F2400
G92 E0
G1 X155.295 Y115.474 F30000
G1 E.1 F2400
G1 F1800
G1 X154.975 Y116.006 E.15645
G1 X154.79 Y116.406 E.19652
G1 X154.516 Y117.299 E.28146
G1 X154.41 Y117.955 E.34188
G1 X154.395 Y118.542 E.39527
G1 X50.303 Y118.542 E9.86031
G1 X50.303 Y118.28 E9.88413
G1 X50.222 Y117.541 E9.95173
G1 X50.128 Y117.11 E9.99184
G1 X49.89 Y116.406 E10.05941
G1 X49.705 Y116.006 E10.09948
G1 X49.365 Y115.474 E10.15689
G1 X155.235 Y115.474 E19.7836
G1 X156.673 Y114.85 F30000
G1 F1800
G1 X156.121 Y115.398 E19.85433
G1 X155.855 Y115.748 E19.8943
G1 X155.542 Y116.269 E19.94957
G1 X155.357 Y116.669 E19.98964
G1 X155.133 Y117.399 E20.05907
G1 X155.027 Y118.055 E20.11949
G1 X155.007 Y118.811 E20.18826
G1 X155.046 Y119.167 E20.22082
G1 X49.629 Y119.167 E29.80634
G1 X49.678 Y118.28 E29.88712
G1 X49.612 Y117.675 E29.94246
G1 X49.517 Y117.245 E29.9825
G1 X49.323 Y116.669 E30.03777
G1 X49.138 Y116.269 E30.07784
G1 X48.729 Y115.628 E30.14698
G1 X48.301 Y115.125 E30.20703
G1 X47.994 Y114.85 E30.24451
G1 X156.613 Y114.85 E40.12118
G1 E40.02118 F2400
G92 E0
G1 X43.654 Y114.609 F30000
G1 E.1 F2400
;WIDTH:0.424724
G1 F1800
G1 X44.368 Y114.087 E.145
G1 X44.73 Y114.082 E.16342
;WIDTH:0.427805
G1 X45.289 Y114.089 E.19211
;WIDTH:0.47317
G1 X45.391 Y114.111 E.19815
;WIDTH:0.518536
G1 X45.492 Y114.134 E.20483
;WIDTH:0.563902
G1 X45.593 Y114.157 E.2122
;WIDTH:0.609268
G1 X45.695 Y114.179 E.22031
;WIDTH:0.654634
G1 X45.796 Y114.202 E.22905
;WIDTH:0.7
G1 X45.898 Y114.225 E.23856
G1 X158.432 Y114.225 E10.47122
G1 X158.531 Y114.201 E10.48048
;WIDTH:0.652966
G1 X158.63 Y114.178 E10.48903
;WIDTH:0.605932
G1 X158.73 Y114.154 E10.49697
;WIDTH:0.558898
G1 X158.829 Y114.131 E10.50412
;WIDTH:0.511864
G1 X158.929 Y114.107 E10.51066
;WIDTH:0.464831
G1 X159.329 Y114.094 E10.53336
;WIDTH:0.439553
G1 X159.73 Y114.082 E10.55463
;WIDTH:0.427805
G1 X160.289 Y114.089 E10.58332
;WIDTH:0.47317
G1 X160.391 Y114.111 E10.58936
;WIDTH:0.518536
G1 X160.492 Y114.134 E10.59604
;WIDTH:0.563902
G1 X160.593 Y114.157 E10.60341
;WIDTH:0.609268
G1 X160.695 Y114.179 E10.61152
;WIDTH:0.654634
G1 X160.796 Y114.202 E10.62026
;WIDTH:0.7
G1 X160.897 Y114.225 E10.62968
G1 X202.615 Y114.225 E14.42308
G1 X202.615 Y117.008 E14.67614
G1 X202.615 Y119.792 E14.92929
G1 X163.851 Y119.792 E18.45408
G1 X164.004 Y119.175 E18.51188
G1 X164.052 Y118.264 E18.59483
G1 X163.968 Y117.598 E18.65587
G1 X163.762 Y116.946 E18.71804
G1 X163.336 Y116.139 E18.80102
G1 X162.747 Y115.443 E18.88393
G1 X162.022 Y114.889 E18.9669
G1 X161.492 Y114.627 E19.02066
G1 X160.866 Y114.416 E19.08073
G1 X160.768 Y114.42 E19.08965
;WIDTH:0.654634
G1 X160.671 Y114.424 E19.09784
;WIDTH:0.609268
G1 X160.573 Y114.429 E19.10547
;WIDTH:0.563902
G1 X160.475 Y114.433 E19.11245
;WIDTH:0.518536
G1 X160.377 Y114.437 E19.11878
;WIDTH:0.47317
G1 X160.28 Y114.441 E19.1244
;WIDTH:0.428952
G1 X159.398 Y114.441 E19.16981
;WIDTH:0.474126
G1 X159.246 Y114.451 E19.17865
;WIDTH:0.519301
G1 X159.094 Y114.462 E19.1885
;WIDTH:0.564476
G1 X158.942 Y114.473 E19.19935
;WIDTH:0.60965
G1 X158.789 Y114.483 E19.21128
;WIDTH:0.654825
G1 X158.637 Y114.494 E19.22414
;WIDTH:0.7
G1 X158.485 Y114.505 E19.238
G1 X158.076 Y114.668 E19.27803
G1 X157.561 Y114.959 E19.33182
G1 X157.036 Y115.359 E19.39184
G1 X156.619 Y115.776 E19.44546
G1 X156.353 Y116.126 E19.48543
G1 X155.924 Y116.931 E19.56837
G1 X155.75 Y117.499 E19.62239
G1 X155.644 Y118.155 E19.68281
G1 X155.628 Y118.743 E19.7363
G1 X155.676 Y119.176 E19.77591
G1 X155.83 Y119.792 E19.83365
G1 X48.85 Y119.792 E29.56129
G1 X49.002 Y119.191 E29.61766
G1 X49.053 Y118.28 E29.70063
G1 X48.907 Y117.379 E29.78363
G1 X48.571 Y116.531 E29.86657
G1 X48.252 Y116.033 E29.92035
G1 X47.825 Y115.53 E29.98035
G1 X47.386 Y115.136 E30.03399
G1 X47.022 Y114.889 E30.07399
G1 X46.492 Y114.627 E30.12775
G1 X45.866 Y114.416 E30.18782
G1 X45.768 Y114.42 E30.19674
;WIDTH:0.654634
G1 X45.671 Y114.424 E30.20493
;WIDTH:0.609268
G1 X45.573 Y114.429 E30.21256
;WIDTH:0.563902
G1 X45.475 Y114.433 E30.21954
;WIDTH:0.518536
G1 X45.377 Y114.437 E30.22587
;WIDTH:0.47317
G1 X45.28 Y114.441 E30.23149
;WIDTH:0.427805
G1 X44.73 Y114.421 E30.25974
;WIDTH:0.424724
G1 X43.963 Y114.514 E30.29905
G1 X43.711 Y114.592 E30.31247
G1 E30.21247 F2400
G92 E0
G1 X40.02 Y118.626 F30000
G1 E.1 F2400
;WIDTH:0.707427
G1 F1800
G1 X40.042 Y119.163 E.14945
G1 X38.721 Y119.163 E.271
G1 X40.003 Y118.226 E.41711
G1 X40.017 Y118.566 E.44842
G1 X40.647 Y118.619 F30000
;WIDTH:0.7
G1 F1800
G1 X40.676 Y119.175 E.49905
G1 X40.83 Y119.792 E.55687
G1 X36.796 Y119.792 E.92368
G1 X41.048 Y116.684 E1.40259
G1 X40.777 Y117.365 E1.46924
G1 X40.628 Y118.264 E1.5521
G1 X40.643 Y118.559 E1.57896
G1 E1.47896 F2400
G92 E0
G1 X34.881 Y120.416 F30000
G1 E.1 F2400
G1 F1800
G1 X40.905 Y116.015 E.77837
;WIDTH:0.741622
G1 X41.323 Y115.735 E.82717
;WIDTH:0.783244
G1 X41.741 Y115.455 E.87901
G1 X42.242 Y115.072 E.94399
;WIDTH:0.771134
G1 X42.667 Y114.771 E.99674
G1 X42.925 Y114.561 E1.03043
;WIDTH:0.735567
G1 X43.182 Y114.35 E1.06239
;WIDTH:0.7
G1 X44.209 Y113.6 E1.17803
G1 X203.24 Y113.6 E15.63864
G1 X203.24 Y117.008 E15.94853
G1 X203.24 Y120.416 E16.25842
G1 X162.857 Y120.416 E19.93043
G1 X163.172 Y119.849 E19.98941
G1 X163.383 Y119.107 E20.05955
G1 X163.431 Y118.331 E20.13025
G1 X163.357 Y117.731 E20.18522
G1 X163.17 Y117.146 E20.24107
G1 X162.801 Y116.461 E20.31182
G1 X162.293 Y115.873 E20.38248
G1 X161.671 Y115.407 E20.45315
G1 X161.293 Y115.219 E20.49154
G1 X160.667 Y115.008 E20.55161
G1 X160.253 Y114.929 E20.58993
G1 X159.73 Y114.903 E20.63754
G1 X159.025 Y114.998 E20.70222
G1 X158.307 Y115.248 E20.77135
G1 X157.94 Y115.456 E20.80971
G1 X157.414 Y115.856 E20.8698
G1 X157.116 Y116.154 E20.90812
G1 X156.85 Y116.504 E20.94809
G1 X156.491 Y117.193 E21.01873
G1 X156.367 Y117.599 E21.05733
G1 X156.26 Y118.255 E21.11777
G1 X156.25 Y118.675 E21.15597
G1 X156.297 Y119.108 E21.19557
G1 X156.51 Y119.854 E21.26611
G1 X156.806 Y120.416 E21.32387
G1 X47.878 Y120.416 E31.22864
G1 X48.189 Y119.807 E31.29082
G1 X48.392 Y119.056 E31.36156
G1 X48.428 Y118.28 E31.4322
G1 X48.297 Y117.513 E31.50295
G1 X48.004 Y116.793 E31.57363
G1 X47.776 Y116.438 E31.61199
G1 X47.349 Y115.934 E31.67205
G1 X47.035 Y115.653 E31.71037
G1 X46.671 Y115.407 E31.75032
G1 X46.293 Y115.219 E31.78871
G1 X45.667 Y115.008 E31.84878
G1 X45.253 Y114.929 E31.8871
G1 X44.73 Y114.903 E31.93471
G1 X44.042 Y114.995 E31.99783
G1 X43.636 Y115.12 E32.03646
;WIDTH:0.735567
G1 X43.328 Y115.244 E32.06837
;WIDTH:0.771134
G1 X43.019 Y115.368 E32.10209
G1 X42.662 Y115.605 E32.14549
;WIDTH:0.783244
G1 X42.205 Y115.987 E32.20687
G1 X42.133 Y116.104 E32.22103
;WIDTH:0.747541
G1 X42.061 Y116.221 E32.23447
;WIDTH:0.711838
G1 X41.694 Y116.775 E32.29604
;WIDTH:0.7
G1 X41.508 Y117.151 E32.33418
G1 X41.369 Y117.564 E32.3738
G1 X41.249 Y118.331 E32.44439
G1 X41.297 Y119.107 E32.51509
G1 X41.51 Y119.854 E32.58572
G1 X41.806 Y120.416 E32.64348
G1 X34.941 Y120.416 E33.26771
G1 E33.16771 F2400
G92 E0
G1 X32.967 Y121.041 F30000
G1 E.1 F2400
G1 F1800
G1 X44.005 Y112.975 E1.3431
G1 X203.865 Y112.975 E15.87909
G1 X203.865 Y121.041 E16.61253
G1 X161.369 Y121.041 E20.47667
G1 X161.888 Y120.647 E20.53592
G1 X162.097 Y120.425 E20.56364
G1 X162.58 Y119.65 E20.64668
G1 X162.762 Y119.039 E20.70465
G1 X162.81 Y118.399 E20.76301
G1 X162.718 Y117.763 E20.82144
G1 X162.493 Y117.161 E20.87988
G1 X162.143 Y116.622 E20.93832
G1 X161.685 Y116.171 E20.99677
G1 X161.093 Y115.811 E21.05977
G1 X160.219 Y115.553 E21.14263
G1 X159.578 Y115.54 E21.20093
G1 X158.948 Y115.666 E21.25935
G1 X158.318 Y115.954 E21.32234
G1 X157.614 Y116.532 E21.40517
G1 X157.243 Y117.056 E21.46355
G1 X156.984 Y117.699 E21.52658
G1 X156.877 Y118.355 E21.58702
G1 X156.918 Y119.04 E21.64942
G1 X157.102 Y119.655 E21.70779
G1 X157.415 Y120.216 E21.7662
G1 X157.84 Y120.698 E21.82463
G1 X158.345 Y121.041 E21.88014
G1 X46.369 Y121.041 E32.06206
G1 X47.066 Y120.468 E32.14411
G1 X47.437 Y119.944 E32.20249
G1 X47.687 Y119.352 E32.26092
G1 X47.803 Y118.72 E32.31935
G1 X47.781 Y118.078 E32.37776
G1 X47.622 Y117.456 E32.43614
G1 X47.3 Y116.842 E32.49918
G1 X46.684 Y116.17 E32.58207
G1 X46.093 Y115.811 E32.64495
G1 X45.219 Y115.553 E32.72781
G1 X44.578 Y115.54 E32.78611
G1 X43.9 Y115.687 E32.84919
G1 X43.297 Y115.967 E32.90964
G1 X43.085 Y116.103 E32.93254
G1 X42.584 Y116.574 E32.99507
G1 X42.1 Y117.35 E33.07823
G1 X41.918 Y117.961 E33.1362
G1 X41.871 Y118.61 E33.19537
G1 X41.962 Y119.237 E33.25298
G1 X42.187 Y119.839 E33.31142
G1 X42.573 Y120.414 E33.37439
G1 X43.053 Y120.868 E33.43447
G1 X43.307 Y121.041 E33.46241
G1 X33.027 Y121.041 E34.39717
G1 E34.29717 F2400
G92 E0
G1 X31.053 Y121.666 F30000
G1 E.1 F2400
;TYPE:External perimeter
G1 F1800
G1 X43.801 Y112.35 E1.53571
G1 X204.49 Y112.35 E16.14708
G1 X204.49 Y117.008 E16.57063
G1 X204.49 Y121.666 E16.99418
G1 X161.117 Y121.666 E20.93807
;WIDTH:0.746142
G1 X160.917 Y121.643 E20.95773
;WIDTH:0.792284
G1 X160.717 Y121.62 E20.97874
;WIDTH:0.838427
G1 X160.517 Y121.597 E21.0011
G1 X160.068 Y121.615 E21.05101
;WIDTH:0.809506
G1 X159.471 Y121.611 E21.11481
G1 X159.271 Y121.63 E21.13628
;WIDTH:0.773004
G1 X159.071 Y121.648 E21.15667
;WIDTH:0.736502
G1 X158.871 Y121.666 E21.176
;WIDTH:0.7
G1 X46.117 Y121.666 E31.42867
;WIDTH:0.746142
G1 X45.917 Y121.643 E31.44833
;WIDTH:0.792284
G1 X45.717 Y121.62 E31.46934
;WIDTH:0.838427
G1 X45.517 Y121.597 E31.4917
G1 X45.068 Y121.615 E31.54161
;WIDTH:0.809506
G1 X44.471 Y121.611 E31.60541
G1 X44.27 Y121.63 E31.62699
;WIDTH:0.773004
G1 X44.07 Y121.648 E31.64738
;WIDTH:0.736502
G1 X43.87 Y121.666 E31.66671
;WIDTH:0.7
G1 X31.113 Y121.666 E32.8267
G1 E32.7267 F2400
G92 E0
G1 X160.894 Y120.596 F30000
G1 E.1 F2400
;WIDTH:0.741462
G1 F1800
G1 X160.75 Y120.671 E.11574
;WIDTH:0.782925
G1 X160.516 Y120.792 E.14287
;WIDTH:0.810317
G1 X160.482 Y120.816 E.14732
;WIDTH:0.837709
G1 X160.447 Y120.84 E.15203
G1 X159.931 Y120.895 E.20961
;WIDTH:0.82259
G1 X159.41 Y120.871 E.26634
G1 X159.249 Y120.801 E.28544
;WIDTH:0.781726
G1 X159.087 Y120.731 E.30359
;WIDTH:0.740863
G1 X158.926 Y120.661 E.3206
;WIDTH:0.7
G1 X158.36 Y120.321 E.38064
G1 X157.991 Y119.948 E.42835
G1 X157.723 Y119.517 E.4745
G1 X157.554 Y119.038 E.52069
G1 X157.492 Y118.539 E.56641
G1 X157.601 Y117.799 E.63442
G1 X157.81 Y117.318 E.68211
G1 X158.111 Y116.91 E.72821
G1 X158.696 Y116.451 E.79582
G1 X159.179 Y116.246 E.84353
G1 X159.679 Y116.157 E.88971
G1 X160.186 Y116.177 E.93585
G1 X160.894 Y116.403 E1.00343
G1 X161.335 Y116.688 E1.05118
G1 X161.689 Y117.052 E1.09735
G1 X161.957 Y117.483 E1.1435
G1 X162.126 Y117.962 E1.18969
G1 X162.188 Y118.466 E1.23586
G1 X162.141 Y118.972 E1.28207
G1 X161.988 Y119.45 E1.32771
G1 X161.579 Y120.075 E1.39563
G1 X160.984 Y120.549 E1.4648
;WIDTH:0.741462
G1 X160.948 Y120.568 E1.46875
G1 E1.36875 F2400
G92 E0
G1 X42.499 Y118.457 F30000
G1 E.1 F2400
;WIDTH:0.7
G1 F1800
G1 X42.539 Y118.028 E.13918
