; generated by PrusaSlicer 2.6.1+linux-x64-GTK3 on 2023-10-12 at 01:40:46 UTC

; 

; external perimeters extrusion width = 0.45mm
; perimeters extrusion width = 0.45mm
; infill extrusion width = 0.45mm
; solid infill extrusion width = 0.45mm
; top infill extrusion width = 0.40mm
; support material extrusion width = 0.40mm
; first layer extrusion width = 0.70mm

;TYPE:Custom
; M190 R30 ; Because of probe temperature drift,
; M109 R30 ; Let the beds and hotend cool down before homing the axis

G28 ; home all axes
G1 Z5 F5000 ; lift nozzle
M190 S65 ; set bed temperature and wait for it to be reached
M109 S205 ; set hot end temp and wait for it

; Brush any crap off the nozzle
; """""

; Do a purge line to prime the extruder
G92 E0 ;Reset Extruder
G1 Z27.0 F3000 ; Raise head above brush
G1 X227.0 Y90.0 F3000 ; Goto Start of purge
G1 Z0.28 F5000 ;Move Head to start height
G1 X227.0 Y220.0 Z0.28 F1500.0 E15; Draw first line
G1 X226.7 Y220.0 Z0.28 F5000.0 ;Move to side a little
G1 X226.7 Y90.0 Z0.28 F1500.0 E30; Draw the second line
G1 Z0.4 F3000; Move Z Axis Up
G1 Y120 F1500; Wipe to the back
G92 E0 ;Reset Extruder
G21 ; set units to millimeters
G90 ; use absolute coordinates
M82 ; use absolute distances for extrusion
G92 E0
; Filament gcode
SET_PRESSURE_ADVANCE ADVANCE=0.0944
M107
;LAYER_CHANGE
;Z:0.35
;HEIGHT:0.35
G1 Z.35 F30000
G1 E-.1 F2400
G92 E0
G1 X41.118 Y94.736 F30000
G1 E.1 F2400
;TYPE:Skirt/Brim
;WIDTH:0.7
G1 F1800
G1 X41.727 Y94.588 E.15699
G1 X205.294 Y94.594 E15.03007
G1 X205.653 Y94.672 E15.06348
G1 X206.045 Y94.834 E15.10205
G1 X206.3 Y94.991 E15.12928
G1 X207.698 Y96.37 E15.30784
G1 X207.936 Y96.726 E15.34678
G1 X208.115 Y97.173 E15.39056
G1 X208.182 Y97.536 E15.42412
G1 X208.176 Y108.741 E16.44299
G1 X208.136 Y108.921 E16.45976
G1 X207.991 Y109.272 E16.49429
G1 X207.892 Y109.428 E16.51109
G1 X207.241 Y110.087 E16.59532
G1 X207.038 Y110.222 E16.61749
G1 X206.695 Y110.364 E16.65125
G1 X206.454 Y110.412 E16.67359
G1 X29.313 Y110.412 E32.78095
G1 X28.882 Y110.317 E32.82108
G1 X28.363 Y110.062 E32.87366
G1 X27.974 Y109.73 E32.92016
G1 X27.046 Y108.437 E33.06488
G1 X26.929 Y108.159 E33.09231
G1 X26.812 Y107.622 E33.14228
G1 X26.811 Y107.321 E33.16965
G1 X27.126 Y105.38 E33.34845
G1 X27.24 Y105.103 E33.37569
G1 X27.461 Y104.74 E33.41433
G1 X27.751 Y104.424 E33.45333
G1 X40.777 Y94.905 E34.92034
G1 X41.064 Y94.763 E34.94946
G1 X41.31 Y95.332 F30000
G1 F1800
G1 X41.769 Y95.213 E34.99258
G1 X205.258 Y95.219 E49.85857
G1 X205.438 Y95.259 E49.87534
G1 X205.779 Y95.4 E49.90889
G1 X205.935 Y95.499 E49.92569
G1 X207.235 Y96.791 E50.09235
G1 X207.371 Y96.995 E50.11464
G1 X207.51 Y97.329 E50.14754
G1 X207.557 Y97.569 E50.16978
G1 X207.557 Y108.654 E51.17773
G1 X207.392 Y109.052 E51.21691
G1 X206.822 Y109.622 E51.29021
G1 X206.424 Y109.787 E51.32939
G1 X29.353 Y109.787 E67.43038
G1 X29.068 Y109.719 E67.45702
G1 X28.68 Y109.522 E67.49659
G1 X28.457 Y109.333 E67.52317
G1 X27.603 Y108.154 E67.65555
G1 X27.531 Y107.987 E67.67209
G1 X27.436 Y107.575 E67.71054
G1 X27.433 Y107.389 E67.72746
G1 X27.721 Y105.575 E67.89447
G1 X27.788 Y105.403 E67.91125
G1 X27.978 Y105.091 E67.94447
G1 X28.144 Y104.911 E67.96673
G1 X41.126 Y95.424 E69.42879
G1 X41.256 Y95.359 E69.44201
G1 X41.514 Y95.923 F30000
G1 F1800
G1 X41.816 Y95.838 E69.47054
G1 X205.17 Y95.838 E84.32425
G1 X205.559 Y95.999 E84.36253
G1 X206.771 Y97.211 E84.51839
G1 X206.932 Y97.6 E84.55667
G1 X206.932 Y108.561 E85.55335
G1 X206.885 Y108.676 E85.56465
G1 X206.446 Y109.115 E85.6211
G1 X206.331 Y109.162 E85.6324
G1 X29.39 Y109.162 E101.72157
G1 X29.318 Y109.145 E101.7283
G1 X28.996 Y108.982 E101.76112
G1 X28.94 Y108.934 E101.76783
G1 X28.155 Y107.86 E101.88879
G1 X28.058 Y107.512 E101.92164
G1 X28.319 Y105.757 E102.08298
G1 X28.538 Y105.397 E102.1213
G1 X41.462 Y95.952 E103.57685
G1 E103.47685 F2400
G92 E0
G1 X207.38 Y140.667 F30000
G1 E.1 F2400
;TYPE:Support material
G1 F1800
G1 X191.066 Y140.667 E1.58343
G1 X191.066 Y111.2 E4.26285
G1 X206.06 Y111.2 E5.62625
G1 X207.337 Y110.903 E5.74547
G1 X207.38 Y110.864 E5.75075
G1 X207.38 Y140.573 E8.45218
G1 X206.547 Y140.386 F30000
G1 F1800
G1 X206.547 Y111.664 E11.06386
G1 X206.125 Y111.762 E11.10325
G1 X205.766 Y111.762 E11.13589
G1 X205.766 Y140.105 E13.71311
G1 X204.984 Y140.105 E13.78422
G1 X204.984 Y111.762 E16.36144
G1 X204.203 Y111.762 E16.43246
G1 X204.203 Y140.105 E19.00968
G1 X203.422 Y140.105 E19.0807
G1 X203.422 Y111.762 E21.65792
G1 X202.641 Y111.762 E21.72894
G1 X202.641 Y140.105 E24.30616
G1 X201.86 Y140.105 E24.37718
G1 X201.86 Y111.762 E26.9544
G1 X201.079 Y111.762 E27.02542
G1 X201.079 Y140.105 E29.60264
G1 X200.298 Y140.105 E29.67366
G1 X200.298 Y111.762 E32.25088
G1 X199.517 Y111.762 E32.3219
G1 X199.517 Y140.105 E34.89912
G1 X198.736 Y140.105 E34.97014
G1 X198.736 Y111.762 E37.54736
G1 X197.954 Y111.762 E37.61847
G1 X197.954 Y140.105 E40.19569
G1 X197.173 Y140.105 E40.26671
G1 X197.173 Y111.762 E42.84393
G1 X196.392 Y111.762 E42.91495
G1 X196.392 Y140.105 E45.49217
G1 X195.611 Y140.105 E45.56319
G1 X195.611 Y111.762 E48.14041
G1 X194.83 Y111.762 E48.21143
G1 X194.83 Y140.105 E50.78865
G1 X194.049 Y140.105 E50.85967
G1 X194.049 Y111.762 E53.43689
G1 X193.268 Y111.762 E53.50791
G1 X193.268 Y140.105 E56.08513
G1 X192.487 Y140.105 E56.15615
G1 X192.487 Y111.762 E58.73337
G1 X191.706 Y111.762 E58.80439
G1 X191.706 Y140.386 E61.40716
G1 E61.30716 F2400
G92 E0
G1 X203.168 Y105.4 F30000
G1 E.1 F2400
;TYPE:Perimeter
;WIDTH:0.7
G1 F1800
G1 X138.36 Y105.4 E5.99296
G1 X138.501 Y105.097 E6.02335
G1 X138.695 Y104.521 E6.07862
G1 X138.792 Y104.08 E6.11968
G1 X138.858 Y103.476 E6.17493
G1 X138.846 Y102.766 E6.2395
G1 X138.695 Y101.98 E6.31228
G1 X138.434 Y101.268 E6.38123
G1 X138.117 Y100.67 E6.44277
G1 X137.674 Y100.053 E6.51184
G1 X137.215 Y99.6 E6.57048
G1 X203.162 Y99.6 E12.56701
G1 X203.168 Y105.34 E13.08895
G1 E12.98895 F2400
G92 E0
G1 X129.596 Y105.4 F30000
G1 E.1 F2400
G1 F1800
G1 X47.45 Y105.4 E7.5695
G1 X47.674 Y104.881 E7.6209
G1 X47.855 Y104.229 E7.68243
G1 X47.958 Y103.476 E7.75154
G1 X47.946 Y102.766 E7.81611
G1 X47.855 Y102.271 E7.86187
G1 X47.673 Y101.619 E7.92342
G1 X47.374 Y100.923 E7.9923
G1 X47.142 Y100.537 E8.03325
G1 X46.665 Y99.944 E8.10245
G1 X46.301 Y99.6 E8.14799
G1 X130.718 Y99.6 E15.82399
G1 X130.216 Y100.113 E15.88926
G1 X129.942 Y100.472 E15.93033
G1 X129.629 Y100.993 E15.9856
G1 X129.439 Y101.403 E16.02669
G1 X129.245 Y101.979 E16.08196
G1 X129.094 Y102.766 E16.15483
G1 X129.082 Y103.476 E16.2194
G1 X129.148 Y104.08 E16.27465
G1 X129.245 Y104.52 E16.31562
G1 X129.573 Y105.345 E16.39635
G1 E16.29635 F2400
G92 E0
G1 X203.793 Y106.025 F30000
G1 E.1 F2400
G1 F1800
G1 X137.235 Y106.025 E6.15209
G1 X137.5 Y105.65 E6.19384
G1 X137.744 Y105.245 E6.23683
G1 X137.933 Y104.835 E6.27788
G1 X138.084 Y104.387 E6.32087
G1 X138.182 Y103.946 E6.36195
G1 X138.233 Y103.476 E6.40494
G1 X138.223 Y102.824 E6.46423
G1 X138.085 Y102.114 E6.53
G1 X137.881 Y101.561 E6.5836
G1 X137.565 Y100.963 E6.6451
G1 X137.22 Y100.482 E6.69892
G1 X136.909 Y100.155 E6.73995
G1 X136.549 Y99.849 E6.78291
G1 X136.175 Y99.595 E6.82402
G1 X135.339 Y99.207 E6.90783
G1 X135.241 Y99.205 E6.91674
;WIDTH:0.655433
G1 X135.143 Y99.204 E6.92502
;WIDTH:0.610866
G1 X135.046 Y99.202 E6.93258
;WIDTH:0.5663
G1 X134.948 Y99.201 E6.93958
;WIDTH:0.521733
G1 X134.85 Y99.199 E6.94595
;WIDTH:0.477166
G1 X134.752 Y99.197 E6.95168
;WIDTH:0.4326
G1 X133.857 Y99.134 E6.99835
;WIDTH:0.416001
G1 X133.456 Y99.172 E7.01833
;WIDTH:0.442691
G1 X133.056 Y99.211 E7.03983
;WIDTH:0.485575
G1 X132.962 Y99.218 E7.04546
;WIDTH:0.52846
G1 X132.868 Y99.225 E7.05168
;WIDTH:0.571345
G1 X132.774 Y99.232 E7.05849
;WIDTH:0.61423
G1 X132.68 Y99.239 E7.06588
;WIDTH:0.657115
G1 X132.586 Y99.247 E7.07387
;WIDTH:0.7
G1 X132.492 Y99.254 E7.08244
G1 X131.878 Y99.538 E7.14395
G1 X131.382 Y99.856 E7.19752
G1 X130.713 Y100.491 E7.28139
G1 X130.44 Y100.85 E7.3224
G1 X130.196 Y101.255 E7.36539
G1 X130.007 Y101.665 E7.40644
G1 X129.856 Y102.113 E7.44943
G1 X129.717 Y102.824 E7.5153
G1 X129.707 Y103.476 E7.57459
G1 X129.855 Y104.386 E7.65842
G1 X130.059 Y104.939 E7.71202
G1 X130.375 Y105.537 E7.77352
G1 X130.717 Y106.021 E7.82741
G1 X46.823 Y106.025 E15.45585
G1 X46.323 Y106.021 E15.50132
G1 X46.838 Y105.255 E15.58525
G1 X47.071 Y104.713 E15.63889
G1 X47.253 Y104.062 E15.70035
G1 X47.333 Y103.476 E15.75413
G1 X47.333 Y103.024 E15.79523
G1 X47.253 Y102.438 E15.84901
G1 X47.071 Y101.787 E15.91047
G1 X46.838 Y101.245 E15.96411
G1 X46.606 Y100.859 E16.00506
G1 X46.236 Y100.398 E16.05881
G1 X45.744 Y99.933 E16.12037
G1 X45.265 Y99.589 E16.17399
G1 X44.428 Y99.203 E16.2578
G1 X44.35 Y99.204 E16.26489
;WIDTH:0.657064
G1 X44.271 Y99.204 E16.27158
;WIDTH:0.614129
G1 X44.193 Y99.205 E16.2777
;WIDTH:0.571193
G1 X44.115 Y99.205 E16.28333
;WIDTH:0.528258
G1 X44.037 Y99.206 E16.28847
;WIDTH:0.485322
G1 X43.958 Y99.206 E16.29319
;WIDTH:0.442387
G1 X43.518 Y99.154 E16.31687
;WIDTH:0.403143
G1 X42.627 Y99.155 E16.3594
;WIDTH:0.400249
G1 X41.958 Y99.29 E16.39169
G1 X42.594 Y98.825 E16.42897
G1 X43.076 Y98.82 E16.45178
;WIDTH:0.416651
G1 X43.542 Y98.833 E16.47495
;WIDTH:0.442387
G1 X44.008 Y98.846 E16.49986
;WIDTH:0.485322
G1 X44.083 Y98.867 E16.50451
;WIDTH:0.528258
G1 X44.158 Y98.889 E16.50966
;WIDTH:0.571193
G1 X44.233 Y98.91 E16.51528
;WIDTH:0.614129
G1 X44.309 Y98.932 E16.52149
;WIDTH:0.657064
G1 X44.384 Y98.953 E16.52809
;WIDTH:0.7
G1 X44.459 Y98.975 E16.5352
G1 X132.431 Y98.975 E24.53445
G1 X132.53 Y98.953 E24.54367
;WIDTH:0.657115
G1 X132.629 Y98.932 E24.55224
;WIDTH:0.61423
G1 X132.727 Y98.91 E24.56012
;WIDTH:0.571345
G1 X132.826 Y98.889 E24.56743
;WIDTH:0.52846
G1 X132.925 Y98.867 E24.57412
;WIDTH:0.485575
G1 X133.024 Y98.846 E24.58016
;WIDTH:0.442691
G1 X133.5 Y98.827 E24.60564
;WIDTH:0.403823
G1 X134.095 Y98.823 E24.6341
;WIDTH:0.4326
G1 X134.772 Y98.841 E24.66933
;WIDTH:0.477166
G1 X134.874 Y98.863 E24.67543
;WIDTH:0.521733
G1 X134.976 Y98.886 E24.68223
;WIDTH:0.5663
G1 X135.078 Y98.908 E24.68969
;WIDTH:0.610866
G1 X135.18 Y98.93 E24.69782
;WIDTH:0.655433
G1 X135.282 Y98.952 E24.70663
;WIDTH:0.7
G1 X135.384 Y98.975 E24.71614
G1 X203.787 Y98.975 E30.93599
G1 X203.793 Y105.965 E31.57159
G1 E31.47159 F2400
G92 E0
G1 X38.184 Y103.007 F30000
G1 E.1 F2400
G1 F1800
G1 X38.182 Y103.476 E.14265
G1 X38.248 Y104.08 E.1979
G1 X38.345 Y104.521 E.23896
G1 X38.68 Y105.4 E.32449
G1 X34.909 Y105.4 E.66739
G1 X38.136 Y103.043 E1.03076
G1 X39.18 Y101.505 F30000
G1 F1800
G1 X38.956 Y102.113 E1.08968
G1 X38.858 Y102.554 E1.13076
G1 X38.807 Y103.024 E1.17375
G1 X38.807 Y103.476 E1.21485
G1 X38.924 Y104.242 E1.28531
G1 X39.107 Y104.835 E1.34174
G1 X39.296 Y105.245 E1.38279
G1 X39.615 Y105.743 E1.43657
G1 X39.855 Y106.025 E1.47024
G1 X32.995 Y106.025 E2.09402
G1 X39.132 Y101.541 E2.78514
G1 E2.68514 F2400
G92 E0
G1 X204.419 Y106.65 F30000
G1 E.1 F2400
G1 F1800
G1 X135.247 Y106.65 E6.38978
G1 X135.797 Y106.396 E6.44487
G1 X136.153 Y106.169 E6.48326
G1 X136.729 Y105.631 E6.55493
G1 X137.177 Y104.982 E6.62664
G1 X137.474 Y104.252 E6.6983
G1 X137.608 Y103.476 E6.76991
G1 X137.601 Y102.881 E6.82402
G1 X137.474 Y102.249 E6.88264
G1 X137.329 Y101.853 E6.92099
G1 X137.013 Y101.255 E6.98249
G1 X136.766 Y100.912 E7.02092
G1 X136.456 Y100.584 E7.06196
G1 X135.825 Y100.112 E7.13361
G1 X135.108 Y99.787 E7.20519
G1 X134.699 Y99.686 E7.2435
G1 X133.857 Y99.603 E7.32043
G1 X133.159 Y99.697 E7.38447
G1 X132.755 Y99.821 E7.4229
G1 X132.141 Y100.105 E7.48441
G1 X131.786 Y100.332 E7.52273
G1 X131.211 Y100.869 E7.59427
G1 X130.763 Y101.518 E7.66598
G1 X130.466 Y102.248 E7.73764
G1 X130.339 Y102.881 E7.79635
G1 X130.332 Y103.476 E7.85046
G1 X130.466 Y104.252 E7.92207
G1 X130.611 Y104.647 E7.96033
G1 X130.927 Y105.245 E8.02183
G1 X131.174 Y105.588 E8.06026
G1 X131.484 Y105.915 E8.10123
G1 X131.812 Y106.179 E8.13952
G1 X132.391 Y106.528 E8.20099
G1 X132.676 Y106.65 E8.22918
G1 X44.364 Y106.65 E16.25935
G1 X44.626 Y106.546 E16.28498
G1 X45.298 Y106.134 E16.35665
G1 X45.866 Y105.588 E16.42829
G1 X46.303 Y104.933 E16.49989
G1 X46.469 Y104.546 E16.53818
G1 X46.651 Y103.894 E16.59973
G1 X46.708 Y103.476 E16.63809
G1 X46.708 Y103.024 E16.67919
G1 X46.651 Y102.606 E16.71755
G1 X46.469 Y101.954 E16.7791
G1 X46.303 Y101.567 E16.81739
G1 X46.071 Y101.181 E16.85834
G1 X45.806 Y100.852 E16.89675
G1 X45.315 Y100.387 E16.95824
G1 X44.973 Y100.141 E16.99655
G1 X44.261 Y99.805 E17.06814
G1 X43.492 Y99.63 E17.13985
G1 X42.957 Y99.603 E17.18856
G1 X42.259 Y99.697 E17.2526
;WIDTH:0.734103
G1 X41.88 Y99.81 E17.29052
;WIDTH:0.768206
G1 X41.501 Y99.922 E17.33038
G1 X41.135 Y100.147 E17.37371
;WIDTH:0.758613
G1 X40.407 Y100.712 E17.46536
G1 X40.222 Y100.97 E17.49694
;WIDTH:0.729306
G1 X40.037 Y101.228 E17.52716
;WIDTH:0.7
G1 X39.674 Y101.927 E17.59878
G1 X39.469 Y102.688 E17.67044
G1 X39.432 Y103.476 E17.74217
G1 X39.566 Y104.252 E17.81378
G1 X39.863 Y104.982 E17.88544
G1 X40.091 Y105.338 E17.92388
G1 X40.529 Y105.854 E17.98542
G1 X40.843 Y106.135 E18.02374
G1 X41.215 Y106.388 E18.06465
G1 X41.776 Y106.65 E18.12095
G1 X31.081 Y106.65 E19.09344
G1 X39.034 Y100.838 E19.98913
;WIDTH:0.725299
G1 X39.767 Y100.319 E20.0741
;WIDTH:0.744254
G1 X40.739 Y99.616 E20.1909
;WIDTH:0.768206
G1 X41.168 Y99.321 E20.24341
G1 X41.341 Y99.174 E20.26631
;WIDTH:0.734103
G1 X41.513 Y99.027 E20.28801
;WIDTH:0.7
G1 X42.439 Y98.35 E20.39231
G1 X204.357 Y98.35 E35.11544
G1 X204.411 Y98.441 E35.12506
G1 X204.419 Y106.59 E35.86605
G1 X205.044 Y107.275 F30000
G1 F1800
G1 X30.065 Y107.275 E51.77681
G1 X30.005 Y107.193 E51.78605
G1 X30.099 Y106.594 E51.84118
G1 X42.235 Y97.725 E53.20797
G1 X204.616 Y97.725 E67.9732
G1 X205.036 Y98.144 E68.02715
G1 X205.044 Y107.215 E68.85197
G1 X205.67 Y107.9 F30000
;TYPE:External perimeter
G1 F1800
G1 X29.748 Y107.9 E84.84847
G1 X29.348 Y107.353 E84.91009
G1 X29.521 Y106.242 E85.01233
G1 X42.031 Y97.1 E86.42123
G1 X204.875 Y97.1 E101.22856
G1 X205.66 Y97.885 E101.32951
G1 X205.67 Y107.84 E102.23471
G1 X205.318 Y107.709 F30000
G1 E102.13471 F2400
G92 E0
G1 X133.48 Y106.222 F30000
G1 E.1 F2400
;TYPE:Perimeter
G1 F1800
G1 X132.946 Y106.093 E.14995
G1 X132.134 Y105.643 E.23436
G1 X131.627 Y105.158 E.29816
G1 X131.163 Y104.354 E.38257
G1 X130.979 Y103.677 E.44636
G1 X130.957 Y103.024 E.50577
G1 X131.076 Y102.382 E.56514
G1 X131.33 Y101.78 E.62455
G1 X131.708 Y101.247 E.68397
G1 X132.191 Y100.808 E.74332
G1 X133.018 Y100.388 E.82766
G1 X133.705 Y100.24 E.89156
G1 X133.959 Y100.233 E.91466
G1 X134.631 Y100.307 E.97613
G1 X135.295 Y100.535 E1.03997
G1 X135.848 Y100.883 E1.09938
G1 X136.313 Y101.342 E1.15879
G1 X136.777 Y102.146 E1.2432
G1 X136.961 Y102.823 E1.30699
G1 X136.983 Y103.476 E1.3664
G1 X136.864 Y104.118 E1.42577
G1 X136.61 Y104.72 E1.48518
G1 X136.232 Y105.253 E1.5446
G1 X135.748 Y105.692 E1.60402
G1 X134.921 Y106.113 E1.6884
G1 X134.235 Y106.26 E1.75219
G1 X133.539 Y106.236 E1.81551
G1 X133.569 Y105.61 F30000
;TYPE:External perimeter
G1 F1800
G1 X133.114 Y105.491 E1.85827
G1 X132.457 Y105.108 E1.92742
G1 X132.081 Y104.728 E1.97603
G1 X131.715 Y104.062 E2.04513
G1 X131.589 Y103.543 E2.09369
G1 X131.582 Y103.024 E2.14089
G1 X131.686 Y102.516 E2.18804
G1 X131.898 Y102.042 E2.23526
G1 X132.206 Y101.625 E2.2824
G1 X132.595 Y101.285 E2.32938
G1 X133.28 Y100.955 E2.39852
G1 X133.806 Y100.857 E2.44717
G1 X134.563 Y100.928 E2.51631
G1 X135.064 Y101.115 E2.56494
G1 X135.497 Y101.4 E2.61208
G1 X135.859 Y101.772 E2.65928
G1 X136.225 Y102.438 E2.72838
G1 X136.351 Y102.957 E2.77694
G1 X136.358 Y103.476 E2.82414
G1 X136.254 Y103.984 E2.87129
G1 X136.042 Y104.458 E2.91851
G1 X135.734 Y104.875 E2.96565
G1 X135.344 Y105.216 E3.01276
G1 X134.659 Y105.545 E3.08186
G1 X134.134 Y105.643 E3.13042
G1 X133.628 Y105.623 E3.17647
G1 X133.319 Y105.922 F30000
G1 X134.784 Y106.726
;TYPE:Perimeter
;WIDTH:0.548519
G1 F1800
G1 X134.434 Y106.75 E3.20064
;WIDTH:0.500903
G1 X134.083 Y106.774 E3.22244
;WIDTH:0.479851
G1 X133.554 Y106.76 E3.25361
;WIDTH:0.505723
G1 X133.395 Y106.747 E3.26361
;WIDTH:0.531595
G1 X133.237 Y106.734 E3.27414
G1 E3.17414 F2400
G92 E0
G1 X40.866 Y101.19 F30000
G1 E.1 F2400
;WIDTH:0.7
G1 F1800
G1 X40.986 Y101.069 E.1155
G1 X41.525 Y100.659 E.17708
