; generated by PrusaSlicer 2.6.1+linux-x64-GTK3 on 2023-10-19 at 00:24:44 UTC

; 

; external perimeters extrusion width = 0.45mm
; perimeters extrusion width = 0.45mm
; infill extrusion width = 0.45mm
; solid infill extrusion width = 0.45mm
; top infill extrusion width = 0.40mm
; support material extrusion width = 0.40mm
; first layer extrusion width = 0.70mm

;TYPE:Custom
; M190 R30 ; Because of probe temperature drift,
; M109 R30 ; Let the beds and hotend cool down before homing the axis

G28 ; home all axes
G1 Z100.0 F3000 ; Raise head above brush
M190 S100 ; set bed temperature and wait for it to be reached
M109 S255 ; set hot end temp and wait for it

; Brush any crap off the nozzle
G1 X232.0 Y0.0 F3000 ; Goto Start of movement
G1 Z19.0 F3000 ; Lower into brush
G1 X221.0 Y2.0 F3000 ; Goto Start of movement
G1 X229.0 Y4.0 F3000 ; 
G1 X221.0 Y6.0 F3000 ; 
G1 X229.0 Y8.0 F3000 ; 
G1 X221.0 Y10.0 F3000 ;
G1 X229.0 Y12.0 F3000 ;
G1 X221.0 Y14.0 F3000 ;
G1 X229.0 Y16.0 F3000 ;
G1 X221.0 Y18.0 F3000 ;
G1 X229.0 Y20.0 F3000 ;
G1 X221.0 Y22.0 F3000 ;
G1 X229.0 Y24.0 F3000 ;
G1 X221.0 Y26.0 F3000 ;
G1 X229.0 Y28.0 F3000 ;
G1 X221.0 Y30.0 F3000 ;
G1 X229.0 Y28.0 F3000 ;
G1 X221.0 Y26.0 F3000 ;
G1 X229.0 Y24.0 F3000 ;
G1 X221.0 Y22.0 F3000 ;
G1 X229.0 Y20.0 F3000 ;
G1 X221.0 Y18.0 F3000 ;
G1 X229.0 Y16.0 F3000 ;
G1 X221.0 Y14.0 F3000 ;
G1 X229.0 Y12.0 F3000 ;
G1 X221.0 Y10.0 F3000 ;
G1 X229.0 Y8.0 F3000 ; 
G1 X221.0 Y6.0 F3000 ; 
G1 X229.0 Y4.0 F3000 ; 
G1 X221.0 Y2.0 F3000 ; 
G1 X229.0 Y0.0 F3000 ; 
G1 X225.0 Y0.0 F3000 ; 
G1 X225.0 Y30.0 F5000 ; 
G1 X225.0 Y0.0 F5000 ; 
G1 X225.0 Y30.0 F5000 ; 
G1 X225.0 Y0.0 F5000 ; 
G1 X225.0 Y30.0 F5000 ; 

; Do a purge line to prime the extruder
G92 E0 ;Reset Extruder
G1 X227.0 Y80.0 F5000 ; Goto Start of purge
G1 Z0.28 F5000 ;Move Head to start height
G1 X227.0 Y230.0 Z0.28 F1500.0 E15; Draw first line
G1 X226.7 Y230.0 Z0.28 F5000.0 ;Move to side a little
G1 X226.7 Y80.0 Z0.28 F1500.0 E30; Draw the second line
G1 Z0.4 F5000; Move Z Axis Up
G1 Y120 F1500; Wipe to the back
G1 X117.5 Y117.5 Z27.0 F5000 ; Raise head above brush
G92 E0 ;Reset Extruder
G21 ; set units to millimeters
G90 ; use absolute coordinates
M82 ; use absolute distances for extrusion
G92 E0
; Filament gcode
SET_PRESSURE_ADVANCE ADVANCE=0.051
M107
;LAYER_CHANGE
;Z:0.35
;HEIGHT:0.35
G1 Z.35 F30000
G1 E-2 F2400
G92 E0
G1 X103.237 Y95.814 F30000
G1 E2 F2400
;TYPE:Skirt/Brim
;WIDTH:0.7
G1 F1800
G1 X105.565 Y93.485 E2.29943
G1 X105.809 Y93.309 E2.32679
G1 X106.347 Y93.072 E2.38025
G1 X106.769 Y92.988 E2.41938
G1 X127.294 Y92.994 E4.28571
G1 X127.653 Y93.072 E4.31912
G1 X128.08 Y93.249 E4.36115
G1 X128.436 Y93.487 E4.40009
G1 X131.763 Y96.814 E4.82792
G1 X132.002 Y97.172 E4.86706
G1 X132.215 Y97.72 E4.92052
G1 X132.262 Y98.016 E4.94777
G1 X132.256 Y107.783 E5.83588
G1 X132.216 Y107.963 E5.85265
G1 X132.071 Y108.313 E5.8871
G1 X131.972 Y108.469 E5.9039
G1 X131.26 Y109.189 E5.99597
G1 X131.108 Y109.296 E6.01287
G1 X130.714 Y109.465 E6.05185
G1 X130.476 Y109.512 E6.07391
G1 X104.524 Y109.512 E8.43371
G1 X104.284 Y109.464 E8.45597
G1 X103.937 Y109.321 E8.4901
G1 X103.781 Y109.222 E8.5069
G1 X103.061 Y108.51 E8.59897
G1 X102.954 Y108.358 E8.61587
G1 X102.785 Y107.964 E8.65485
G1 X102.738 Y107.726 E8.67691
G1 X102.751 Y96.891 E9.66213
G1 X102.821 Y96.6 E9.68935
G1 X102.999 Y96.17 E9.73167
G1 X103.203 Y95.864 E9.76511
G1 X103.7 Y96.234 F30000
G1 F1800
G1 X105.987 Y93.948 E10.05914
G1 X106.139 Y93.841 E10.07604
G1 X106.561 Y93.66 E10.11779
G1 X106.799 Y93.613 E10.13985
G1 X127.258 Y93.619 E12.00018
G1 X127.438 Y93.659 E12.01695
G1 X127.812 Y93.814 E12.05376
G1 X128.016 Y93.95 E12.07605
G1 X131.3 Y97.234 E12.49835
G1 X131.435 Y97.437 E12.52052
G1 X131.606 Y97.862 E12.56218
G1 X131.637 Y98.045 E12.57906
G1 X131.637 Y107.695 E13.45653
G1 X131.507 Y108.042 E13.49022
G1 X130.843 Y108.722 E13.57664
G1 X130.445 Y108.887 E13.61582
G1 X104.555 Y108.887 E15.96999
G1 X104.208 Y108.757 E16.00368
G1 X103.528 Y108.093 E16.0901
G1 X103.363 Y107.695 E16.12928
G1 X103.369 Y96.992 E17.1025
G1 X103.409 Y96.812 E17.11927
G1 X103.564 Y96.438 E17.15608
G1 X103.667 Y96.284 E17.17293
G1 X104.164 Y96.654 F30000
G1 F1800
G1 X106.404 Y94.414 E17.46098
G1 X106.83 Y94.238 E17.50289
G1 X127.23 Y94.25 E19.35785
G1 X127.596 Y94.414 E19.39432
G1 X130.836 Y97.654 E19.81096
G1 X131 Y98.02 E19.84743
G1 X131.012 Y107.602 E20.71872
G1 X130.965 Y107.717 E20.73002
G1 X130.467 Y108.215 E20.79406
G1 X130.352 Y108.262 E20.80536
G1 X104.648 Y108.262 E23.14261
G1 X104.533 Y108.215 E23.15391
G1 X104.035 Y107.717 E23.21795
G1 X103.988 Y107.602 E23.22925
G1 X103.988 Y97.08 E24.18601
G1 X104.131 Y96.704 E24.22259
G1 E22.22259 F2400
G92 E0
G1 X133.753 Y110.424 F30000
G1 E2 F2400
;TYPE:Support material
G1 F1800
G1 X131.394 Y112.783 E2.30335
G1 X133.753 Y115.141 E2.60664
G1 X131.394 Y117.5 E2.90999
G1 X133.753 Y119.859 E3.21334
G1 X131.394 Y122.217 E3.51663
G1 X133.753 Y124.576 E3.81998
G1 X131.394 Y126.935 E4.12333
G1 X133.753 Y129.293 E4.42662
G1 X131.394 Y131.652 E4.72997
G1 X133.753 Y134.01 E5.03326
G1 X131.394 Y136.369 E5.33661
G1 X133.753 Y138.728 E5.63996
G1 X129.293 Y143.187 E6.21342
G1 X126.935 Y140.829 E6.51664
G1 X124.576 Y143.187 E6.81993
G1 X122.217 Y140.829 E7.12322
G1 X119.859 Y143.187 E7.42644
G1 X117.5 Y140.829 E7.72973
G1 X115.141 Y143.187 E8.03302
G1 X110.682 Y138.728 E8.60642
G1 X113.04 Y136.369 E8.90971
G1 X110.682 Y134.01 E9.213
G1 X113.04 Y131.652 E9.51622
G1 X110.682 Y129.293 E9.81951
G1 X113.04 Y126.935 E10.12273
G1 X110.682 Y124.576 E10.42602
G1 X113.04 Y122.217 E10.72931
G1 X110.682 Y119.859 E11.03253
G1 X113.04 Y117.5 E11.33582
G1 X110.682 Y115.141 E11.63911
G1 X113.04 Y112.783 E11.94233
G1 X110.682 Y110.424 E12.24562
G1 X110.806 Y110.3 E12.26157
G1 X130.042 Y110.3 E14.01069
G1 X131.416 Y109.965 E14.13929
G1 X132.386 Y109.058 E14.26004
G1 X133.687 Y110.358 E14.42728
G1 E12.42728 F2400
G92 E0
G1 X128.979 Y142.475 F30000
G1 E2 F2400
G1 F1800
G1 X132.842 Y138.612 E2.49676
G1 X132.289 Y138.06 E2.56781
G1 X128.625 Y141.724 E3.03898
G1 X128.073 Y141.172 E3.10996
G1 X131.737 Y137.507 E3.58119
G1 X131.185 Y136.955 E3.65217
G1 X127.52 Y140.619 E4.1234
G1 X126.968 Y140.067 E4.19438
G1 X130.632 Y136.403 E4.66555
G1 X130.599 Y136.369 E4.66986
G1 X132.957 Y134.01 E4.97315
G1 X132.439 Y133.492 E5.03976
G1 X124.057 Y141.873 E6.11757
G1 X123.505 Y141.321 E6.18855
G1 X131.886 Y132.939 E7.26636
G1 X131.334 Y132.387 E7.33734
G1 X122.952 Y140.769 E8.41521
G1 X122.4 Y140.216 E8.48626
G1 X130.782 Y131.835 E9.56407
G1 X130.599 Y131.652 E9.5876
G1 X132.957 Y129.293 E9.89089
G1 X132.588 Y128.924 E9.93834
G1 X119.489 Y142.023 E11.62279
G1 X118.937 Y141.47 E11.69384
G1 X132.036 Y128.371 E13.37829
G1 X131.483 Y127.819 E13.44934
G1 X118.385 Y140.918 E15.13373
G1 X117.832 Y140.366 E15.20478
G1 X130.931 Y127.267 E16.88923
G1 X130.599 Y126.935 E16.93192
G1 X132.957 Y124.576 E17.23521
G1 X132.737 Y124.356 E17.2635
G1 X114.921 Y142.172 E19.55453
G1 X114.369 Y141.62 E19.62551
G1 X132.185 Y123.803 E21.9166
G1 X131.633 Y123.251 E21.98758
G1 X113.817 Y141.067 E24.27861
G1 X113.264 Y140.515 E24.34966
G1 X131.08 Y122.699 E26.64069
G1 X130.599 Y122.217 E26.70261
G1 X132.957 Y119.859 E27.00583
G1 X132.887 Y119.788 E27.0149
G1 X112.712 Y139.963 E29.60928
G1 X112.16 Y139.41 E29.68033
G1 X132.334 Y119.236 E32.27458
G1 X131.782 Y118.683 E32.34563
G1 X111.607 Y138.858 E34.94001
G1 X111.477 Y138.728 E34.95673
G1 X113.836 Y136.369 E35.26008
G1 X113.414 Y135.947 E35.31435
G1 X131.23 Y118.131 E37.60538
G1 X130.677 Y117.579 E37.67643
G1 X112.861 Y135.395 E39.96746
G1 X112.309 Y134.842 E40.03851
G1 X132.484 Y114.668 E42.63283
G1 X131.931 Y114.115 E42.70394
G1 X111.757 Y134.29 E45.29826
G1 X111.477 Y134.01 E45.33427
G1 X113.836 Y131.652 E45.63756
G1 X113.563 Y131.379 E45.67267
G1 X131.379 Y113.563 E47.9637
G1 X130.827 Y113.011 E48.03468
G1 X113.011 Y130.827 E50.32571
G1 X112.458 Y130.274 E50.39682
G1 X132.633 Y110.1 E52.99114
G1 X132.373 Y109.84 E53.02457
G1 X131.692 Y110.476 E53.1093
G1 X130.977 Y110.651 E53.17623
G1 X111.906 Y129.722 E55.62864
G1 X111.477 Y129.293 E55.68381
G1 X113.836 Y126.935 E55.9871
G1 X113.712 Y126.811 E56.00305
G1 X129.661 Y110.862 E58.05399
G1 X128.556 Y110.862 E58.15447
G1 X113.16 Y126.259 E60.13437
G1 X112.608 Y125.706 E60.20542
G1 X127.452 Y110.862 E62.11427
G1 X126.347 Y110.862 E62.21475
G1 X112.055 Y125.154 E64.05261
G1 X111.503 Y124.602 E64.12359
G1 X125.242 Y110.862 E65.89041
G1 X124.138 Y110.862 E65.9908
G1 X113.309 Y121.691 E67.38334
G1 X112.757 Y121.138 E67.45439
G1 X123.033 Y110.862 E68.77582
G1 X121.928 Y110.862 E68.8763
G1 X112.205 Y120.586 E70.12668
G1 X111.652 Y120.034 E70.19773
G1 X120.824 Y110.862 E71.37719
G1 X119.719 Y110.862 E71.47767
G1 X113.459 Y117.123 E72.28273
G1 X112.906 Y116.57 E72.35384
G1 X118.614 Y110.862 E73.08785
G1 X117.51 Y110.862 E73.18824
G1 X112.354 Y116.018 E73.85127
G1 X111.802 Y115.466 E73.92225
G1 X116.405 Y110.862 E74.51423
G1 X115.3 Y110.862 E74.61471
G1 X113.608 Y112.555 E74.83236
G1 X113.056 Y112.003 E74.90334
G1 X114.196 Y110.862 E75.05
G1 X113.091 Y110.862 E75.15048
G1 X112.503 Y111.45 E75.22609
G1 X111.951 Y110.898 E75.29707
G1 X112.268 Y110.581 E75.33783
G1 E73.33783 F2400
G92 E0
G1 X108.474 Y103.776 F30000
G1 E2 F2400
;TYPE:Perimeter
;WIDTH:0.7
G1 F1800
G1 X108.474 Y98.724 E2.45938
G1 X125.561 Y98.724 E4.01309
G1 X126.526 Y99.689 E4.13718
G1 X126.526 Y103.776 E4.50881
G1 X108.534 Y103.776 E6.14481
G1 X107.85 Y104.4 F30000
G1 F1800
G1 X107.85 Y98.43 E6.68766
G1 X108.18 Y98.1 E6.7301
G1 X125.82 Y98.1 E8.3341
G1 X127.15 Y99.43 E8.50513
G1 X127.15 Y104.4 E8.95705
G1 X107.91 Y104.4 E10.70653
G1 X107.225 Y105.025 F30000
G1 F1800
G1 X107.225 Y98.171 E11.32976
G1 X107.921 Y97.475 E11.41926
G1 X126.079 Y97.475 E13.07036
G1 X127.775 Y99.171 E13.28846
G1 X127.775 Y105.025 E13.82076
G1 X107.285 Y105.025 E15.68391
G1 X106.6 Y105.65 F30000
G1 F1800
G1 X106.6 Y97.913 E16.38743
G1 X107.663 Y96.85 E16.52413
G1 X126.337 Y96.85 E18.22215
G1 X128.4 Y98.913 E18.48744
G1 X128.4 Y105.65 E19.10003
G1 X106.66 Y105.65 E21.07684
G1 X105.975 Y106.275 F30000
G1 F1800
G1 X105.975 Y97.654 E21.86074
G1 X107.404 Y96.225 E22.0445
G1 X126.596 Y96.225 E23.78962
G1 X129.025 Y98.654 E24.10197
G1 X129.025 Y106.275 E24.79494
G1 X106.035 Y106.275 E26.88541
G1 X105.35 Y106.9 F30000
;TYPE:External perimeter
G1 F1800
G1 X105.35 Y97.395 E27.7497
G1 X107.145 Y95.6 E27.98053
G1 X126.855 Y95.6 E29.77275
G1 X129.65 Y98.395 E30.13217
G1 X129.65 Y106.9 E30.90553
G1 X105.41 Y106.9 E33.10966
G1 X105.51 Y106.533 F30000
G1 E31.10966 F2400
G92 E0
G1 X125.79 Y99.219 F30000
G1 E2 F2400
;TYPE:Solid infill
;WIDTH:0.752063
G1 F1800
G1 X108.943 Y99.219 E3.65952
G1 X108.943 Y99.896 E3.72621
G1 X126.057 Y99.896 E5.41203
G1 X126.057 Y100.573 E5.47872
G1 X108.943 Y100.573 E7.16454
G1 X108.943 Y101.25 E7.23123
G1 X126.057 Y101.25 E8.91705
G1 X126.057 Y101.927 E8.98374
G1 X108.943 Y101.927 E10.66956
G1 X108.943 Y102.604 E10.73625
G1 X126.057 Y102.604 E12.42207
G1 X126.057 Y103.281 E12.48876
G1 X108.662 Y103.281 E14.20226
;LAYER_CHANGE
;Z:0.645122
;HEIGHT:0.295122
G1 Z.645 F30000
M104 S250 ; set temperature
G1 E12.20226 F2400
G92 E0
G1 X112.593 Y112.973 F30000
G1 E2 F2400
;TYPE:Support material
;WIDTH:0.4
G1 F3600
G1 X110.424 Y115.141 E2.12668
G1 X134.01 Y138.728 E3.50457
G1 X131.652 Y141.086 E3.64232
G1 X110.424 Y119.859 E4.8824
G1 E2.8824 F2400
G92 E0
G1 X112.593 Y122.407 F30000
G1 E2 F2400
G1 F3600
G1 X110.424 Y124.576 E2.12671
G1 X129.293 Y143.445 E3.22901
G1 X131.533 Y141.205 E3.35987
G1 X131.842 Y136.179 F30000
G1 F3600
G1 X134.01 Y134.01 E3.48655
G1 X110.424 Y110.424 E4.86441
G1 X112.03 Y108.818 E4.95823
G1 X113.535 Y108.818 E5.0204
G1 X134.01 Y129.293 E6.21652
G1 X131.842 Y131.462 E6.3432
G1 X131.842 Y126.745 F30000
G1 F3600
G1 X134.01 Y124.576 E6.46988
G1 X118.252 Y108.818 E7.39044
G1 X122.97 Y108.818 E7.58533
G1 X134.01 Y119.859 E8.2303
G1 X131.842 Y122.027 E8.35695
G1 X131.842 Y117.31 F30000
G1 F3600
G1 X134.01 Y115.141 E8.48363
G1 X127.687 Y108.818 E8.85301
G1 X130.649 Y108.818 E8.97536
G1 X131.527 Y107.94 E9.02665
G1 X134.01 Y110.424 E9.17173
G1 X131.842 Y112.593 E9.29841
G1 X112.593 Y127.124 F30000
G1 F3600
G1 X110.424 Y129.293 E9.42512
G1 X124.576 Y143.445 E10.25186
G1 X126.745 Y141.276 E10.37857
G1 X122.027 Y141.276 F30000
G1 F3600
G1 X119.859 Y143.445 E10.50525
G1 X110.424 Y134.01 E11.05643
G1 X112.593 Y131.842 E11.18311
G1 X112.593 Y136.559 F30000
G1 F3600
G1 X110.424 Y138.728 E11.30982
G1 X115.141 Y143.445 E11.58538
G1 X117.31 Y141.276 E11.71209
;LAYER_CHANGE
;Z:0.65
;HEIGHT:0.00487804
G1 Z.65 F30000
G1 E9.71209 F2400
G92 E0
G1 X107.153 Y105.097 F30000
G1 E2 F2400
;TYPE:Perimeter
;WIDTH:0.45
;HEIGHT:0.3
G1 F6000
G1 X107.153 Y98.142 E2.33451
G1 X107.892 Y97.403 E2.38478
G1 X126.108 Y97.403 E3.26091
G1 X127.847 Y99.142 E3.37919
G1 X127.847 Y105.097 E3.6656
G1 X107.213 Y105.097 E4.65802
G1 X106.767 Y105.483 F30000
G1 F6000
G1 X106.767 Y97.982 E5.01879
G1 X107.732 Y97.017 E5.08443
G1 X126.268 Y97.017 E5.97595
G1 X128.233 Y98.982 E6.10961
G1 X128.233 Y105.483 E6.42229
G1 X106.827 Y105.483 E7.45184
G1 X106.382 Y105.868 F30000
G1 F6000
G1 X106.382 Y97.822 E7.83882
G1 X107.572 Y96.632 E7.91976
G1 X126.428 Y96.632 E8.82667
G1 X128.618 Y98.822 E8.97563
G1 X128.618 Y105.868 E9.31452
G1 X106.442 Y105.868 E10.38111
G1 X105.996 Y106.254 F30000
G1 F6000
G1 X105.996 Y97.663 E10.79431
G1 X107.413 Y96.246 E10.89069
G1 X126.587 Y96.246 E11.81289
G1 X129.004 Y98.663 E11.97729
G1 X129.004 Y106.254 E12.34239
G1 X106.056 Y106.254 E13.44611
G1 X105.611 Y106.639 F30000
G1 F6000
G1 X105.611 Y97.503 E13.88552
G1 X107.253 Y95.861 E13.99721
G1 X126.747 Y95.861 E14.9348
G1 X129.389 Y98.503 E15.11451
G1 X129.389 Y106.639 E15.50582
G1 X105.671 Y106.639 E16.64657
G1 X105.225 Y107.025 F30000
;TYPE:External perimeter
G1 F3000
G1 X105.225 Y97.343 E17.11224
G1 X107.093 Y95.475 E17.2393
G1 X126.907 Y95.475 E18.19228
G1 X129.775 Y98.343 E18.38736
G1 X129.775 Y107.025 E18.80493
G1 X105.285 Y107.025 E19.98281
G1 X105.385 Y106.658 F30000
G1 E17.98281 F2400
G92 E0
G1 X107.635 Y98.069 F30000
G1 E2 F2400
;TYPE:Solid infill
G1 F3960
G1 X107.635 Y104.808 E2.32412
G1 X107.346 Y104.904 E2.33877
;WIDTH:0.404381
G1 X107.346 Y98.222 E2.62213
G1 X108.021 Y97.692 F30000
;WIDTH:0.45
G1 F3960
G1 X108.021 Y104.808 E2.96438
G1 X108.406 Y104.808 E2.9829
G1 X108.406 Y97.692 E3.32515
G1 X108.792 Y97.692 E3.34372
G1 X108.792 Y104.808 E3.68597
G1 X109.178 Y104.808 E3.70454
G1 X109.178 Y97.692 E4.04679
G1 X109.563 Y97.692 E4.06531
G1 X109.563 Y104.808 E4.40756
G1 X109.949 Y104.808 E4.42613
G1 X109.949 Y97.692 E4.76838
G1 X110.334 Y97.692 E4.7869
G1 X110.334 Y104.808 E5.12915
G1 X110.72 Y104.808 E5.14772
G1 X110.72 Y97.692 E5.48997
G1 X111.106 Y97.692 E5.50854
G1 X111.106 Y104.808 E5.85079
G1 X111.491 Y104.808 E5.86931
G1 X111.491 Y97.692 E6.21156
G1 X111.877 Y97.692 E6.23013
G1 X111.877 Y104.808 E6.57238
G1 X112.263 Y104.808 E6.59095
G1 X112.263 Y97.692 E6.9332
G1 X112.648 Y97.692 E6.95172
G1 X112.648 Y104.808 E7.29397
G1 X113.034 Y104.808 E7.31254
G1 X113.034 Y97.692 E7.65479
G1 X113.419 Y97.692 E7.67331
G1 X113.419 Y104.808 E8.01556
G1 X113.805 Y104.808 E8.03413
G1 X113.805 Y97.692 E8.37638
G1 X114.191 Y97.692 E8.39495
G1 X114.191 Y104.808 E8.7372
G1 X114.576 Y104.808 E8.75572
G1 X114.576 Y97.692 E9.09797
G1 X114.962 Y97.692 E9.11654
G1 X114.962 Y104.808 E9.45879
G1 X115.347 Y104.808 E9.47731
G1 X115.347 Y97.692 E9.81956
G1 X115.733 Y97.692 E9.83813
G1 X115.733 Y104.808 E10.18038
G1 X116.119 Y104.808 E10.19895
G1 X116.119 Y97.692 E10.5412
G1 X116.504 Y97.692 E10.55972
G1 X116.504 Y104.808 E10.90197
G1 X116.89 Y104.808 E10.92054
G1 X116.89 Y97.692 E11.26279
G1 X117.276 Y97.692 E11.28136
G1 X117.276 Y104.808 E11.62361
G1 X117.661 Y104.808 E11.64213
G1 X117.661 Y97.692 E11.98438
G1 X118.047 Y97.692 E12.00295
G1 X118.047 Y104.808 E12.3452
G1 X118.432 Y104.808 E12.36372
G1 X118.432 Y97.692 E12.70597
G1 X118.818 Y97.692 E12.72454
G1 X118.818 Y104.808 E13.06679
G1 X119.204 Y104.808 E13.08536
G1 X119.204 Y97.692 E13.42761
G1 X119.589 Y97.692 E13.44613
G1 X119.589 Y104.808 E13.78838
G1 X119.975 Y104.808 E13.80695
