; generated by PrusaSlicer 2.6.1+linux-x64-GTK3 on 2023-10-19 at 02:49:14 UTC

; 

; external perimeters extrusion width = 0.45mm
; perimeters extrusion width = 0.45mm
; infill extrusion width = 0.45mm
; solid infill extrusion width = 0.45mm
; top infill extrusion width = 0.40mm
; first layer extrusion width = 0.70mm

;TYPE:Custom
; M190 R30 ; Because of probe temperature drift,
; M109 R30 ; Let the beds and hotend cool down before homing the axis

G28 ; home all axes
G1 Z100.0 F3000 ; Raise head above brush
M190 S100 ; set bed temperature and wait for it to be reached
M109 S255 ; set hot end temp and wait for it

; Brush any crap off the nozzle
G1 X232.0 Y0.0 F3000 ; Goto Start of movement
G1 Z19.0 F3000 ; Lower into brush
G1 X224.0 Y2.0 F3000 ; Goto Start of movement
G1 X232.0 Y4.0 F3000 ; 
G1 X224.0 Y6.0 F3000 ; 
G1 X232.0 Y8.0 F3000 ; 
G1 X224.0 Y10.0 F3000 ;
G1 X232.0 Y12.0 F3000 ;
G1 X224.0 Y14.0 F3000 ;
G1 X232.0 Y16.0 F3000 ;
G1 X224.0 Y18.0 F3000 ;
G1 X232.0 Y20.0 F3000 ;
G1 X224.0 Y22.0 F3000 ;
G1 X232.0 Y24.0 F3000 ;
G1 X224.0 Y26.0 F3000 ;
G1 X232.0 Y28.0 F3000 ;
G1 X224.0 Y30.0 F3000 ;
G1 X232.0 Y28.0 F3000 ;
G1 X224.0 Y26.0 F3000 ;
G1 X232.0 Y24.0 F3000 ;
G1 X224.0 Y22.0 F3000 ;
G1 X232.0 Y20.0 F3000 ;
G1 X224.0 Y18.0 F3000 ;
G1 X232.0 Y16.0 F3000 ;
G1 X224.0 Y14.0 F3000 ;
G1 X232.0 Y12.0 F3000 ;
G1 X224.0 Y10.0 F3000 ;
G1 X232.0 Y8.0 F3000 ; 
G1 X224.0 Y6.0 F3000 ; 
G1 X232.0 Y4.0 F3000 ; 
G1 X224.0 Y2.0 F3000 ; 
G1 X232.0 Y0.0 F3000 ; 
G1 X228.0 Y0.0 F3000 ; 
G1 X228.0 Y30.0 F5000 ; 
G1 X228.0 Y0.0 F5000 ; 
G1 X228.0 Y30.0 F5000 ; 
G1 X228.0 Y0.0 F5000 ; 
G1 X228.0 Y30.0 F5000 ; 

; Do a purge line to prime the extruder
G92 E0 ;Reset Extruder
G1 X227.0 Y80.0 F5000 ; Goto Start of purge
G1 Z0.28 F5000 ;Move Head to start height
G1 X227.0 Y230.0 Z0.28 F1500.0 E15; Draw first line
G1 X226.7 Y230.0 Z0.28 F5000.0 ;Move to side a little
G1 X226.7 Y80.0 Z0.28 F1500.0 E30; Draw the second line
G1 Z0.4 F5000; Move Z Axis Up
G1 Y120 F1500; Wipe to the back
G1 X117.5 Y117.5 Z27.0 F5000 ; Raise head above brush
G92 E0 ;Reset Extruder
G21 ; set units to millimeters
G90 ; use absolute coordinates
M82 ; use absolute distances for extrusion
G92 E0
; Filament gcode
SET_PRESSURE_ADVANCE ADVANCE=0.051
M107
;LAYER_CHANGE
;Z:0.35
;HEIGHT:0.35
G1 Z.35 F30000
G1 E-2 F2400
G92 E0
G1 X21.967 Y105.244 F30000
G1 E2 F2400
;TYPE:Skirt/Brim
;WIDTH:0.7
G1 F1800
G1 X213.033 Y105.244 E19.37355
G1 X213.213 Y105.284 E19.39032
G1 X213.563 Y105.429 E19.42477
G1 X213.719 Y105.528 E19.44157
G1 X214.437 Y106.237 E19.53332
G1 X214.572 Y106.441 E19.55556
G1 X214.714 Y106.784 E19.58932
G1 X214.762 Y107.024 E19.61158
G1 X214.762 Y123.526 E21.1121
G1 X214.731 Y124.119 E21.16609
G1 X214.64 Y124.731 E21.22235
G1 X214.433 Y125.503 E21.29503
G1 X214.219 Y126.05 E21.34844
G1 X213.958 Y126.57 E21.40135
G1 X213.523 Y127.24 E21.47399
G1 X213.15 Y127.694 E21.52742
G1 X212.716 Y128.13 E21.58336
G1 X212.122 Y128.609 E21.65275
G1 X211.598 Y128.942 E21.7092
G1 X211.016 Y129.234 E21.76841
G1 X210.443 Y129.453 E21.82419
G1 X209.875 Y129.609 E21.87775
G1 X209.085 Y129.735 E21.95049
G1 X208.525 Y129.762 E22.00147
G1 X191.473 Y129.762 E23.552
G1 X190.836 Y129.727 E23.61001
G1 X190.19 Y129.623 E23.66951
G1 X189.598 Y129.466 E23.7252
G1 X189.021 Y129.25 E23.78122
G1 X188.375 Y128.926 E23.84693
G1 X187.823 Y128.567 E23.9068
G1 X187.313 Y128.156 E23.96636
G1 X186.872 Y127.718 E24.02288
G1 X186.478 Y127.24 E24.07921
G1 X186.116 Y126.697 E24.13855
G1 X185.795 Y126.079 E24.20187
G1 X185.546 Y125.439 E24.26431
G1 X185.359 Y124.762 E24.32817
G1 X44.639 Y124.762 E37.12378
G1 X44.443 Y125.473 E37.19084
G1 X44.218 Y126.053 E37.24741
G1 X43.919 Y126.638 E37.30715
G1 X43.561 Y127.187 E37.36675
G1 X43.149 Y127.695 E37.42622
G1 X42.66 Y128.18 E37.48885
G1 X42.119 Y128.61 E37.55169
G1 X41.622 Y128.928 E37.60534
G1 X41.07 Y129.21 E37.6617
G1 X40.362 Y129.479 E37.73057
G1 X39.729 Y129.64 E37.78996
G1 X39.119 Y129.731 E37.84604
G1 X38.526 Y129.762 E37.90003
G1 X26.439 Y129.761 E38.9991
G1 X25.809 Y129.724 E39.05648
G1 X25.197 Y129.625 E39.11285
G1 X24.604 Y129.468 E39.16863
G1 X24.022 Y129.251 E39.22511
G1 X23.308 Y128.888 E39.29794
G1 X22.796 Y128.549 E39.35378
G1 X22.287 Y128.133 E39.41355
G1 X21.844 Y127.688 E39.47065
G1 X21.436 Y127.183 E39.52968
G1 X21.078 Y126.632 E39.58943
G1 X20.792 Y126.075 E39.64636
G1 X20.567 Y125.503 E39.70225
G1 X20.391 Y124.875 E39.76155
G1 X20.265 Y124.085 E39.83429
G1 X20.238 Y123.525 E39.88527
G1 X20.244 Y106.967 E41.39088
G1 X20.284 Y106.787 E41.40765
G1 X20.428 Y106.441 E41.44173
G1 X20.563 Y106.237 E41.46397
G1 X21.281 Y105.528 E41.55572
G1 X21.437 Y105.429 E41.57252
G1 X21.787 Y105.284 E41.60697
G1 X21.909 Y105.257 E41.61833
G1 X22.03 Y105.868 F30000
G1 F1800
G1 X212.945 Y105.863 E58.97815
G1 X213.343 Y106.028 E59.01733
G1 X213.972 Y106.657 E59.09822
G1 X214.137 Y107.055 E59.1374
G1 X214.137 Y123.517 E60.63428
G1 X214.108 Y124.07 E60.68463
G1 X214.025 Y124.619 E60.73512
G1 X213.844 Y125.293 E60.79858
G1 X213.654 Y125.783 E60.84637
G1 X213.408 Y126.274 E60.89631
G1 X213.029 Y126.857 E60.95954
G1 X212.677 Y127.285 E61.00993
G1 X212.286 Y127.676 E61.06021
G1 X211.77 Y128.092 E61.12048
G1 X211.301 Y128.392 E61.1711
G1 X210.776 Y128.657 E61.22457
G1 X210.262 Y128.854 E61.27462
G1 X209.726 Y129.002 E61.32518
G1 X209.037 Y129.111 E61.38861
G1 X208.517 Y129.137 E61.43595
G1 X191.482 Y129.137 E62.98494
G1 X190.888 Y129.104 E63.03904
G1 X190.307 Y129.009 E63.09257
G1 X189.775 Y128.867 E63.14264
G1 X189.257 Y128.672 E63.19297
G1 X188.672 Y128.376 E63.25259
G1 X188.201 Y128.069 E63.30371
G1 X187.742 Y127.701 E63.3572
G1 X187.324 Y127.286 E63.41076
G1 X186.971 Y126.857 E63.46128
G1 X186.646 Y126.366 E63.51482
G1 X186.372 Y125.837 E63.56899
G1 X186.134 Y125.228 E63.62844
G1 X185.997 Y124.723 E63.67602
G1 X185.898 Y124.137 E63.73006
G1 X44.103 Y124.137 E76.62342
G1 X44.009 Y124.693 E76.67469
G1 X43.854 Y125.263 E76.7284
G1 X43.641 Y125.812 E76.78195
G1 X43.371 Y126.337 E76.83563
G1 X43.047 Y126.831 E76.88935
G1 X42.696 Y127.264 E76.94003
G1 X42.256 Y127.703 E76.99655
G1 X41.768 Y128.093 E77.05335
G1 X41.298 Y128.393 E77.10405
G1 X40.802 Y128.645 E77.15464
G1 X40.189 Y128.878 E77.21427
G1 X39.619 Y129.025 E77.2678
G1 X39.07 Y129.108 E77.31829
G1 X38.517 Y129.137 E77.36864
G1 X26.466 Y129.137 E78.46443
G1 X25.891 Y129.104 E78.5168
G1 X25.34 Y129.016 E78.56754
G1 X24.807 Y128.877 E78.61763
G1 X24.257 Y128.672 E78.671
G1 X23.637 Y128.356 E78.73428
G1 X23.177 Y128.054 E78.78432
G1 X22.719 Y127.68 E78.83809
G1 X22.299 Y127.259 E78.89216
G1 X21.933 Y126.804 E78.94526
G1 X21.612 Y126.307 E78.99906
G1 X21.356 Y125.805 E79.0503
G1 X21.155 Y125.291 E79.10048
G1 X20.998 Y124.725 E79.15389
G1 X20.889 Y124.037 E79.21723
G1 X20.863 Y123.517 E79.26457
G1 X20.863 Y107.055 E80.76145
G1 X21.028 Y106.657 E80.80063
G1 X21.657 Y106.028 E80.88152
G1 X21.972 Y105.884 E80.91301
G1 X22.148 Y106.488 F30000
G1 F1800
G1 X212.852 Y106.488 E98.25364
G1 X212.967 Y106.535 E98.26494
G1 X213.465 Y107.033 E98.32898
G1 X213.512 Y107.148 E98.34028
G1 X213.512 Y123.509 E99.82798
G1 X213.485 Y124.02 E99.87451
G1 X213.41 Y124.507 E99.91931
G1 X213.256 Y125.083 E99.97353
G1 X213.077 Y125.542 E100.01833
G1 X212.858 Y125.976 E100.06253
G1 X212.534 Y126.475 E100.11663
G1 X212.222 Y126.856 E100.16141
G1 X211.879 Y127.202 E100.20571
G1 X211.417 Y127.576 E100.25976
G1 X211.003 Y127.842 E100.30451
G1 X210.535 Y128.08 E100.35225
G1 X210.081 Y128.256 E100.39653
G1 X209.577 Y128.395 E100.44407
G1 X208.989 Y128.488 E100.4982
G1 X208.509 Y128.512 E100.5419
G1 X191.491 Y128.512 E102.08934
G1 X190.941 Y128.481 E102.13943
G1 X190.425 Y128.395 E102.187
G1 X189.955 Y128.268 E102.23127
G1 X189.494 Y128.093 E102.27611
G1 X188.997 Y127.842 E102.32674
G1 X188.58 Y127.572 E102.37191
G1 X188.146 Y127.224 E102.42249
G1 X187.777 Y126.856 E102.46988
G1 X187.466 Y126.475 E102.5146
G1 X187.177 Y126.037 E102.56232
G1 X186.935 Y125.566 E102.61047
G1 X186.733 Y125.048 E102.66103
G1 X186.604 Y124.575 E102.70561
G1 X186.519 Y124.058 E102.75325
G1 X186.495 Y123.512 E102.80295
G1 X43.505 Y123.512 E115.80497
G1 X43.481 Y124.058 E115.85467
G1 X43.402 Y124.545 E115.89953
G1 X43.256 Y125.083 E115.95022
G1 X43.077 Y125.542 E115.99502
G1 X42.839 Y126.009 E116.04268
G1 X42.534 Y126.475 E116.09332
G1 X42.222 Y126.856 E116.1381
G1 X41.851 Y127.227 E116.18581
G1 X41.417 Y127.576 E116.23645
G1 X40.975 Y127.858 E116.28412
G1 X40.536 Y128.08 E116.32885
G1 X40.015 Y128.278 E116.37953
G1 X39.507 Y128.41 E116.42726
G1 X39.02 Y128.485 E116.47206
G1 X38.509 Y128.512 E116.51859
G1 X26.491 Y128.512 E117.61138
G1 X25.973 Y128.484 E117.65855
G1 X25.454 Y128.402 E117.70633
G1 X24.983 Y128.277 E117.75064
G1 X24.494 Y128.093 E117.79815
G1 X23.964 Y127.823 E117.85224
G1 X23.557 Y127.557 E117.89645
G1 X23.148 Y127.226 E117.94429
G1 X22.774 Y126.852 E117.99238
G1 X22.447 Y126.449 E118.03957
G1 X22.161 Y126.008 E118.08736
G1 X21.92 Y125.536 E118.13555
G1 X21.744 Y125.081 E118.17991
G1 X21.605 Y124.577 E118.22745
G1 X21.512 Y123.989 E118.28158
G1 X21.488 Y123.509 E118.32528
G1 X21.488 Y107.148 E119.81298
G1 X21.535 Y107.033 E119.82428
G1 X22.033 Y106.535 E119.88832
G1 X22.092 Y106.511 E119.89411
G1 E117.89411 F2400
G92 E0
G1 X40.308 Y122.205 F30000
G1 E2 F2400
;TYPE:Perimeter
;WIDTH:0.7
G1 F1800
G1 X40.275 Y122.462 E2.02356
G1 X40.275 Y123.28 E2.09794
G1 X40.225 Y123.867 E2.15151
G1 X40.111 Y124.217 E2.18498
G1 X39.926 Y124.536 E2.21851
G1 X39.68 Y124.81 E2.25199
G1 X39.382 Y125.027 E2.28551
G1 X39.045 Y125.177 E2.31905
G1 X38.442 Y125.275 E2.3746
G1 X26.72 Y125.275 E3.44048
G1 X26.133 Y125.225 E3.49405
G1 X25.782 Y125.111 E3.52761
G1 X25.469 Y124.93 E3.56049
G1 X25.189 Y124.678 E3.59474
G1 X24.973 Y124.381 E3.62813
G1 X24.825 Y124.051 E3.66102
G1 X24.725 Y123.442 E3.71714
G1 X24.725 Y109.725 E4.96442
G1 X210.275 Y109.725 E21.83639
G1 X210.275 Y123.28 E23.06894
G1 X210.225 Y123.867 E23.12251
G1 X210.111 Y124.217 E23.15598
G1 X209.926 Y124.536 E23.18951
G1 X209.68 Y124.81 E23.22299
G1 X209.382 Y125.027 E23.25651
G1 X209.045 Y125.177 E23.29005
G1 X208.442 Y125.275 E23.3456
G1 X191.72 Y125.275 E24.86612
G1 X191.133 Y125.225 E24.91969
G1 X190.783 Y125.111 E24.95316
G1 X190.464 Y124.926 E24.98669
G1 X190.19 Y124.68 E25.02017
G1 X189.973 Y124.382 E25.05369
G1 X189.823 Y124.045 E25.08723
G1 X189.725 Y123.442 E25.14278
G1 X189.725 Y122.462 E25.23189
G1 X189.655 Y121.916 E25.28194
G1 X189.513 Y121.524 E25.31985
G1 X189.23 Y121.077 E25.36796
G1 X188.793 Y120.672 E25.42214
G1 X188.419 Y120.461 E25.46119
G1 X187.993 Y120.323 E25.50191
G1 X187.538 Y120.275 E25.54351
G1 X42.462 Y120.275 E38.7352
G1 X42.085 Y120.308 E38.76961
G1 X41.581 Y120.461 E38.8175
G1 X41.207 Y120.672 E38.85655
G1 X40.898 Y120.934 E38.89339
G1 X40.566 Y121.373 E38.94344
G1 X40.345 Y121.916 E38.99675
G1 X40.316 Y122.146 E39.01783
G1 X40.922 Y122.29 F30000
G1 F1800
G1 X40.9 Y122.462 E39.0336
G1 X40.9 Y123.417 E39.12044
G1 X40.839 Y123.997 E39.17347
G1 X40.685 Y124.473 E39.21896
G1 X40.435 Y124.906 E39.26442
G1 X40.1 Y125.277 E39.30987
G1 X39.696 Y125.571 E39.3553
G1 X39.239 Y125.775 E39.40081
G1 X38.994 Y125.826 E39.42357
G1 X38.458 Y125.9 E39.47277
G1 X26.583 Y125.9 E40.55256
G1 X26.003 Y125.839 E40.60559
G1 X25.527 Y125.685 E40.65108
G1 X25.1 Y125.438 E40.69593
G1 X24.722 Y125.099 E40.7421
G1 X24.429 Y124.695 E40.78748
G1 X24.228 Y124.245 E40.83229
G1 X24.175 Y123.997 E40.85535
G1 X24.1 Y123.458 E40.90483
G1 X24.1 Y109.1 E42.2104
G1 X210.9 Y109.1 E59.19604
G1 X210.9 Y123.417 E60.49788
G1 X210.839 Y123.997 E60.55091
G1 X210.685 Y124.473 E60.5964
G1 X210.435 Y124.906 E60.64186
G1 X210.1 Y125.277 E60.68731
G1 X209.696 Y125.571 E60.73274
G1 X209.239 Y125.775 E60.77825
G1 X208.458 Y125.9 E60.85017
G1 X191.583 Y125.9 E62.38461
G1 X191.003 Y125.839 E62.43764
G1 X190.527 Y125.685 E62.48313
G1 X190.094 Y125.435 E62.52859
G1 X189.723 Y125.1 E62.57404
G1 X189.429 Y124.696 E62.61947
G1 X189.225 Y124.239 E62.66498
G1 X189.113 Y123.71 E62.71415
G1 X189.085 Y122.251 E62.84684
G1 X188.949 Y121.792 E62.89037
G1 X188.746 Y121.473 E62.92475
G1 X188.435 Y121.183 E62.96342
G1 X188.019 Y120.976 E63.00567
G1 X187.538 Y120.9 E63.04995
G1 X42.462 Y120.9 E76.24164
G1 X42.137 Y120.934 E76.27135
G1 X41.694 Y121.102 E76.31443
G1 X41.345 Y121.371 E76.3545
G1 X41.108 Y121.684 E76.3902
G1 X40.95 Y122.072 E76.42829
G1 X40.93 Y122.231 E76.44286
G1 X41.544 Y122.355 F30000
G1 F1800
G1 X41.525 Y122.462 E76.45274
G1 X41.525 Y123.45 E76.54258
G1 X41.454 Y124.128 E76.60457
G1 X41.259 Y124.728 E76.66194
G1 X40.943 Y125.275 E76.71938
G1 X40.521 Y125.744 E76.77675
G1 X40.01 Y126.115 E76.83417
G1 X39.433 Y126.372 E76.89161
G1 X39.024 Y126.459 E76.92963
G1 X38.474 Y126.525 E76.98
G1 X26.55 Y126.525 E78.06424
G1 X25.872 Y126.454 E78.12623
G1 X25.271 Y126.259 E78.18368
G1 X24.731 Y125.947 E78.24039
G1 X24.255 Y125.52 E78.29854
G1 X23.885 Y125.01 E78.35583
G1 X23.631 Y124.44 E78.41257
G1 X23.541 Y124.024 E78.45127
G1 X23.475 Y123.474 E78.50164
G1 X23.475 Y108.475 E79.86549
G1 X211.525 Y108.475 E96.96479
G1 X211.525 Y123.45 E98.32646
G1 X211.454 Y124.128 E98.38845
G1 X211.259 Y124.728 E98.44582
G1 X210.943 Y125.275 E98.50326
G1 X210.521 Y125.744 E98.56063
G1 X210.01 Y126.115 E98.61805
G1 X209.433 Y126.372 E98.67549
G1 X209.024 Y126.459 E98.71351
G1 X208.474 Y126.525 E98.76388
G1 X191.55 Y126.525 E100.30277
G1 X190.872 Y126.454 E100.36476
G1 X190.272 Y126.259 E100.42213
G1 X189.725 Y125.943 E100.47957
G1 X189.256 Y125.521 E100.53694
G1 X188.885 Y125.01 E100.59436
G1 X188.628 Y124.433 E100.6518
G1 X188.492 Y123.791 E100.71147
G1 X188.466 Y122.336 E100.84379
G1 X188.35 Y121.996 E100.87646
G1 X188.146 Y121.749 E100.90559
G1 X187.826 Y121.571 E100.93889
G1 X187.538 Y121.525 E100.96541
G1 X42.462 Y121.525 E114.1571
G1 X42.364 Y121.53 E114.16602
G1 X42.001 Y121.646 E114.20067
G1 X41.737 Y121.869 E114.23209
G1 X41.583 Y122.137 E114.2602
G1 X41.555 Y122.296 E114.27488
G1 X42.175 Y122.393 F30000
;TYPE:External perimeter
G1 F1800
G1 X42.15 Y122.462 E114.28155
G1 X42.15 Y123.483 E114.37439
G1 X42.069 Y124.259 E114.44533
G1 X41.833 Y124.984 E114.51466
G1 X41.451 Y125.644 E114.584
G1 X40.941 Y126.211 E114.65334
G1 X40.324 Y126.659 E114.72267
G1 X39.627 Y126.97 E114.79207
G1 X38.873 Y127.13 E114.86216
G1 X38.491 Y127.15 E114.89694
G1 X26.517 Y127.15 E115.98573
G1 X25.741 Y127.068 E116.05668
G1 X25.016 Y126.833 E116.12598
G1 X24.362 Y126.456 E116.19462
G1 X23.789 Y125.941 E116.26467
G1 X23.34 Y125.324 E116.33406
G1 X23.033 Y124.635 E116.40265
G1 X22.87 Y123.873 E116.47351
G1 X22.85 Y123.491 E116.50829
G1 X22.85 Y107.85 E117.93052
G1 X212.15 Y107.85 E135.14348
G1 X212.15 Y123.483 E136.56498
G1 X212.069 Y124.259 E136.63592
G1 X211.833 Y124.984 E136.70525
G1 X211.451 Y125.644 E136.77459
G1 X210.941 Y126.211 E136.84393
G1 X210.324 Y126.659 E136.91326
G1 X209.627 Y126.97 E136.98266
G1 X208.873 Y127.13 E137.05275
G1 X208.491 Y127.15 E137.08753
G1 X191.517 Y127.15 E138.63097
G1 X190.741 Y127.069 E138.70191
G1 X190.016 Y126.833 E138.77124
G1 X189.356 Y126.451 E138.84058
G1 X188.789 Y125.941 E138.90992
G1 X188.341 Y125.324 E138.97925
G1 X188.03 Y124.627 E139.04865
G1 X187.87 Y123.873 E139.11874
G1 X187.831 Y122.354 E139.25691
G1 X187.717 Y122.207 E139.27383
G1 X187.538 Y122.15 E139.29091
G1 X42.462 Y122.15 E152.4826
G1 X42.397 Y122.157 E152.48854
G1 X42.221 Y122.264 E152.50727
G1 X42.195 Y122.336 E152.51423
G1 X42.101 Y122.396 F30000
G1 E150.51423 F2400
G92 E0
G1 X210.088 Y110.198 F30000
G1 E2 F2400
;TYPE:Solid infill
;WIDTH:0.710037
G1 F1800
G1 X25.193 Y110.198 E19.08246
G1 X25.194 Y110.833 E19.14113
G1 X209.807 Y110.833 E36.19753
G1 X209.807 Y111.468 E36.2562
G1 X25.194 Y111.468 E53.3126
G1 X25.195 Y112.103 E53.37127
G1 X209.807 Y112.103 E70.42758
G1 X209.807 Y112.738 E70.48625
G1 X25.195 Y112.738 E87.54256
G1 X25.195 Y113.373 E87.60123
G1 X209.807 Y113.373 E104.65754
G1 X209.807 Y114.008 E104.71621
G1 X25.196 Y114.008 E121.77243
G1 X25.196 Y114.643 E121.8311
G1 X209.807 Y114.643 E138.88732
G1 X209.807 Y115.278 E138.94599
G1 X25.196 Y115.278 E156.00221
G1 X25.197 Y115.913 E156.06088
G1 X209.807 Y115.913 E173.11701
G1 X209.807 Y116.548 E173.17568
