; generated by PrusaSlicer 2.6.1+linux-x64-GTK3 on 2023-10-09 at 04:18:55 UTC

; 

; external perimeters extrusion width = 0.45mm
; perimeters extrusion width = 0.45mm
; infill extrusion width = 0.45mm
; solid infill extrusion width = 0.45mm
; top infill extrusion width = 0.40mm
; first layer extrusion width = 0.70mm

;TYPE:Custom
; M190 R30 ; Because of probe temperature drift,
; M109 R30 ; Let the beds and hotend cool down before homing the axis

G28 ; home all axes
G1 Z5 F5000 ; lift nozzle
M190 S65 ; set bed temperature and wait for it to be reached
M109 S205 ; set hot end temp and wait for it

; Do a purge line to prime the extruder
G92 E0 ;Reset Extruder
G1 Z2.0 F3000 ;Move Z Axis up
G1 X20 Y5.1 Z0.28 F5000.0 ;Move to start position
G1 X200.0 Y5.1 Z0.28 F1500.0 E15 ;Draw the first line
G1 X200.0 Y5.4 Z0.28 F5000.0 ;Move to side a little
G1 X20 Y5.4 Z0.28 F1500.0 E30 ;Draw the second line
G1 Z0.4 F3000; Move Z Axis Up
G1 X50 F1500; Wipe to the right
G92 E0 ;Reset Extruder

; Brush any crap off the nozzle
; """""
G21 ; set units to millimeters
G90 ; use absolute coordinates
M82 ; use absolute distances for extrusion
G92 E0
; Filament gcode
M107
;LAYER_CHANGE
;Z:0.35
;HEIGHT:0.35
G1 Z.35 F30000
G1 E-.1 F2400
G92 E0
G1 X98.427 Y98.564 F30000
G1 E.1 F2400
;TYPE:Skirt/Brim
;WIDTH:0.7
G1 F1800
G1 X98.861 Y98.194 E.15186
G1 X99.394 Y97.887 E.20779
G1 X99.849 Y97.746 E.2511
G1 X100.434 Y97.662 E.30484
G1 X134.597 Y97.665 E3.41127
G1 X135.157 Y97.747 E3.46273
G1 X135.606 Y97.887 E3.5055
G1 X136.139 Y98.194 E3.56143
G1 X136.511 Y98.494 E3.60488
G1 X136.602 Y98.6 E3.61758
G1 X137.135 Y99.443 E3.70827
G1 X137.254 Y99.846 E3.74648
G1 X137.338 Y100.434 E3.80049
G1 X137.338 Y134.577 E6.9051
G1 X137.107 Y135.625 E7.00268
G1 X136.9 Y135.999 E7.04155
G1 X136.573 Y136.436 E7.09118
G1 X136.139 Y136.806 E7.14304
G1 X135.606 Y137.113 E7.19897
G1 X135.151 Y137.254 E7.24228
G1 X134.566 Y137.338 E7.29602
G1 X100.423 Y137.338 E10.40063
G1 X99.375 Y137.107 E10.49821
G1 X99.001 Y136.9 E10.53708
G1 X98.564 Y136.573 E10.58671
G1 X98.194 Y136.139 E10.63857
G1 X97.887 Y135.606 E10.6945
G1 X97.746 Y135.151 E10.73781
G1 X97.662 Y134.566 E10.79155
G1 X97.662 Y100.423 E13.89616
G1 X97.893 Y99.375 E13.99374
G1 X98.1 Y99.001 E14.03261
G1 X98.391 Y98.612 E14.07678
G1 X98.892 Y98.986 F30000
G1 F1800
G1 X99.197 Y98.722 E14.11346
G1 X99.673 Y98.447 E14.16345
G1 X99.962 Y98.361 E14.19087
G1 X100.458 Y98.287 E14.23647
G1 X134.572 Y98.29 E17.33844
G1 X135.042 Y98.362 E17.38168
G1 X135.327 Y98.448 E17.40875
G1 X135.806 Y98.724 E17.45902
G1 X136.066 Y98.934 E17.48941
G1 X136.551 Y99.668 E17.56941
G1 X136.639 Y99.962 E17.59732
G1 X136.713 Y100.458 E17.64292
G1 X136.713 Y134.545 E20.74244
G1 X136.536 Y135.367 E20.8189
G1 X136.385 Y135.644 E20.84759
G1 X136.094 Y136.033 E20.89176
G1 X135.803 Y136.278 E20.92635
G1 X135.327 Y136.553 E20.97634
G1 X135.038 Y136.639 E21.00376
G1 X134.542 Y136.713 E21.04936
G1 X100.455 Y136.713 E24.14888
G1 X99.633 Y136.536 E24.22534
G1 X99.356 Y136.385 E24.25403
G1 X98.967 Y136.094 E24.2982
G1 X98.722 Y135.803 E24.33279
G1 X98.447 Y135.327 E24.38278
G1 X98.361 Y135.038 E24.4102
G1 X98.287 Y134.542 E24.4558
G1 X98.287 Y100.455 E27.55532
G1 X98.464 Y99.633 E27.63178
G1 X98.615 Y99.356 E27.66047
G1 X98.856 Y99.034 E27.69704
G1 X99.356 Y99.408 F30000
G1 F1800
G1 X99.537 Y99.246 E27.71913
G1 X99.897 Y99.032 E27.75721
G1 X100.083 Y98.974 E27.77493
G1 X100.483 Y98.912 E27.81174
G1 X134.546 Y98.915 E30.90907
G1 X134.919 Y98.975 E30.94342
G1 X135.103 Y99.032 E30.96094
G1 X135.463 Y99.246 E30.99902
G1 X135.615 Y99.371 E31.01691
G1 X135.969 Y99.9 E31.07479
G1 X136.026 Y100.083 E31.09222
G1 X136.088 Y100.483 E31.12903
G1 X136.088 Y134.514 E34.22345
G1 X135.963 Y135.115 E34.27927
G1 X135.87 Y135.29 E34.29729
G1 X135.618 Y135.627 E34.33555
G1 X135.463 Y135.754 E34.35377
G1 X135.103 Y135.968 E34.39185
G1 X134.917 Y136.026 E34.40957
G1 X134.517 Y136.088 E34.44638
G1 X100.486 Y136.088 E37.5408
G1 X99.885 Y135.963 E37.59662
G1 X99.71 Y135.87 E37.61464
G1 X99.373 Y135.618 E37.6529
G1 X99.246 Y135.463 E37.67112
G1 X99.032 Y135.103 E37.7092
G1 X98.974 Y134.917 E37.72692
G1 X98.912 Y134.517 E37.76373
G1 X98.912 Y100.486 E40.85815
G1 X99.037 Y99.885 E40.91397
G1 X99.13 Y99.71 E40.93199
G1 X99.32 Y99.457 E40.96076
G1 E40.86076 F2400
G92 E0
G1 X133.998 Y106.848 F30000
G1 E.1 F2400
;TYPE:Perimeter
;WIDTH:0.7
G1 F1800
G1 X134.06 Y106.768 E.1092
G1 X134.364 Y106.2 E.16778
G1 X134.501 Y105.812 E.2052
G1 X134.501 Y129.188 E2.33077
G1 X134.364 Y128.8 E2.36819
G1 X133.958 Y128.079 E2.44343
G1 X133.419 Y127.451 E2.51868
G1 X132.768 Y126.94 E2.59393
G1 X132.03 Y126.566 E2.66916
G1 X131.233 Y126.343 E2.74441
G1 X130.408 Y126.279 E2.81965
G1 X129.645 Y126.37 E2.88952
G1 X128.8 Y126.636 E2.97007
G1 X128.079 Y127.042 E3.04531
G1 X127.451 Y127.581 E3.12056
G1 X126.94 Y128.232 E3.19581
G1 X126.566 Y128.97 E3.27104
G1 X126.343 Y129.767 E3.34629
G1 X126.279 Y130.592 E3.42153
G1 X126.378 Y131.413 E3.49672
G1 X126.636 Y132.2 E3.57203
G1 X127.042 Y132.921 E3.64727
G1 X127.581 Y133.549 E3.72252
G1 X128.232 Y134.06 E3.79777
G1 X128.8 Y134.364 E3.85635
G1 X129.188 Y134.501 E3.89377
G1 X105.812 Y134.501 E6.01934
G1 X106.2 Y134.364 E6.05676
G1 X106.921 Y133.958 E6.132
G1 X107.549 Y133.419 E6.20725
G1 X108.06 Y132.768 E6.2825
G1 X108.434 Y132.03 E6.35773
G1 X108.657 Y131.233 E6.43298
G1 X108.721 Y130.408 E6.50822
G1 X108.622 Y129.587 E6.58341
G1 X108.364 Y128.8 E6.65872
G1 X107.958 Y128.079 E6.73396
G1 X107.419 Y127.451 E6.80921
G1 X106.768 Y126.94 E6.88446
G1 X106.03 Y126.566 E6.95969
G1 X105.233 Y126.343 E7.03494
G1 X104.408 Y126.279 E7.11018
G1 X103.645 Y126.37 E7.18005
G1 X102.8 Y126.636 E7.2606
G1 X102.079 Y127.042 E7.33584
G1 X101.451 Y127.581 E7.41109
G1 X100.94 Y128.232 E7.48634
G1 X100.636 Y128.8 E7.54492
G1 X100.499 Y129.188 E7.58234
G1 X100.499 Y105.812 E9.70791
G1 X100.636 Y106.2 E9.74533
G1 X101.042 Y106.921 E9.82057
G1 X101.581 Y107.549 E9.89582
G1 X102.232 Y108.06 E9.97107
G1 X102.97 Y108.434 E10.0463
G1 X103.767 Y108.657 E10.12155
G1 X104.592 Y108.721 E10.19679
G1 X105.413 Y108.622 E10.27198
G1 X106.2 Y108.364 E10.34729
G1 X106.921 Y107.958 E10.42253
G1 X107.549 Y107.419 E10.49778
G1 X108.06 Y106.768 E10.57303
G1 X108.434 Y106.03 E10.64826
G1 X108.657 Y105.233 E10.72351
G1 X108.721 Y104.408 E10.79875
G1 X108.622 Y103.587 E10.87394
G1 X108.364 Y102.8 E10.94925
G1 X107.958 Y102.079 E11.02449
G1 X107.419 Y101.451 E11.09974
G1 X106.768 Y100.94 E11.17499
G1 X106.2 Y100.636 E11.23357
G1 X105.812 Y100.499 E11.27099
G1 X129.198 Y100.499 E13.39747
G1 X128.8 Y100.636 E13.43574
G1 X128.079 Y101.042 E13.51098
G1 X127.451 Y101.581 E13.58623
G1 X126.94 Y102.232 E13.66148
G1 X126.566 Y102.97 E13.73671
G1 X126.343 Y103.767 E13.81196
G1 X126.279 Y104.592 E13.8872
G1 X126.378 Y105.413 E13.96239
G1 X126.636 Y106.2 E14.0377
G1 X127.042 Y106.921 E14.11294
G1 X127.581 Y107.549 E14.18819
G1 X128.232 Y108.06 E14.26344
G1 X128.97 Y108.434 E14.33867
G1 X129.767 Y108.657 E14.41392
G1 X130.592 Y108.721 E14.48916
G1 X131.413 Y108.622 E14.56435
G1 X132.2 Y108.364 E14.63966
G1 X132.921 Y107.958 E14.7149
G1 X133.549 Y107.419 E14.79015
G1 X133.96 Y106.896 E14.85063
G1 E14.75063 F2400
G92 E0
G1 X134.36 Y102.494 F30000
G1 E.1 F2400
;WIDTH:0.980975
G1 F1800
G1 X134.067 Y101.99 E.17685
G1 X133.509 Y101.342 E.28957
G1 X133.01 Y100.933 E.37462
G1 X132.506 Y100.64 E.45147
G1 X134.36 Y100.64 E.69586
G1 X134.36 Y102.434 E.93234
G1 E.83234 F2400
G92 E0
G1 X133.509 Y106.475 F30000
G1 E.1 F2400
;TYPE:External perimeter
;WIDTH:0.7
G1 F1800
G1 X133.066 Y107.023 E.16407
G1 X132.525 Y107.475 E.22817
G1 X131.905 Y107.813 E.29238
G1 X131.232 Y108.024 E.35651
G1 X130.531 Y108.099 E.42062
G1 X129.828 Y108.036 E.4848
G1 X129.151 Y107.836 E.54899
G1 X128.526 Y107.509 E.61313
G1 X127.977 Y107.066 E.67728
G1 X127.525 Y106.525 E.74138
G1 X127.187 Y105.905 E.80559
G1 X126.976 Y105.232 E.86972
G1 X126.901 Y104.531 E.93383
G1 X126.964 Y103.828 E.99801
G1 X127.164 Y103.151 E1.0622
G1 X127.491 Y102.526 E1.12634
G1 X127.934 Y101.977 E1.19049
G1 X128.475 Y101.525 E1.25459
G1 X129.095 Y101.187 E1.3188
G1 X129.818 Y100.971 E1.38741
G1 X130.469 Y100.901 E1.44695
G1 X131.172 Y100.964 E1.51113
G1 X131.849 Y101.164 E1.57532
G1 X132.474 Y101.491 E1.63946
G1 X133.023 Y101.934 E1.70361
G1 X133.475 Y102.475 E1.76771
G1 X133.813 Y103.095 E1.83192
G1 X134.024 Y103.768 E1.89605
G1 X134.099 Y104.469 E1.96016
G1 X134.036 Y105.172 E2.02434
G1 X133.836 Y105.849 E2.08853
G1 X133.537 Y106.422 E2.1473
G1 X133.689 Y106.832 F30000
G1 E2.0473 F2400
G92 E0
G1 X129.756 Y100.423 F30000
G1 E.1 F2400
;TYPE:Perimeter
;WIDTH:0.547087
G1 F1800
G1 X130.088 Y100.406 E.12283
;WIDTH:0.513305
G1 X130.419 Y100.389 E.14396
;WIDTH:0.511187
G1 X130.822 Y100.405 E.16955
;WIDTH:0.542851
G1 X131.226 Y100.421 E.19707
G1 E.09707 F2400
G92 E0
G1 X134.579 Y103.774 F30000
G1 E.1 F2400
G1 F1800
G1 X134.595 Y104.097 E.12201
;WIDTH:0.511187
G1 X134.611 Y104.419 E.14247
G1 X134.595 Y104.822 E.16806
;WIDTH:0.542851
G1 X134.579 Y105.226 E.19558
;WIDTH:0.551697
G1 X134.575 Y105.291 E.2001
G1 E.1001 F2400
G92 E0
G1 X134.36 Y132.506 F30000
G1 E.1 F2400
;WIDTH:0.980975
G1 F1800
G1 X134.36 Y134.36 E.34439
G1 X132.506 Y134.36 E.58878
G1 X133.01 Y134.067 E.66563
G1 X133.658 Y133.509 E.77835
G1 X134.067 Y133.01 E.8634
G1 X134.33 Y132.557 E.93245
G1 E.83245 F2400
G92 E0
G1 X128.482 Y127.521 F30000
G1 E.1 F2400
;TYPE:External perimeter
;WIDTH:0.7
G1 F1800
G1 X129.095 Y127.187 E.16348
G1 X129.818 Y126.971 E.23209
G1 X130.469 Y126.901 E.29163
G1 X131.172 Y126.964 E.35581
G1 X131.849 Y127.164 E.42
G1 X132.474 Y127.491 E.48414
G1 X133.023 Y127.934 E.54829
G1 X133.475 Y128.475 E.61239
G1 X133.813 Y129.095 E.6766
G1 X134.024 Y129.768 E.74073
G1 X134.099 Y130.469 E.80484
G1 X134.036 Y131.172 E.86902
G1 X133.836 Y131.849 E.93321
G1 X133.509 Y132.474 E.99735
G1 X133.066 Y133.023 E1.0615
G1 X132.525 Y133.475 E1.1256
G1 X131.905 Y133.813 E1.18981
G1 X131.195 Y134.032 E1.25737
G1 X130.531 Y134.099 E1.31805
G1 X129.828 Y134.036 E1.38223
G1 X129.151 Y133.836 E1.44642
G1 X128.526 Y133.509 E1.51056
G1 X127.977 Y133.066 E1.57471
G1 X127.525 Y132.525 E1.63881
G1 X127.187 Y131.905 E1.70302
G1 X126.976 Y131.232 E1.76715
G1 X126.901 Y130.531 E1.83126
G1 X126.964 Y129.828 E1.89544
G1 X127.164 Y129.151 E1.95963
G1 X127.491 Y128.526 E2.02377
G1 X127.934 Y127.977 E2.08792
G1 X128.435 Y127.558 E2.14731
G1 X128.453 Y127.122 F30000
G1 E2.04731 F2400
G92 E0
G1 X131.291 Y134.575 F30000
G1 E.1 F2400
;TYPE:Perimeter
;WIDTH:0.551697
G1 F1800
G1 X130.936 Y134.593 E.12465
;WIDTH:0.51561
G1 X130.581 Y134.611 E.14743
;WIDTH:0.511186
G1 X130.178 Y134.595 E.17302
;WIDTH:0.542849
G1 X129.774 Y134.579 E.20054
G1 E.10054 F2400
G92 E0
G1 X134.579 Y129.774 F30000
G1 E.1 F2400
;WIDTH:0.542851
G1 F1800
G1 X134.595 Y130.097 E.12201
;WIDTH:0.511187
G1 X134.611 Y130.419 E.14247
G1 X134.595 Y130.822 E.16806
;WIDTH:0.542851
G1 X134.579 Y131.226 E.19558
;WIDTH:0.551697
G1 X134.575 Y131.291 E.2001
G1 E.1001 F2400
G92 E0
G1 X100.64 Y132.506 F30000
G1 E.1 F2400
;WIDTH:0.980975
G1 F1800
G1 X100.933 Y133.01 E.17685
G1 X101.491 Y133.658 E.28957
G1 X101.99 Y134.067 E.37462
G1 X102.494 Y134.36 E.45147
G1 X100.64 Y134.36 E.69586
G1 X100.64 Y132.566 E.93234
G1 E.83234 F2400
G92 E0
G1 X102.479 Y127.523 F30000
G1 E.1 F2400
;TYPE:External perimeter
;WIDTH:0.7
G1 F1800
G1 X103.095 Y127.187 E.1638
G1 X103.818 Y126.971 E.23241
G1 X104.469 Y126.901 E.29195
G1 X105.172 Y126.964 E.35613
G1 X105.849 Y127.164 E.42032
G1 X106.474 Y127.491 E.48446
G1 X107.023 Y127.934 E.54861
G1 X107.475 Y128.475 E.61271
G1 X107.813 Y129.095 E.67692
G1 X108.024 Y129.768 E.74105
G1 X108.099 Y130.469 E.80516
G1 X108.036 Y131.172 E.86934
G1 X107.836 Y131.849 E.93353
G1 X107.509 Y132.474 E.99767
G1 X107.066 Y133.023 E1.06182
G1 X106.525 Y133.475 E1.12592
G1 X105.905 Y133.813 E1.19013
G1 X105.232 Y134.024 E1.25426
G1 X104.531 Y134.099 E1.31837
G1 X103.828 Y134.036 E1.38255
G1 X103.151 Y133.836 E1.44674
G1 X102.526 Y133.509 E1.51088
G1 X101.977 Y133.066 E1.57503
G1 X101.525 Y132.525 E1.63913
G1 X101.187 Y131.905 E1.70334
G1 X100.976 Y131.232 E1.76747
G1 X100.901 Y130.531 E1.83158
G1 X100.964 Y129.828 E1.89576
G1 X101.164 Y129.151 E1.95995
G1 X101.491 Y128.526 E2.02409
G1 X101.934 Y127.977 E2.08824
G1 X102.433 Y127.56 E2.14737
G1 X102.45 Y127.124 F30000
G1 E2.04737 F2400
G92 E0
G1 X100.425 Y131.291 F30000
G1 E.1 F2400
;TYPE:Perimeter
;WIDTH:0.551699
G1 F1800
G1 X100.407 Y130.936 E.12465
;WIDTH:0.515611
G1 X100.389 Y130.581 E.14743
;WIDTH:0.511187
G1 X100.405 Y130.178 E.17302
;WIDTH:0.542851
G1 X100.421 Y129.774 E.20054
G1 E.10054 F2400
G92 E0
G1 X105.291 Y134.575 F30000
G1 E.1 F2400
;WIDTH:0.551697
G1 F1800
G1 X104.936 Y134.593 E.12465
;WIDTH:0.515609
G1 X104.581 Y134.611 E.14743
;WIDTH:0.511185
G1 X104.178 Y134.595 E.17302
;WIDTH:0.542849
G1 X103.774 Y134.579 E.20054
G1 E.10054 F2400
G92 E0
G1 X100.919 Y102.014 F30000
G1 E.1 F2400
;WIDTH:0.980975
G1 F1800
G1 X100.64 Y102.494 E.17318
G1 X100.64 Y100.64 E.41757
G1 X102.494 Y100.64 E.66196
G1 X101.99 Y100.933 E.73881
G1 X101.342 Y101.491 E.85153
G1 X100.953 Y101.965 E.93236
G1 X101.538 Y102.468 F30000
;TYPE:External perimeter
;WIDTH:0.7
G1 F1800
G1 X101.934 Y101.977 E.98972
G1 X102.475 Y101.525 E1.05382
G1 X103.095 Y101.187 E1.11803
G1 X103.818 Y100.971 E1.18664
G1 X104.469 Y100.901 E1.24618
G1 X105.172 Y100.964 E1.31036
G1 X105.849 Y101.164 E1.37455
G1 X106.474 Y101.491 E1.43869
G1 X107.023 Y101.934 E1.50284
G1 X107.475 Y102.475 E1.56694
G1 X107.813 Y103.095 E1.63115
G1 X108.024 Y103.768 E1.69528
G1 X108.099 Y104.469 E1.75939
G1 X108.036 Y105.172 E1.82357
G1 X107.836 Y105.849 E1.88776
G1 X107.509 Y106.474 E1.9519
G1 X107.066 Y107.023 E2.01605
G1 X106.525 Y107.475 E2.08015
G1 X105.905 Y107.813 E2.14436
G1 X105.232 Y108.024 E2.20849
G1 X104.531 Y108.099 E2.2726
G1 X103.828 Y108.036 E2.33678
G1 X103.151 Y107.836 E2.40097
G1 X102.526 Y107.509 E2.46511
G1 X101.977 Y107.066 E2.52926
G1 X101.525 Y106.525 E2.59336
G1 X101.187 Y105.905 E2.65757
G1 X100.976 Y105.232 E2.7217
G1 X100.901 Y104.531 E2.78581
G1 X100.964 Y103.828 E2.84999
G1 X101.164 Y103.151 E2.91418
G1 X101.5 Y102.514 E2.97967
G1 X101.36 Y102.11 F30000
G1 E2.87967 F2400
G92 E0
G1 X100.425 Y105.291 F30000
G1 E.1 F2400
;TYPE:Perimeter
;WIDTH:0.551699
G1 F1800
G1 X100.407 Y104.936 E.12465
;WIDTH:0.515611
G1 X100.389 Y104.581 E.14743
;WIDTH:0.511187
G1 X100.405 Y104.178 E.17302
;WIDTH:0.542851
G1 X100.421 Y103.774 E.20054
G1 E.10054 F2400
G92 E0
G1 X103.756 Y100.423 F30000
G1 E.1 F2400
;WIDTH:0.547087
G1 F1800
G1 X104.088 Y100.406 E.12283
;WIDTH:0.513305
G1 X104.419 Y100.389 E.14396
;WIDTH:0.511187
G1 X104.822 Y100.405 E.16955
;WIDTH:0.542851
G1 X105.226 Y100.421 E.19707
G1 E.09707 F2400
G92 E0
G1 X134.938 Y100.062 F30000
G1 E.1 F2400
;TYPE:External perimeter
;WIDTH:0.7
G1 F1800
G1 X135.072 Y100.263 E.12197
G1 X135.126 Y100.606 E.15354
G1 X135.126 Y134.394 E3.22587
G1 X135.072 Y134.737 E3.25744
G1 X134.938 Y134.938 E3.27941
G1 X134.737 Y135.072 E3.30138
G1 X134.466 Y135.126 E3.32651
G1 X100.606 Y135.125 E6.40538
G1 X100.263 Y135.072 E6.43694
G1 X100.062 Y134.938 E6.45891
G1 X99.928 Y134.737 E6.48088
G1 X99.875 Y134.466 E6.50599
G1 X99.875 Y100.606 E9.58486
G1 X99.928 Y100.263 E9.61642
G1 X100.062 Y100.062 E9.63839
G1 X100.263 Y99.928 E9.66036
G1 X100.534 Y99.875 E9.68547
G1 X134.394 Y99.875 E12.76434
G1 X134.737 Y99.928 E12.7959
G1 X134.888 Y100.029 E12.81242
G1 X134.88 Y100.297 F30000
G1 E12.71242 F2400
G92 E0
G1 X126.996 Y100.687 F30000
G1 E.1 F2400
;TYPE:Solid infill
;WIDTH:0.705747
G1 F1800
G1 X127.346 Y101.037 E.14542
G1 X127.093 Y101.277 E.17742
G1 X126.914 Y101.496 E.20338
G1 X126.386 Y100.968 E.2719
G1 X125.494 Y100.968 E.35376
G1 X126.53 Y102.004 E.48821
G1 X126.219 Y102.585 E.54868
G1 X124.602 Y100.968 E.75853
G1 X123.71 Y100.968 E.84039
G1 X125.991 Y103.249 E1.13641
G1 X125.877 Y103.713 E1.18026
G1 X125.849 Y103.998 E1.20654
G1 X122.818 Y100.968 E1.59983
G1 X121.927 Y100.968 E1.68159
G1 X126.156 Y105.197 E2.23041
G1 E2.13041 F2400
G92 E0
G1 X133.764 Y107.454 F30000
G1 E.1 F2400
G1 F1800
G1 X134.032 Y107.722 E.13478
G1 X134.032 Y108.614 E.21664
