; generated by PrusaSlicer 2.6.1+linux-x64-GTK3 on 2023-10-29 at 00:29:02 UTC

; 

; external perimeters extrusion width = 0.45mm
; perimeters extrusion width = 0.45mm
; infill extrusion width = 0.45mm
; solid infill extrusion width = 0.45mm
; top infill extrusion width = 0.40mm
; first layer extrusion width = 0.50mm

;TYPE:Custom
; M190 R30 ; Because of probe temperature drift,
; M109 R30 ; Let the beds and hotend cool down before homing the axis

G28 ; home all axes
G1 Z100.0 F3000 ; Raise head above brush
M190 S65 ; set bed temperature and wait for it to be reached
M109 S230 ; set hot end temp and wait for it

; Brush any crap off the nozzle
G1 X232.0 Y0.0 F3000 ; Goto Start of movement
G1 Z19.0 F3000 ; Lower into brush
G1 X221.0 Y2.0 F3000 ; Goto Start of movement
G1 X229.0 Y4.0 F3000 ; 
G1 X221.0 Y6.0 F3000 ; 
G1 X229.0 Y8.0 F3000 ; 
G1 X221.0 Y10.0 F3000 ;
G1 X229.0 Y12.0 F3000 ;
G1 X221.0 Y14.0 F3000 ;
G1 X229.0 Y16.0 F3000 ;
G1 X221.0 Y18.0 F3000 ;
G1 X229.0 Y20.0 F3000 ;
G1 X221.0 Y22.0 F3000 ;
G1 X229.0 Y24.0 F3000 ;
G1 X221.0 Y26.0 F3000 ;
G1 X229.0 Y28.0 F3000 ;
G1 X221.0 Y30.0 F3000 ;
G1 X229.0 Y28.0 F3000 ;
G1 X221.0 Y26.0 F3000 ;
G1 X229.0 Y24.0 F3000 ;
G1 X221.0 Y22.0 F3000 ;
G1 X229.0 Y20.0 F3000 ;
G1 X221.0 Y18.0 F3000 ;
G1 X229.0 Y16.0 F3000 ;
G1 X221.0 Y14.0 F3000 ;
G1 X229.0 Y12.0 F3000 ;
G1 X221.0 Y10.0 F3000 ;
G1 X229.0 Y8.0 F3000 ; 
G1 X221.0 Y6.0 F3000 ; 
G1 X229.0 Y4.0 F3000 ; 
G1 X221.0 Y2.0 F3000 ; 
G1 X229.0 Y0.0 F3000 ; 
G1 X225.0 Y0.0 F3000 ; 
G1 X225.0 Y30.0 F5000 ; 
G1 X225.0 Y0.0 F5000 ; 
G1 X225.0 Y30.0 F5000 ; 
G1 X225.0 Y0.0 F5000 ; 
G1 X225.0 Y30.0 F5000 ; 

; Do a purge line to prime the extruder
G92 E0 ;Reset Extruder
G1 X227.0 Y80.0 F5000 ; Goto Start of purge
G1 Z0.28 F5000 ;Move Head to start height
G1 X227.0 Y230.0 Z0.28 F1500.0 E15; Draw first line
G1 X226.7 Y230.0 Z0.28 F5000.0 ;Move to side a little
G1 X226.7 Y80.0 Z0.28 F1500.0 E30; Draw the second line
G1 Z0.4 F5000; Move Z Axis Up
G1 Y120 F1500; Wipe to the back
G1 X117.5 Y117.5 Z27.0 F5000 ; Raise head above brush
G92 E0 ;Reset Extruder
G21 ; set units to millimeters
G90 ; use absolute coordinates
M82 ; use absolute distances for extrusion
G92 E0
; Filament gcode
SET_PRESSURE_ADVANCE ADVANCE=0.063
M107
;LAYER_CHANGE
;Z:0.25
;HEIGHT:0.25
G1 Z.25 F30000
G1 E-.1 F2400
G92 E0
G1 X113.846 Y137.017 F30000
G1 E.1 F2400
;TYPE:Perimeter
;WIDTH:0.499999
G1 F1800
G1 X113.881 Y137.221 E.1096
G1 X113.991 Y137.45 E.12139
G1 X114.242 Y137.73 E.13884
G1 X114.555 Y137.904 E.15545
G1 X114.935 Y137.971 E.17335
G1 X126.078 Y137.971 E.6903
G1 X126.83 Y137.945 E.72521
G1 X127.165 Y137.811 E.74195
G1 X127.425 Y137.594 E.75766
G1 X127.643 Y137.221 E.7777
G1 X127.704 Y136.855 E.79491
G1 X127.704 Y135.971 E.83592
G1 X132.324 Y135.957 E1.05025
G1 X133.657 Y135.734 E1.11295
G1 X134.913 Y135.382 E1.17346
G1 X136.107 Y134.91 E1.23302
G1 X137.183 Y134.355 E1.28919
G1 X138.285 Y133.645 E1.35001
G1 X139.361 Y132.818 E1.41297
G1 X140.245 Y132.046 E1.46742
G1 X141.116 Y131.216 E1.52324
G1 X141.97 Y130.341 E1.57996
G1 X142.815 Y129.425 E1.63778
G1 X144.375 Y127.628 E1.74818
G1 X145.884 Y125.783 E1.85876
G1 X147.373 Y123.883 E1.97075
G1 X148.852 Y121.938 E2.08411
G1 X150.476 Y119.745 E2.21071
G1 X151.858 Y117.702 E2.32514
G1 X152.436 Y116.821 E2.37402
G1 X152.986 Y115.928 E2.42268
G1 X153.515 Y115.014 E2.47167
G1 X154.002 Y114.12 E2.5189
G1 X154.489 Y113.164 E2.56867
G1 X154.936 Y112.23 E2.61671
G1 X155.351 Y111.305 E2.66374
G1 X155.766 Y110.313 E2.71363
G1 X156.148 Y109.332 E2.76247
G1 X156.498 Y108.362 E2.81031
G1 X156.835 Y107.353 E2.85966
G1 X157.277 Y105.876 E2.93118
G1 X157.716 Y104.198 E3.01165
G1 X158.146 Y102.191 E3.10687
G1 X158.325 Y101.182 E3.15441
G1 X158.484 Y100.135 E3.20354
G1 X158.623 Y99.035 E3.25498
G1 X158.729 Y97.992 E3.30362
G1 X158.809 Y96.922 E3.3534
G1 X158.862 Y95.827 E3.40426
G1 X158.885 Y94.797 E3.45206
G1 X158.879 Y93.744 E3.50091
G1 X158.844 Y92.7 E3.54937
G1 X158.779 Y91.666 E3.59743
G1 X158.68 Y90.61 E3.64664
G1 X158.55 Y89.581 E3.69476
G1 X158.38 Y88.52 E3.74461
G1 X158.182 Y87.514 E3.79218
G1 X157.929 Y86.439 E3.84341
G1 X157.632 Y85.369 E3.89493
G1 X157.295 Y84.326 E3.94578
G1 X156.937 Y83.357 E3.9937
G1 X156.689 Y82.766 E4.02343
G1 X158.924 Y85.197 E4.17663
G1 X161.108 Y87.66 E4.32935
G1 X162.266 Y89.291 E4.42215
G1 X160.782 Y106.724 E5.23384
G1 X155.28 Y123.35 E6.0463
G1 X143.524 Y158.086 E7.74758
G1 X97.999 Y158.086 E9.8596
G1 X86.243 Y123.35 E11.56088
G1 X80.741 Y106.724 E12.37334
G1 X79.257 Y89.291 E13.18503
G1 X86.729 Y73.403 E13.99956
G1 X87.11 Y73.116 E14.02169
G1 X88.5 Y72.283 E14.09687
G1 X99.88 Y65.973 E14.70055
G1 X100.557 Y65.624 E14.73589
G1 X101.286 Y65.401 E14.77126
G1 X101.563 Y65.406 E14.78411
G1 X101.925 Y65.572 E14.80259
G1 X102.105 Y65.756 E14.81453
G1 X102.254 Y66.092 E14.83158
G1 X102.679 Y67.895 E14.91752
G1 X102.715 Y68.295 E14.93615
G1 X102.6 Y68.63 E14.95258
G1 X102.376 Y68.877 E14.96805
G1 X102.013 Y69.044 E14.98659
G1 X101.029 Y69.335 E15.03419
G1 X100.033 Y69.658 E15.08277
G1 X99.012 Y70.021 E15.13304
G1 X98.053 Y70.394 E15.18078
G1 X97.106 Y70.795 E15.22849
G1 X96.175 Y71.226 E15.27609
G1 X95.129 Y71.757 E15.33051
G1 X94.194 Y72.279 E15.38019
G1 X93.3 Y72.823 E15.42874
G1 X92.413 Y73.416 E15.47824
G1 X91.53 Y74.064 E15.52905
G1 X90.436 Y74.97 E15.59495
G1 X89.923 Y75.427 E15.62682
G1 X89.154 Y76.183 E15.67685
G1 X88.456 Y76.943 E15.72472
G1 X87.769 Y77.77 E15.7746
G1 X87.121 Y78.638 E15.82485
G1 X86.52 Y79.536 E15.87498
G1 X85.975 Y80.443 E15.92407
G1 X85.454 Y81.415 E15.97523
G1 X85.001 Y82.371 E16.02431
G1 X84.586 Y83.357 E16.07394
G1 X84.212 Y84.371 E16.12408
G1 X83.878 Y85.413 E16.17484
G1 X83.583 Y86.481 E16.22624
G1 X83.342 Y87.514 E16.27545
G1 X83.137 Y88.559 E16.32485
G1 X82.973 Y89.581 E16.37287
G1 X82.839 Y90.645 E16.42262
G1 X82.744 Y91.666 E16.47019
G1 X82.679 Y92.7 E16.51825
G1 X82.644 Y93.744 E16.56671
G1 X82.639 Y94.797 E16.61556
G1 X82.661 Y95.827 E16.66336
G1 X82.714 Y96.922 E16.71422
G1 X82.795 Y97.992 E16.764
G1 X82.903 Y99.063 E16.81394
G1 X83.035 Y100.107 E16.86276
G1 X83.199 Y101.182 E16.91321
G1 X83.385 Y102.231 E16.96263
G1 X83.807 Y104.198 E17.05596
G1 X84.078 Y105.271 E17.1073
G1 X84.374 Y106.332 E17.1584
G1 X84.687 Y107.351 E17.20785
G1 X85.016 Y108.336 E17.25603
G1 X85.385 Y109.358 E17.30644
G1 X85.768 Y110.339 E17.3553
G1 X86.173 Y111.305 E17.40389
G1 X86.587 Y112.23 E17.45091
G1 X87.034 Y113.164 E17.49895
G1 X87.535 Y114.145 E17.55005
G1 X88.023 Y115.04 E17.59734
G1 X88.538 Y115.928 E17.64496
G1 X89.088 Y116.821 E17.69362
G1 X91.075 Y119.784 E17.85913
G1 X92.671 Y121.938 E17.9835
G1 X94.164 Y123.901 E18.09792
G1 X96.389 Y126.71 E18.26417
G1 X97.909 Y128.52 E18.37382
G1 X98.731 Y129.451 E18.43144
G1 X99.553 Y130.341 E18.48765
G1 X100.376 Y131.185 E18.54234
G1 X101.278 Y132.046 E18.60019
G1 X102.215 Y132.861 E18.6578
G1 X103.165 Y133.593 E18.71344
G1 X104.341 Y134.355 E18.77845
G1 X105.416 Y134.91 E18.83458
G1 X106.61 Y135.382 E18.89414
G1 X107.866 Y135.734 E18.95465
G1 X108.381 Y135.824 E18.9789
G1 X109.377 Y135.971 E19.02561
G1 X113.819 Y135.971 E19.23169
G1 X113.819 Y136.855 E19.2727
G1 X113.836 Y136.958 E19.27754
G1 X114.279 Y136.936 F30000
G1 F1800
G1 X114.302 Y137.075 E19.28408
G1 X114.433 Y137.299 E19.29612
G1 X114.633 Y137.453 E19.30783
G1 X114.935 Y137.525 E19.32223
G1 X126.588 Y137.525 E19.86284
G1 X126.823 Y137.482 E19.87392
G1 X127.034 Y137.355 E19.88535
G1 X127.221 Y137.075 E19.90097
G1 X127.258 Y136.855 E19.91132
G1 X127.258 Y135.525 E19.97302
G1 X132.253 Y135.516 E20.20475
G1 X133.539 Y135.304 E20.26522
G1 X134.751 Y134.967 E20.32358
G1 X135.903 Y134.514 E20.38101
G1 X137.036 Y133.925 E20.44025
G1 X138.042 Y133.271 E20.49592
G1 X139.036 Y132.508 E20.55405
G1 X139.974 Y131.69 E20.61179
G1 X140.824 Y130.877 E20.66636
G1 X141.663 Y130.016 E20.72213
G1 X142.478 Y129.133 E20.77788
G1 X144.017 Y127.36 E20.8868
G1 X145.524 Y125.518 E20.99721
G1 X147.018 Y123.613 E21.10952
G1 X148.493 Y121.672 E21.22262
G1 X150.106 Y119.495 E21.34832
G1 X152.046 Y116.602 E21.50992
G1 X152.6 Y115.704 E21.55887
G1 X153.123 Y114.801 E21.60728
G1 X153.604 Y113.916 E21.65401
G1 X154.087 Y112.972 E21.7032
G1 X154.529 Y112.048 E21.75072
G1 X154.943 Y111.123 E21.79774
G1 X155.35 Y110.151 E21.84663
G1 X155.728 Y109.18 E21.89497
G1 X156.079 Y108.21 E21.94283
G1 X156.412 Y107.212 E21.99164
G1 X156.722 Y106.201 E22.0407
G1 X157.013 Y105.162 E22.09076
G1 X157.28 Y104.105 E22.14134
G1 X157.706 Y102.113 E22.23584
G1 X157.885 Y101.104 E22.28338
G1 X158.043 Y100.067 E22.33204
G1 X158.177 Y99.007 E22.38161
G1 X158.286 Y97.93 E22.43183
G1 X158.364 Y96.889 E22.48026
G1 X158.415 Y95.835 E22.52921
G1 X158.439 Y94.787 E22.57784
G1 X158.432 Y93.728 E22.62697
G1 X158.398 Y92.715 E22.67399
G1 X158.334 Y91.694 E22.72145
G1 X158.237 Y90.665 E22.7694
G1 X158.109 Y89.652 E22.81677
G1 X157.942 Y88.606 E22.86591
G1 X157.739 Y87.576 E22.91461
G1 X157.499 Y86.558 E22.96313
G1 X157.207 Y85.506 E23.01378
G1 X156.877 Y84.481 E23.06374
G1 X156.507 Y83.484 E23.11308
G1 X156.099 Y82.516 E23.16181
G1 X155.652 Y81.579 E23.20997
G1 X155.166 Y80.672 E23.25771
G1 X154.897 Y80.249 E23.28097
;WIDTH:0.473162
G1 X154.627 Y79.826 E23.30285
G1 X154.957 Y80.204 E23.32473
;WIDTH:0.499999
G1 X159.256 Y84.897 E23.61999
G1 X161.458 Y87.381 E23.77399
G1 X162.657 Y89.072 E23.87016
G1 X162.721 Y89.209 E23.87718
G1 X161.222 Y106.815 E24.69692
G1 X155.703 Y123.492 E25.51188
G1 X143.844 Y158.532 E27.22805
G1 X97.679 Y158.532 E29.36976
G1 X85.82 Y123.492 E31.08593
G1 X80.301 Y106.815 E31.90089
G1 X78.802 Y89.209 E32.72063
G1 X86.372 Y73.113 E33.54583
G1 X86.86 Y72.745 E33.57419
G1 X88.277 Y71.897 E33.6508
G1 X100.255 Y65.255 E34.28621
G1 X100.905 Y65.036 E34.31803
G1 X101.319 Y64.942 E34.33773
G1 X101.802 Y65.002 E34.36031
G1 X102.195 Y65.21 E34.38094
G1 X102.339 Y65.356 E34.39045
G1 X102.542 Y65.62 E34.4059
G1 X102.684 Y65.97 E34.42342
G1 X103.135 Y67.883 E34.5146
G1 X103.159 Y68.353 E34.53643
G1 X103.046 Y68.727 E34.55456
G1 X102.846 Y69.05 E34.57218
G1 X102.532 Y69.304 E34.59092
G1 X102.139 Y69.472 E34.61075
G1 X101.167 Y69.759 E34.65777
G1 X100.171 Y70.083 E34.70636
G1 X99.173 Y70.437 E34.75549
G1 X98.227 Y70.805 E34.80258
G1 X97.294 Y71.2 E34.84958
G1 X96.34 Y71.642 E34.89836
G1 X95.345 Y72.148 E34.95015
G1 X94.426 Y72.66 E34.99896
G1 X93.533 Y73.204 E35.04747
G1 X92.661 Y73.787 E35.09613
G1 X91.81 Y74.411 E35.14509
G1 X90.732 Y75.304 E35.21003
G1 X90.235 Y75.746 E35.24089
G1 X89.483 Y76.486 E35.28984
G1 X88.8 Y77.228 E35.33663
G1 X88.113 Y78.055 E35.38651
G1 X87.479 Y78.905 E35.4357
G1 X86.891 Y79.784 E35.48476
G1 X86.358 Y80.672 E35.53281
G1 X85.857 Y81.607 E35.58202
G1 X85.412 Y82.544 E35.63014
G1 X85.005 Y83.511 E35.67881
G1 X84.637 Y84.508 E35.72811
G1 X84.308 Y85.532 E35.77801
G1 X84.018 Y86.583 E35.82859
G1 X83.779 Y87.6 E35.87706
G1 X83.578 Y88.63 E35.92575
G1 X83.414 Y89.652 E35.97377
G1 X83.284 Y90.686 E36.02212
G1 X83.19 Y91.694 E36.06909
G1 X83.125 Y92.715 E36.11655
G1 X83.091 Y93.746 E36.16441
G1 X83.085 Y94.769 E36.21187
G1 X83.107 Y95.817 E36.2605
G1 X83.159 Y96.889 E36.31029
G1 X83.239 Y97.947 E36.35951
G1 X83.346 Y99.007 E36.40894
G1 X83.48 Y100.067 E36.45851
G1 X83.638 Y101.104 E36.50717
G1 X83.822 Y102.137 E36.55585
G1 X84.243 Y104.105 E36.64922
G1 X84.51 Y105.162 E36.6998
G1 X84.801 Y106.201 E36.74986
G1 X85.111 Y107.21 E36.79883
G1 X85.439 Y108.195 E36.84699
G1 X85.801 Y109.196 E36.89637
G1 X86.179 Y110.167 E36.94471
G1 X86.58 Y111.123 E36.9928
G1 X86.994 Y112.048 E37.03982
G1 X87.437 Y112.972 E37.08736
G1 X87.927 Y113.932 E37.13736
G1 X88.409 Y114.816 E37.18407
G1 X88.924 Y115.704 E37.23169
G1 X89.467 Y116.587 E37.27978
G1 X91.434 Y119.518 E37.44354
G1 X93.03 Y121.672 E37.56791
G1 X94.514 Y123.624 E37.68167
G1 X96.738 Y126.433 E37.84789
G1 X98.25 Y128.233 E37.95695
G1 X99.059 Y129.148 E38.01361
G1 X99.872 Y130.029 E38.06923
G1 X100.685 Y130.862 E38.12323
G1 X101.571 Y131.71 E38.18013
G1 X102.487 Y132.508 E38.23649
G1 X103.437 Y133.24 E38.29213
G1 X104.545 Y133.959 E38.35341
G1 X105.621 Y134.514 E38.40958
G1 X106.772 Y134.967 E38.46696
G1 X107.984 Y135.304 E38.52532
G1 X108.452 Y135.384 E38.54735
G1 X109.377 Y135.525 E38.59076
G1 X114.265 Y135.525 E38.81753
G1 X114.269 Y136.877 E38.88025
G1 E38.78025 F2400
G92 E0
G1 X139.148 Y68.877 F30000
G1 E.1 F2400
G1 F1800
G1 X138.922 Y68.627 E.11563
G1 X138.81 Y68.305 E.13145
G1 X138.832 Y67.943 E.14828
G1 X139.259 Y66.134 E.23451
G1 X139.382 Y65.839 E.24934
G1 X139.583 Y65.597 E.26393
G1 X139.801 Y65.469 E.27566
G1 X140.067 Y65.406 E.28834
G1 X140.388 Y65.449 E.30337
G1 X140.897 Y65.592 E.3279
G1 X146.746 Y71.953 E.7288
G1 X145.348 Y71.226 E.8019
G1 X144.384 Y70.78 E.85118
G1 X143.439 Y70.381 E.89877
G1 X142.481 Y70.01 E.94643
G1 X141.519 Y69.668 E.9938
G1 X140.519 Y69.343 E1.04258
G1 X139.511 Y69.044 E1.09136
G1 X139.202 Y68.902 E1.10714
G1 X138.992 Y69.304 F30000
G1 F1800
G1 X138.677 Y69.05 E1.12591
G1 X138.485 Y68.746 E1.14259
G1 X138.366 Y68.368 E1.16097
G1 X138.393 Y67.861 E1.18452
G1 X138.916 Y65.74 E1.28587
G1 X139.147 Y65.378 E1.30579
G1 X139.453 Y65.126 E1.32418
G1 X139.846 Y64.972 E1.34376
G1 X140.231 Y64.949 E1.36165
G1 X140.672 Y65.061 E1.38276
G1 X141.152 Y65.211 E1.40609
G1 X148.969 Y73.711 E1.94183
G1 X149.324 Y74.07 E1.96525
;WIDTH:0.463989
G1 X149.679 Y74.43 E1.98681
;WIDTH:0.430334
G1 X149.669 Y74.421 E1.98734
;WIDTH:0.465167
G1 X149.266 Y74.104 E2.00927
;WIDTH:0.499999
G1 X148.862 Y73.787 E2.03309
G1 X148.014 Y73.22 E2.08041
G1 X147.097 Y72.66 E2.13026
G1 X146.157 Y72.136 E2.18019
G1 X145.161 Y71.631 E2.232
G1 X144.21 Y71.191 E2.28061
G1 X143.278 Y70.797 E2.32755
G1 X142.332 Y70.43 E2.37462
G1 X141.352 Y70.083 E2.42285
G1 X140.365 Y69.762 E2.471
G1 X139.384 Y69.472 E2.51846
G1 X139.047 Y69.328 E2.53546
G1 E2.43546 F2400
G92 E0
G1 X114.712 Y136.855 F30000
G1 E.1 F2400
;TYPE:External perimeter
G1 F1800
G1 X114.786 Y137.022 E.10847
G1 X114.935 Y137.078 E.11585
G1 X126.588 Y137.078 E.65646
G1 X126.737 Y137.022 E.66384
G1 X126.812 Y136.855 E.67233
G1 X126.812 Y135.078 E.75477
G1 X132.182 Y135.075 E1.0039
G1 X133.42 Y134.874 E1.06209
G1 X134.589 Y134.551 E1.11836
G1 X135.698 Y134.117 E1.17361
G1 X136.792 Y133.551 E1.23075
G1 X137.799 Y132.897 E1.28646
G1 X138.764 Y132.154 E1.34296
G1 X139.666 Y131.367 E1.3985
G1 X140.505 Y130.565 E1.45235
G1 X141.335 Y129.713 E1.50753
G1 X142.141 Y128.84 E1.56265
G1 X143.68 Y127.068 E1.67153
G1 X145.178 Y125.236 E1.78132
G1 X146.66 Y123.346 E1.89274
G1 X148.133 Y121.408 E2.00567
G1 X149.736 Y119.244 E2.13061
G1 X151.673 Y116.358 E2.29186
G1 X152.213 Y115.481 E2.33964
G1 X152.731 Y114.587 E2.38757
G1 X153.207 Y113.713 E2.43374
G1 X153.684 Y112.779 E2.48239
G1 X154.122 Y111.865 E2.52941
G1 X154.536 Y110.94 E2.57643
G1 X154.934 Y109.989 E2.62426
G1 X155.307 Y109.033 E2.67187
G1 X155.659 Y108.059 E2.71992
G1 X155.989 Y107.071 E2.76825
G1 X156.297 Y106.065 E2.81706
G1 X156.58 Y105.055 E2.86572
G1 X156.843 Y104.011 E2.91567
G1 X157.267 Y102.036 E3.00938
G1 X157.446 Y101.026 E3.05697
G1 X157.602 Y100 E3.10512
G1 X157.735 Y98.945 E3.15445
G1 X157.841 Y97.899 E3.20323
G1 X157.919 Y96.856 E3.25175
G1 X157.97 Y95.814 E3.30015
G1 X157.992 Y94.777 E3.34827
G1 X157.986 Y93.743 E3.39624
G1 X157.952 Y92.73 E3.44326
G1 X157.888 Y91.723 E3.49007
G1 X157.794 Y90.721 E3.53676
G1 X157.669 Y89.722 E3.58347
G1 X157.504 Y88.692 E3.63186
G1 X157.306 Y87.686 E3.67943
G1 X157.071 Y86.685 E3.72713
G1 X156.783 Y85.642 E3.77733
G1 X156.461 Y84.645 E3.82594
G1 X156.1 Y83.666 E3.87435
G1 X155.7 Y82.717 E3.92213
G1 X155.258 Y81.789 E3.96982
G1 X154.783 Y80.902 E4.0165
G1 X154.109 Y79.804 E4.07627
;WIDTH:0.547293
G1 X154.054 Y79.68 E4.08323
;WIDTH:0.594587
G1 X154 Y79.556 E4.09083
;WIDTH:0.641881
G1 X153.946 Y79.432 E4.0991
G1 X153.731 Y79.138 E4.12137
;WIDTH:0.612927
G1 X153.415 Y78.735 E4.15114
;WIDTH:0.586343
G1 X153.098 Y78.332 E4.17953
;WIDTH:0.559758
G1 X152.392 Y77.503 E4.23681
;WIDTH:0.531417
G1 X152.384 Y77.494 E4.23741
;WIDTH:0.532014
G1 X151.716 Y76.769 E4.28643
;WIDTH:0.559226
G1 X150.987 Y76.035 E4.34079
;WIDTH:0.585226
G1 X150.613 Y75.686 E4.36905
;WIDTH:0.611225
G1 X150.24 Y75.337 E4.39865
;WIDTH:0.642216
