; generated by PrusaSlicer 2.6.1+linux-x64-GTK3 on 2023-10-29 at 00:39:35 UTC

; 

; external perimeters extrusion width = 0.45mm
; perimeters extrusion width = 0.45mm
; infill extrusion width = 0.45mm
; solid infill extrusion width = 0.45mm
; top infill extrusion width = 0.40mm
; first layer extrusion width = 0.50mm

;TYPE:Custom
; M190 R30 ; Because of probe temperature drift,
; M109 R30 ; Let the beds and hotend cool down before homing the axis

G28 ; home all axes
G1 Z100.0 F3000 ; Raise head above brush
M190 S65 ; set bed temperature and wait for it to be reached
M109 S230 ; set hot end temp and wait for it

; Brush any crap off the nozzle
G1 X232.0 Y0.0 F3000 ; Goto Start of movement
G1 Z19.0 F3000 ; Lower into brush
G1 X221.0 Y2.0 F3000 ; Goto Start of movement
G1 X229.0 Y4.0 F3000 ; 
G1 X221.0 Y6.0 F3000 ; 
G1 X229.0 Y8.0 F3000 ; 
G1 X221.0 Y10.0 F3000 ;
G1 X229.0 Y12.0 F3000 ;
G1 X221.0 Y14.0 F3000 ;
G1 X229.0 Y16.0 F3000 ;
G1 X221.0 Y18.0 F3000 ;
G1 X229.0 Y20.0 F3000 ;
G1 X221.0 Y22.0 F3000 ;
G1 X229.0 Y24.0 F3000 ;
G1 X221.0 Y26.0 F3000 ;
G1 X229.0 Y28.0 F3000 ;
G1 X221.0 Y30.0 F3000 ;
G1 X229.0 Y28.0 F3000 ;
G1 X221.0 Y26.0 F3000 ;
G1 X229.0 Y24.0 F3000 ;
G1 X221.0 Y22.0 F3000 ;
G1 X229.0 Y20.0 F3000 ;
G1 X221.0 Y18.0 F3000 ;
G1 X229.0 Y16.0 F3000 ;
G1 X221.0 Y14.0 F3000 ;
G1 X229.0 Y12.0 F3000 ;
G1 X221.0 Y10.0 F3000 ;
G1 X229.0 Y8.0 F3000 ; 
G1 X221.0 Y6.0 F3000 ; 
G1 X229.0 Y4.0 F3000 ; 
G1 X221.0 Y2.0 F3000 ; 
G1 X229.0 Y0.0 F3000 ; 
G1 X225.0 Y0.0 F3000 ; 
G1 X225.0 Y30.0 F5000 ; 
G1 X225.0 Y0.0 F5000 ; 
G1 X225.0 Y30.0 F5000 ; 
G1 X225.0 Y0.0 F5000 ; 
G1 X225.0 Y30.0 F5000 ; 

; Do a purge line to prime the extruder
G92 E0 ;Reset Extruder
G1 X227.0 Y80.0 F5000 ; Goto Start of purge
G1 Z0.28 F5000 ;Move Head to start height
G1 X227.0 Y230.0 Z0.28 F1500.0 E15; Draw first line
G1 X226.7 Y230.0 Z0.28 F5000.0 ;Move to side a little
G1 X226.7 Y80.0 Z0.28 F1500.0 E30; Draw the second line
G1 Z0.4 F5000; Move Z Axis Up
G1 Y120 F1500; Wipe to the back
G1 X117.5 Y117.5 Z27.0 F5000 ; Raise head above brush
G92 E0 ;Reset Extruder
G21 ; set units to millimeters
G90 ; use absolute coordinates
M82 ; use absolute distances for extrusion
G92 E0
; Filament gcode
SET_PRESSURE_ADVANCE ADVANCE=0.063
M107
;LAYER_CHANGE
;Z:0.25
;HEIGHT:0.25
G1 Z.25 F30000
G1 E-.1 F2400
G92 E0
G1 X121.921 Y82.54 F30000
G1 E.1 F2400
;TYPE:Perimeter
;WIDTH:0.57117
G1 F1800
G1 X122.133 Y82.698 E.11422
G1 X121.823 Y82.596 E.13177
;WIDTH:0.617964
G1 X121.513 Y82.495 E.15089
;WIDTH:0.664757
G1 X121.202 Y82.393 E.17168
G1 X120.725 Y82.299 E.20256
G1 X120.71 Y81.622 E.24557
;WIDTH:0.634126
G1 X120.71 Y76.124 E.57728
G1 X121.29 Y76.124 E.61227
G1 X121.29 Y81.622 E.94398
;WIDTH:0.645289
G1 X121.303 Y81.827 E.95661
;WIDTH:0.664757
G1 X121.398 Y82.151 E.97806
G1 X121.643 Y82.333 E.99745
;WIDTH:0.617964
G1 X121.873 Y82.504 E1.01426
G1 E.91426 F2400
G92 E0
G1 X114.275 Y82.291 F30000
G1 E.1 F2400
;WIDTH:0.663971
G1 F1800
G1 X113.459 Y82.459 E.15285
G1 X113.31 Y82.517 E.16299
;WIDTH:0.625697
G1 X113.162 Y82.575 E.17244
;WIDTH:0.587422
G1 X113.013 Y82.633 E.18131
;WIDTH:0.549147
G1 X112.865 Y82.691 E.1895
G1 X113.006 Y82.621 E.19761
;WIDTH:0.587422
G1 X113.147 Y82.551 E.20634
;WIDTH:0.625697
G1 X113.288 Y82.481 E.2157
;WIDTH:0.663971
G1 X113.429 Y82.41 E.22571
G1 X113.677 Y81.956 E.25853
G1 X113.71 Y81.622 E.27982
;WIDTH:0.634127
G1 X113.71 Y76.124 E.61153
G1 X114.29 Y76.124 E.64652
G1 X114.29 Y81.622 E.97823
;WIDTH:0.663971
G1 X114.277 Y82.231 E1.01687
G1 E.91687 F2400
G92 E0
G1 X130.49 Y118.279 F30000
G1 E.1 F2400
;WIDTH:0.499999
G1 F1800
G1 X130.438 Y118.653 E.11752
G1 X130.401 Y119.253 E.14541
G1 X130.471 Y119.965 E.1786
G1 X130.563 Y120.342 E.1966
G1 X130.805 Y121.065 E.23197
G1 X131.262 Y121.879 E.27528
G1 X131.875 Y122.593 E.31894
G1 X132.611 Y123.165 E.36218
G1 X133.44 Y123.583 E.40525
G1 X134.339 Y123.836 E.44858
G1 X135.276 Y123.908 E.49218
G1 X136.098 Y123.819 E.53054
G1 X136.601 Y123.67 E.55488
G1 X137.083 Y123.502 E.57856
G1 X137.898 Y123.045 E.62191
G1 X138.612 Y122.433 E.66554
G1 X139.027 Y121.924 E.69601
G1 X139.027 Y129.006 E1.02456
G1 X138.452 Y128.338 E1.06545
G1 X137.716 Y127.765 E1.10872
G1 X137.084 Y127.429 E1.14193
G1 X136.601 Y127.26 E1.16567
G1 X135.987 Y127.094 E1.19518
G1 X135.05 Y127.022 E1.23878
G1 X134.124 Y127.138 E1.28208
G1 X133.242 Y127.429 E1.32517
G1 X132.429 Y127.886 E1.36844
G1 X131.715 Y128.497 E1.41204
G1 X131.142 Y129.232 E1.45528
G1 X130.723 Y130.063 E1.49846
G1 X130.47 Y130.966 E1.54197
G1 X130.401 Y131.895 E1.58519
G1 X130.471 Y132.607 E1.61838
G1 X130.563 Y132.986 E1.63647
G1 X130.805 Y133.707 E1.67175
G1 X131.264 Y134.524 E1.71522
G1 X131.875 Y135.235 E1.75871
G1 X132.61 Y135.807 E1.80192
G1 X133.439 Y136.225 E1.84499
G1 X134.338 Y136.478 E1.88832
G1 X135.276 Y136.551 E1.93197
G1 X136.201 Y136.435 E1.97522
G1 X137.083 Y136.144 E2.01831
G1 X137.898 Y135.687 E2.06166
G1 X138.612 Y135.076 E2.10526
G1 X139.027 Y134.566 E2.13576
G1 X139.027 Y156.45 E3.15102
G1 X128.792 Y135.992 E4.21227
G1 X128.51 Y135.689 E4.23147
G1 X128.134 Y135.508 E4.25083
G1 X127.848 Y135.471 E4.26421
G1 X126.643 Y135.471 E4.32011
G1 X126.629 Y129.773 E4.58446
G1 X126.48 Y129.365 E4.60461
G1 X126.225 Y129.074 E4.62256
G1 X125.86 Y128.879 E4.64176
G1 X125.527 Y128.828 E4.65739
G1 X110.171 Y128.828 E5.36979
G1 X109.242 Y128.852 E5.4129
G1 X108.906 Y128.983 E5.42963
G1 X108.65 Y129.19 E5.4449
G1 X108.424 Y129.565 E5.46521
G1 X108.357 Y129.944 E5.48307
G1 X108.357 Y135.471 E5.73948
G1 X107.152 Y135.471 E5.79538
G1 X106.866 Y135.508 E5.80876
G1 X106.582 Y135.628 E5.82306
G1 X106.27 Y135.903 E5.84235
G1 X106.154 Y136.087 E5.85244
G1 X95.973 Y156.45 E6.90863
G1 X95.973 Y134.567 E7.92384
G1 X96.548 Y135.235 E7.96473
G1 X97.284 Y135.808 E8.008
G1 X98.113 Y136.226 E8.05107
G1 X99.012 Y136.478 E8.09438
G1 X99.95 Y136.551 E8.13803
G1 X100.875 Y136.435 E8.18128
G1 X101.757 Y136.144 E8.22437
G1 X102.571 Y135.687 E8.26768
G1 X103.285 Y135.076 E8.31128
G1 X103.858 Y134.341 E8.35452
G1 X104.277 Y133.51 E8.3977
G1 X104.53 Y132.607 E8.44121
G1 X104.599 Y131.678 E8.48443
G1 X104.529 Y130.966 E8.51762
G1 X104.42 Y130.531 E8.53842
G1 X104.195 Y129.866 E8.57099
G1 X103.738 Y129.051 E8.61434
G1 X103.125 Y128.338 E8.65796
G1 X102.389 Y127.765 E8.70123
G1 X101.56 Y127.348 E8.74428
G1 X100.659 Y127.095 E8.7877
G1 X99.705 Y127.023 E8.83208
G1 X98.902 Y127.112 E8.86956
G1 X98.399 Y127.26 E8.89388
G1 X97.917 Y127.429 E8.91758
G1 X97.102 Y127.886 E8.96093
G1 X96.388 Y128.497 E9.00453
G1 X95.973 Y129.007 E9.03503
G1 X95.973 Y121.924 E9.36363
G1 X96.548 Y122.593 E9.40456
G1 X97.284 Y123.165 E9.4478
G1 X97.916 Y123.502 E9.48103
G1 X98.399 Y123.671 E9.50477
G1 X99.012 Y123.836 E9.53422
G1 X99.95 Y123.908 E9.57786
G1 X100.876 Y123.793 E9.62115
G1 X101.758 Y123.501 E9.66425
G1 X102.571 Y123.045 E9.70749
G1 X103.285 Y122.434 E9.75109
G1 X103.858 Y121.698 E9.79436
G1 X104.195 Y121.066 E9.82759
G1 X104.351 Y120.624 E9.84934
G1 X104.53 Y119.965 E9.88102
G1 X104.599 Y119.035 E9.92428
G1 X104.486 Y118.107 E9.96765
G1 X104.195 Y117.223 E10.01083
G1 X103.738 Y116.409 E10.05414
G1 X103.125 Y115.695 E10.0978
G1 X102.39 Y115.123 E10.14101
G1 X101.561 Y114.705 E10.18408
G1 X100.659 Y114.452 E10.22754
G1 X99.705 Y114.381 E10.27192
G1 X98.799 Y114.495 E10.31428
G1 X97.917 Y114.786 E10.35737
G1 X97.102 Y115.243 E10.40072
G1 X96.388 Y115.855 E10.44435
G1 X95.973 Y116.364 E10.47482
G1 X95.973 Y107.968 E10.86433
G1 X96.693 Y107.478 E10.90473
G1 X97.152 Y107.114 E10.93191
G1 X97.64 Y106.673 E10.96242
G1 X98.009 Y106.302 E10.9867
G1 X98.534 Y105.66 E11.02517
G1 X98.993 Y104.969 E11.06366
G1 X99.407 Y104.175 E11.1052
G1 X99.688 Y103.491 E11.13951
G1 X99.903 Y102.792 E11.17344
G1 X100.018 Y102.252 E11.19905
G1 X100.281 Y103.645 E11.26482
G1 X100.488 Y104.468 E11.30419
G1 X100.71 Y105.21 E11.34012
G1 X101.104 Y106.294 E11.39363
G1 X101.307 Y106.756 E11.41704
G1 X101.637 Y107.49 E11.45438
G1 X102.217 Y108.576 E11.5115
G1 X102.849 Y109.585 E11.56673
G1 X103.197 Y110.074 E11.59457
G1 X103.547 Y110.538 E11.62153
G1 X104.311 Y111.458 E11.67701
G1 X105.126 Y112.314 E11.73184
G1 X106.006 Y113.122 E11.78726
G1 X106.89 Y113.835 E11.83995
G1 X107.523 Y114.278 E11.87579
G1 X107.94 Y114.562 E11.8992
G1 X108.957 Y115.171 E11.95419
G1 X109.706 Y115.552 E11.99318
G1 X110.335 Y115.846 E12.02539
G1 X111.19 Y116.206 E12.06843
G1 X112.355 Y116.604 E12.12554
G1 X113.47 Y116.903 E12.1791
G1 X114.678 Y117.14 E12.23621
G1 X115.9 Y117.293 E12.29334
G1 X117.207 Y117.362 E12.35406
G1 X118.361 Y117.341 E12.40761
G1 X119.588 Y117.237 E12.46474
G1 X120.804 Y117.047 E12.52184
G1 X122.005 Y116.773 E12.57899
G1 X123.257 Y116.39 E12.63973
G1 X124.514 Y115.895 E12.7024
G1 X125.52 Y115.423 E12.75395
G1 X126.529 Y114.864 E12.80746
G1 X127.627 Y114.151 E12.8682
G1 X128.476 Y113.511 E12.91752
G1 X128.917 Y113.14 E12.94426
G1 X129.537 Y112.598 E12.98246
G1 X130.23 Y111.905 E13.02793
G1 X131.211 Y110.794 E13.09669
G1 X131.821 Y109.984 E13.14373
G1 X132.453 Y109.046 E13.1962
G1 X133.098 Y107.91 E13.2568
G1 X133.346 Y107.429 E13.28191
G1 X133.727 Y106.588 E13.32474
G1 X134.065 Y105.728 E13.36761
G1 X134.356 Y104.852 E13.41043
G1 X134.587 Y104.018 E13.45058
G1 X134.701 Y103.512 E13.47464
G1 X134.951 Y102.148 E13.53897
G1 X135.193 Y103.101 E13.58459
G1 X135.47 Y103.883 E13.62308
G1 X135.67 Y104.346 E13.64648
G1 X136.064 Y105.064 E13.68448
G1 X136.532 Y105.748 E13.72293
G1 X136.984 Y106.294 E13.75581
G1 X137.377 Y106.69 E13.78169
G1 X137.84 Y107.107 E13.8106
G1 X138.307 Y107.478 E13.83827
G1 X139.027 Y107.968 E13.87867
G1 X139.027 Y116.364 E14.26818
G1 X138.452 Y115.695 E14.30911
G1 X137.716 Y115.123 E14.35235
G1 X136.887 Y114.705 E14.39542
G1 X135.988 Y114.452 E14.43875
G1 X135.242 Y114.377 E14.47353
G1 X134.723 Y114.413 E14.49767
G1 X134.125 Y114.495 E14.52567
G1 X133.44 Y114.705 E14.55891
G1 X132.96 Y114.937 E14.58364
G1 X132.429 Y115.243 E14.61207
G1 X131.847 Y115.718 E14.64692
G1 X131.45 Y116.178 E14.67511
G1 X131.142 Y116.59 E14.69897
G1 X130.723 Y117.421 E14.74215
G1 X130.514 Y118.106 E14.77538
G1 X130.498 Y118.22 E14.78072
G1 E14.68072 F2400
G92 E0
G1 X95.934 Y158.369 F30000
G1 E.1 F2400
;WIDTH:0.423085
G1 F1800
G1 X96.193 Y158.628 E.11406
G1 X96.409 Y158.66 E.12244
;WIDTH:0.396636
G1 X96.625 Y158.692 E.13022
;WIDTH:0.370187
G1 X138.375 Y158.692 E1.5038
;WIDTH:0.396636
G1 X138.591 Y158.66 E1.51158
;WIDTH:0.423085
G1 X138.807 Y158.628 E1.51996
G1 X139.066 Y158.369 E1.53402
G1 X139.066 Y158.982 E1.55756
G1 X138.628 Y158.995 E1.57439
;WIDTH:0.396636
G1 X138.375 Y159.008 E1.58342
;WIDTH:0.370187
G1 X96.625 Y159.008 E2.957
;WIDTH:0.396636
G1 X96.28 Y158.995 E2.96931
;WIDTH:0.423085
G1 X95.934 Y158.982 E2.98261
G1 X95.934 Y158.429 E3.00384
G1 X95.989 Y157.792 F30000
;WIDTH:0.49908
G1 F1800
G1 X95.96 Y157.641 E3.01096
;WIDTH:0.499327
G1 X96.026 Y157.341 E3.02519
;WIDTH:0.499999
G1 X106.553 Y136.287 E4.11723
G1 X106.754 Y136.048 E4.13172
G1 X106.98 Y135.94 E4.14334
G1 X107.152 Y135.918 E4.15138
G1 X108.804 Y135.918 E4.22802
G1 X108.804 Y129.944 E4.50517
G1 X108.844 Y129.717 E4.51586
G1 X108.979 Y129.492 E4.52803
G1 X109.21 Y129.329 E4.54115
G1 X109.473 Y129.275 E4.55361
G1 X125.527 Y129.275 E5.2984
G1 X125.79 Y129.329 E5.31086
G1 X126.02 Y129.492 E5.32394
G1 X126.175 Y129.776 E5.33895
G1 X126.196 Y130.779 E5.38549
G1 X126.196 Y135.918 E5.6239
G1 X127.848 Y135.918 E5.70054
G1 X128.135 Y135.982 E5.71418
G1 X128.377 Y136.176 E5.72857
G1 X130.196 Y139.786 E5.91611
G1 X138.974 Y157.341 E6.82667
;WIDTH:0.499327
G1 X139.04 Y157.641 E6.8409
;WIDTH:0.49908
G1 X138.988 Y157.909 E6.85354
;WIDTH:0.499999
G1 X138.643 Y158.254 E6.87618
G1 X138.375 Y158.31 E6.88888
G1 X96.625 Y158.31 E8.82577
G1 X96.357 Y158.254 E8.83847
G1 X96.012 Y157.909 E8.86111
;WIDTH:0.49908
G1 X96.001 Y157.851 E8.86384
G1 X96.405 Y157.679 F30000
;TYPE:External perimeter
;WIDTH:0.499999
G1 F1800
G1 X96.425 Y157.541 E8.87031
G1 X106.952 Y136.487 E9.96235
G1 X107.056 Y136.385 E9.96911
G1 X107.152 Y136.364 E9.97367
G1 X109.25 Y136.364 E10.071
G1 X109.25 Y129.944 E10.36884
G1 X109.309 Y129.793 E10.37636
G1 X109.473 Y129.721 E10.38467
G1 X125.527 Y129.721 E11.12946
G1 X125.691 Y129.793 E11.13777
G1 X125.75 Y129.944 E11.14529
G1 X125.75 Y136.364 E11.44313
G1 X127.848 Y136.364 E11.54046
G1 X127.981 Y136.407 E11.54694
G1 X128.367 Y137.125 E11.58476
G1 X138.575 Y157.541 E12.64371
G1 X138.595 Y157.679 E12.65018
G1 X138.464 Y157.845 E12.65999
G1 X138.375 Y157.864 E12.66421
G1 X96.625 Y157.864 E14.6011
G1 X96.536 Y157.845 E14.60532
G1 X96.442 Y157.727 E14.61232
G1 X96.273 Y157.634 F30000
G1 E14.51232 F2400
G92 E0
G1 X130.929 Y118.345 F30000
G1 E.1 F2400
;TYPE:Perimeter
G1 F1800
G1 X130.845 Y119.209 E.14027
G1 X130.894 Y119.71 E.16362
G1 X130.99 Y120.212 E.18733
G1 X131.199 Y120.855 E.2187
G1 X131.608 Y121.597 E.25801
G1 X132.157 Y122.247 E.29748
G1 X132.82 Y122.771 E.33669
G1 X133.571 Y123.156 E.37584
G1 X134.384 Y123.392 E.41511
G1 X135.231 Y123.464 E.45455
G1 X136.072 Y123.366 E.49383
G1 X136.874 Y123.108 E.53291
G1 X137.615 Y122.699 E.57218
G1 X138.266 Y122.151 E.61166
G1 X138.79 Y121.488 E.65087
G1 X139.175 Y120.737 E.69002
;WIDTH:0.534865
G1 X139.307 Y120.357 E.71014
;WIDTH:0.56973
G1 X139.439 Y119.978 E.73167
G1 X139.446 Y120.065 E.73635
;WIDTH:0.554378
G1 X139.46 Y120.423 E.755
;WIDTH:0.527189
G1 X139.473 Y120.782 E.77268
;WIDTH:0.499999
G1 X139.473 Y130.15 E1.20729
;WIDTH:0.531288
G1 X139.458 Y130.577 E1.2285
;WIDTH:0.562576
G1 X139.442 Y131.004 E1.2511
G1 X139.405 Y130.873 E1.2583
;WIDTH:0.540845
G1 X139.127 Y130.076 E1.30104
;WIDTH:0.499999
G1 X138.718 Y129.334 E1.34035
G1 X138.17 Y128.684 E1.37979
G1 X137.507 Y128.159 E1.41902
G1 X136.874 Y127.823 E1.45227
G1 X136.47 Y127.687 E1.47205
G1 X135.942 Y127.539 E1.49749
G1 X135.095 Y127.466 E1.53693
G1 X134.255 Y127.565 E1.57617
G1 X133.452 Y127.824 E1.61531
G1 X132.711 Y128.232 E1.65455
G1 X132.061 Y128.779 E1.69396
G1 X131.536 Y129.442 E1.73319
G1 X131.15 Y130.194 E1.7724
G1 X130.915 Y131.009 E1.81175
G1 X130.845 Y131.852 E1.85099
G1 X130.915 Y132.564 E1.88418
G1 X130.99 Y132.856 E1.89817
G1 X131.199 Y133.498 E1.92949
G1 X131.61 Y134.241 E1.96888
G1 X132.157 Y134.889 E2.00822
G1 X132.82 Y135.413 E2.04743
G1 X133.57 Y135.798 E2.08654
G1 X134.383 Y136.034 E2.12581
G1 X135.231 Y136.107 E2.1653
G1 X136.07 Y136.009 E2.20449
G1 X136.874 Y135.75 E2.24368
G1 X137.615 Y135.342 E2.28292
G1 X138.266 Y134.794 E2.3224
G1 X138.79 Y134.13 E2.36164
G1 X139.175 Y133.379 E2.40079
;WIDTH:0.534865
G1 X139.307 Y133 E2.42086
;WIDTH:0.56973
G1 X139.439 Y132.62 E2.44244
G1 X139.446 Y132.708 E2.44718
;WIDTH:0.554378
G1 X139.46 Y133.066 E2.46583
;WIDTH:0.527189
G1 X139.473 Y133.424 E2.48346
;WIDTH:0.499999
G1 X139.474 Y157.223 E3.58756
;WIDTH:0.499327
G1 X139.475 Y157.487 E3.59979
;WIDTH:0.49908
G1 X139.474 Y158.01 E3.624
;WIDTH:0.499999
G1 X139.473 Y159.39 E3.68802
G1 X95.527 Y159.39 E5.72679
G1 X95.525 Y157.795 E5.80079
;WIDTH:0.499327
G1 X95.526 Y157.223 E5.82729
;WIDTH:0.499999
G1 X95.527 Y133.423 E6.93143
;WIDTH:0.53479
G1 X95.544 Y133.022 E6.9515
;WIDTH:0.56958
G1 X95.561 Y132.62 E6.97308
G1 X95.589 Y132.702 E6.97773
;WIDTH:0.554287
G1 X95.731 Y133.1 E6.99972
;WIDTH:0.527143
G1 X95.873 Y133.497 E7.02047
;WIDTH:0.499999
G1 X96.282 Y134.239 E7.05978
G1 X96.83 Y134.889 E7.09922
G1 X97.493 Y135.414 E7.13845
G1 X98.244 Y135.799 E7.1776
G1 X99.057 Y136.034 E7.21686
G1 X99.905 Y136.107 E7.25635
G1 X100.744 Y136.009 E7.29554
G1 X101.547 Y135.75 E7.33468
G1 X102.289 Y135.341 E7.37399
G1 X102.939 Y134.794 E7.4134
G1 X103.464 Y134.131 E7.45263
G1 X103.85 Y133.379 E7.49184
G1 X104.085 Y132.564 E7.53119
G1 X104.155 Y131.721 E7.57043
G1 X104.085 Y131.009 E7.60362
G1 X103.993 Y130.661 E7.62032
G1 X103.801 Y130.075 E7.64893
G1 X103.392 Y129.334 E7.6882
G1 X102.843 Y128.684 E7.72767
G1 X102.18 Y128.16 E7.76688
G1 X101.429 Y127.774 E7.80605
G1 X100.615 Y127.539 E7.84536
G1 X99.751 Y127.467 E7.88558
G1 X98.928 Y127.565 E7.92403
G1 X98.126 Y127.823 E7.96311
G1 X97.385 Y128.231 E8.00235
G1 X96.734 Y128.78 E8.04186
G1 X96.21 Y129.443 E8.08107
G1 X95.825 Y130.194 E8.12022
;WIDTH:0.531367
G1 X95.691 Y130.599 E8.1414
;WIDTH:0.562734
