; generated by PrusaSlicer 2.6.1+linux-x64-GTK3 on 2023-10-29 at 12:35:53 UTC

; 

; external perimeters extrusion width = 0.45mm
; perimeters extrusion width = 0.45mm
; infill extrusion width = 0.45mm
; solid infill extrusion width = 0.45mm
; top infill extrusion width = 0.40mm
; first layer extrusion width = 0.50mm

; external perimeters extrusion width = 0.45mm
; perimeters extrusion width = 0.45mm
; infill extrusion width = 0.45mm
; solid infill extrusion width = 0.45mm
; top infill extrusion width = 0.40mm
; first layer extrusion width = 0.50mm

;TYPE:Custom
; M190 R30 ; Because of probe temperature drift,
; M109 R30 ; Let the beds and hotend cool down before homing the axis

G28 ; home all axes
G1 Z100.0 F3000 ; Raise head above brush
M190 S65 ; set bed temperature and wait for it to be reached
M109 S230 ; set hot end temp and wait for it

; Brush any crap off the nozzle
G1 X232.0 Y0.0 F3000 ; Goto Start of movement
G1 Z19.0 F3000 ; Lower into brush
G1 X221.0 Y2.0 F3000 ; Goto Start of movement
G1 X229.0 Y4.0 F3000 ; 
G1 X221.0 Y6.0 F3000 ; 
G1 X229.0 Y8.0 F3000 ; 
G1 X221.0 Y10.0 F3000 ;
G1 X229.0 Y12.0 F3000 ;
G1 X221.0 Y14.0 F3000 ;
G1 X229.0 Y16.0 F3000 ;
G1 X221.0 Y18.0 F3000 ;
G1 X229.0 Y20.0 F3000 ;
G1 X221.0 Y22.0 F3000 ;
G1 X229.0 Y24.0 F3000 ;
G1 X221.0 Y26.0 F3000 ;
G1 X229.0 Y28.0 F3000 ;
G1 X221.0 Y30.0 F3000 ;
G1 X229.0 Y28.0 F3000 ;
G1 X221.0 Y26.0 F3000 ;
G1 X229.0 Y24.0 F3000 ;
G1 X221.0 Y22.0 F3000 ;
G1 X229.0 Y20.0 F3000 ;
G1 X221.0 Y18.0 F3000 ;
G1 X229.0 Y16.0 F3000 ;
G1 X221.0 Y14.0 F3000 ;
G1 X229.0 Y12.0 F3000 ;
G1 X221.0 Y10.0 F3000 ;
G1 X229.0 Y8.0 F3000 ; 
G1 X221.0 Y6.0 F3000 ; 
G1 X229.0 Y4.0 F3000 ; 
G1 X221.0 Y2.0 F3000 ; 
G1 X229.0 Y0.0 F3000 ; 
G1 X225.0 Y0.0 F3000 ; 
G1 X225.0 Y30.0 F5000 ; 
G1 X225.0 Y0.0 F5000 ; 
G1 X225.0 Y30.0 F5000 ; 
G1 X225.0 Y0.0 F5000 ; 
G1 X225.0 Y30.0 F5000 ; 

; Do a purge line to prime the extruder
G92 E0 ;Reset Extruder
G1 X227.0 Y80.0 F5000 ; Goto Start of purge
G1 Z0.28 F5000 ;Move Head to start height
G1 X227.0 Y230.0 Z0.28 F1500.0 E15; Draw first line
G1 X226.7 Y230.0 Z0.28 F5000.0 ;Move to side a little
G1 X226.7 Y80.0 Z0.28 F1500.0 E30; Draw the second line
G1 Z0.4 F5000; Move Z Axis Up
G1 Y120 F1500; Wipe to the back
G1 X117.5 Y117.5 Z27.0 F5000 ; Raise head above brush
G92 E0 ;Reset Extruder
G21 ; set units to millimeters
G90 ; use absolute coordinates
M82 ; use absolute distances for extrusion
G92 E0
; Filament gcode
SET_PRESSURE_ADVANCE ADVANCE=0.063
M107
;LAYER_CHANGE
;Z:0.25
;HEIGHT:0.25
G1 Z.25 F30000
G1 E-.1 F2400
G92 E0
G1 X91.078 Y96.215 F30000
G1 E.1 F2400
;TYPE:Perimeter
;WIDTH:0.499999
G1 F1800
G1 X91.23 Y96.243 E.10717
G1 X100.661 Y96.243 E.5447
G1 X100.661 Y99.664 E.70341
G1 X100.661 Y113.239 E1.33319
G1 X89.42 Y113.239 E1.85469
;WIDTH:0.549329
G1 X89.236 Y113.214 E1.86426
;WIDTH:0.598659
G1 X89.052 Y113.189 E1.87478
;WIDTH:0.647989
G1 X88.868 Y113.165 E1.88624
;WIDTH:0.697318
G1 X88.684 Y113.14 E1.89866
G1 X87.942 Y113.164 E1.94833
;WIDTH:0.64923
G1 X87.165 Y113.167 E1.99643
;WIDTH:0.633411
G1 X86.498 Y113.135 E2.03667
G1 X85.728 Y113.027 E2.08352
;WIDTH:0.631998
G1 X84.989 Y112.855 E2.12913
;WIDTH:0.631276
G1 X84.275 Y112.62 E2.17426
G1 X83.525 Y112.293 E2.22338
;WIDTH:0.630837
G1 X82.944 Y111.977 E2.26306
;WIDTH:0.637067
G1 X82.505 Y111.7 E2.29454
;WIDTH:0.637717
G1 X81.916 Y111.259 E2.33921
G1 X81.367 Y110.768 E2.38392
;WIDTH:0.637122
G1 X80.866 Y110.235 E2.42828
;WIDTH:0.635815
G1 X80.416 Y109.664 E2.47227
;WIDTH:0.634842
G1 X79.999 Y109.024 E2.51841
;WIDTH:0.633262
G1 X79.625 Y108.309 E2.56702
;WIDTH:0.632629
G1 X79.369 Y107.705 E2.6065
;WIDTH:0.636796
G1 X79.184 Y107.161 E2.64133
G1 X79.025 Y106.546 E2.67983
;WIDTH:0.637359
G1 X78.899 Y105.815 E2.72483
G1 X78.838 Y105.125 E2.76686
;WIDTH:0.636616
G1 X78.836 Y104.414 E2.80994
G1 X78.895 Y103.692 E2.85383
;WIDTH:0.636024
G1 X79.017 Y102.97 E2.89815
;WIDTH:0.635792
G1 X79.201 Y102.265 E2.94224
;WIDTH:0.635134
G1 X79.446 Y101.574 E2.98655
;WIDTH:0.634956
G1 X79.769 Y100.875 E3.03307
;WIDTH:0.633682
G1 X80.191 Y100.152 E3.08354
;WIDTH:0.631724
G1 X80.667 Y99.494 E3.13234
;WIDTH:0.630842
G1 X81.202 Y98.885 E3.18097
G1 X81.667 Y98.439 E3.21962
;WIDTH:0.637383
G1 X82.056 Y98.111 E3.25049
G1 X82.62 Y97.704 E3.29269
;WIDTH:0.63674
G1 X83.178 Y97.365 E3.33226
;WIDTH:0.636044
G1 X83.818 Y97.042 E3.37566
G1 X83.926 Y96.928 E3.38517
;WIDTH:0.590696
G1 X84.033 Y96.814 E3.3939
;WIDTH:0.545348
G1 X84.141 Y96.7 E3.40193
;WIDTH:0.548429
G1 X84.245 Y96.531 E3.41213
;WIDTH:0.596859
G1 X84.35 Y96.361 E3.42341
;WIDTH:0.645288
G1 X84.455 Y96.191 E3.4357
G1 X84.467 Y95.986 E3.44833
;WIDTH:0.634127
G1 X84.467 Y89.683 E3.82861
G1 X85.047 Y89.681 E3.8636
G1 X85.047 Y95.986 E4.244
;WIDTH:0.645288
G1 X85.042 Y96.242 E4.25975
G1 X85.066 Y96.46 E4.27324
;WIDTH:0.596859
G1 X85.09 Y96.677 E4.28557
;WIDTH:0.548429
G1 X85.114 Y96.895 E4.29685
;WIDTH:0.499999
G1 X85.114 Y97.265 E4.31402
G1 X84.654 Y97.407 E4.33635
;WIDTH:0.54467
G1 X84.428 Y97.475 E4.34839
;WIDTH:0.58934
G1 X84.203 Y97.543 E4.36148
;WIDTH:0.63401
G1 X83.977 Y97.611 E4.37572
G1 X83.393 Y97.91 E4.4153
;WIDTH:0.63674
G1 X82.929 Y98.199 E4.44843
;WIDTH:0.637383
G1 X82.408 Y98.576 E4.48745
G1 X81.889 Y99.021 E4.52893
;WIDTH:0.636948
G1 X81.424 Y99.495 E4.56919
;WIDTH:0.636507
G1 X80.994 Y100.014 E4.61002
;WIDTH:0.635394
G1 X80.601 Y100.581 E4.65173
;WIDTH:0.63394
G1 X80.222 Y101.263 E4.69879
;WIDTH:0.632331
G1 X79.925 Y101.945 E4.74353
;WIDTH:0.631448
G1 X79.701 Y102.622 E4.78636
;WIDTH:0.630961
G1 X79.538 Y103.326 E4.82972
;WIDTH:0.631609
G1 X79.452 Y103.922 E4.86589
;WIDTH:0.636616
G1 X79.417 Y104.452 E4.89807
G1 X79.42 Y105.113 E4.93812
;WIDTH:0.637359
G1 X79.479 Y105.753 E4.97711
G1 X79.597 Y106.434 E5.01904
;WIDTH:0.636796
G1 X79.745 Y107 E5.0545
G1 X79.938 Y107.571 E5.09103
;WIDTH:0.635249
G1 X80.205 Y108.187 E5.13161
;WIDTH:0.634213
G1 X80.568 Y108.845 E5.17696
;WIDTH:0.632349
G1 X80.99 Y109.464 E5.22202
;WIDTH:0.631206
G1 X81.436 Y110.004 E5.26406
;WIDTH:0.637122
G1 X81.787 Y110.363 E5.29451
;WIDTH:0.637717
G1 X82.296 Y110.815 E5.33583
G1 X82.842 Y111.225 E5.37728
;WIDTH:0.637067
G1 X83.42 Y111.583 E5.41851
;WIDTH:0.636867
G1 X84.022 Y111.888 E5.45942
;WIDTH:0.636355
G1 X84.653 Y112.143 E5.50064
;WIDTH:0.635203
G1 X85.297 Y112.34 E5.54135
;WIDTH:0.634644
G1 X85.957 Y112.481 E5.5821
;WIDTH:0.633788
G1 X86.672 Y112.567 E5.62552
;WIDTH:0.635041
G1 X87.29 Y112.59 E5.66289
;WIDTH:0.655618
G1 X88.04 Y112.562 E5.70985
;WIDTH:0.697318
G1 X88.64 Y112.499 E5.75021
G1 X88.744 Y112.46 E5.75764
;WIDTH:0.658367
G1 X88.909 Y112.4 E5.76868
;WIDTH:0.618775
G1 X89.074 Y112.34 E5.77899
;WIDTH:0.579183
G1 X89.24 Y112.28 E5.78863
;WIDTH:0.539591
G1 X89.405 Y112.22 E5.7975
;WIDTH:0.499999
G1 X90.132 Y111.972 E5.83314
G1 X90.833 Y111.652 E5.86889
G1 X91.456 Y111.293 E5.90225
G1 X92.047 Y110.873 E5.93589
G1 X92.64 Y110.361 E5.97224
G1 X93.172 Y109.797 E6.00821
G1 X93.616 Y109.227 E6.04173
G1 X94.001 Y108.623 E6.07496
G1 X94.347 Y107.949 E6.11011
G1 X94.612 Y107.283 E6.14336
G1 X94.812 Y106.608 E6.17602
G1 X94.951 Y105.908 E6.20913
G1 X95.019 Y105.299 E6.23756
G1 X95.037 Y104.556 E6.27204
G1 X94.988 Y103.852 E6.30478
G1 X94.872 Y103.138 E6.33834
G1 X94.686 Y102.423 E6.37261
G1 X94.428 Y101.719 E6.40739
G1 X94.107 Y101.048 E6.4419
G1 X93.717 Y100.403 E6.47687
G1 X93.251 Y99.779 E6.513
G1 X92.746 Y99.225 E6.54778
G1 X92.209 Y98.738 E6.58141
G1 X91.616 Y98.294 E6.61578
G1 X90.856 Y97.847 E6.65668
G1 X90.403 Y97.623 E6.68012
G1 X89.896 Y97.424 E6.70539
G1 X89.4 Y97.266 E6.72954
G1 X89.4 Y95.914 E6.79226
;WIDTH:0.548429
G1 X89.424 Y95.737 E6.80145
;WIDTH:0.596859
G1 X89.448 Y95.561 E6.81148
;WIDTH:0.645289
G1 X89.472 Y95.384 E6.82246
G1 X89.467 Y95.128 E6.83821
;WIDTH:0.634127
G1 X89.467 Y89.686 E7.16655
G1 X90.047 Y89.686 E7.20154
G1 X90.047 Y95.128 E7.52988
;WIDTH:0.645289
G1 X90.06 Y95.333 E7.54251
G1 X90.127 Y95.45 E7.5508
;WIDTH:0.596859
G1 X90.195 Y95.567 E7.55844
;WIDTH:0.548429
G1 X90.263 Y95.683 E7.56535
;WIDTH:0.499999
G1 X90.609 Y96.055 E7.58892
G1 X90.828 Y96.168 E7.60035
G1 X91.02 Y96.204 E7.60941
G1 X91.154 Y95.783 F30000
G1 F1800
G1 X91.23 Y95.797 E7.613
G1 X101.107 Y95.797 E8.07122
G1 X101.107 Y113.685 E8.90109
G1 X87.272 Y113.685 E9.54293
G1 X86.502 Y113.652 E9.57869
G1 X85.771 Y113.56 E9.61287
G1 X85.033 Y113.403 E9.64787
G1 X84.298 Y113.181 E9.68349
G1 X83.576 Y112.892 E9.71957
G1 X82.887 Y112.544 E9.75538
G1 X82.225 Y112.134 E9.79151
G1 X81.599 Y111.667 E9.82774
G1 X81.016 Y111.147 E9.86398
G1 X80.484 Y110.581 E9.90002
G1 X80.005 Y109.975 E9.93586
G1 X79.586 Y109.338 E9.97123
G1 X79.227 Y108.679 E10.00604
G1 X78.92 Y107.977 E10.04159
G1 X78.694 Y107.321 E10.07378
G1 X78.524 Y106.667 E10.10513
G1 X78.389 Y105.895 E10.14149
G1 X78.324 Y105.161 E10.17568
G1 X78.32 Y104.407 E10.21066
G1 X78.382 Y103.641 E10.24631
G1 X78.511 Y102.874 E10.28239
G1 X78.704 Y102.127 E10.31818
G1 X78.964 Y101.393 E10.35431
G1 X79.288 Y100.682 E10.39056
G1 X79.672 Y100.003 E10.42675
G1 X80.112 Y99.362 E10.46282
G1 X80.603 Y98.766 E10.49864
G1 X81.135 Y98.221 E10.53397
G1 X81.727 Y97.713 E10.57016
G1 X82.325 Y97.281 E10.60438
G1 X82.918 Y96.921 E10.63656
G1 X83.586 Y96.583 E10.67129
G1 X83.837 Y96.363 E10.68677
G1 X83.953 Y95.986 E10.70507
G1 X83.953 Y89.171 E11.02124
G1 X85.561 Y89.166 E11.09584
G1 X85.561 Y97.607 E11.48744
G1 X84.82 Y97.822 E11.52323
G1 X84.213 Y98.067 E11.5536
G1 X83.675 Y98.342 E11.58163
G1 X83.207 Y98.632 E11.60717
G1 X82.728 Y98.98 E11.63464
G1 X82.245 Y99.393 E11.66412
G1 X81.814 Y99.831 E11.69263
G1 X81.414 Y100.31 E11.72158
G1 X81.048 Y100.834 E11.75123
G1 X80.691 Y101.472 E11.78515
G1 X80.41 Y102.11 E11.81749
G1 X80.199 Y102.741 E11.84836
G1 X80.056 Y103.339 E11.87688
G1 X79.979 Y103.855 E11.90108
G1 X79.931 Y104.479 E11.93011
G1 X79.934 Y105.095 E11.95869
G1 X79.99 Y105.689 E11.98637
G1 X80.1 Y106.324 E12.01627
G1 X80.235 Y106.845 E12.04124
G1 X80.412 Y107.371 E12.06699
G1 X80.657 Y107.943 E12.09586
G1 X80.993 Y108.559 E12.12841
G1 X81.386 Y109.14 E12.16095
G1 X81.778 Y109.619 E12.18966
G1 X82.153 Y110.001 E12.21449
G1 X82.623 Y110.417 E12.24361
G1 X83.13 Y110.798 E12.27303
G1 X83.666 Y111.131 E12.3023
G1 X84.222 Y111.414 E12.33124
G1 X84.809 Y111.654 E12.36066
G1 X85.408 Y111.839 E12.38974
G1 X86.022 Y111.972 E12.41889
G1 X86.693 Y112.055 E12.45026
G1 X87.267 Y112.077 E12.47691
G1 X87.968 Y112.042 E12.50947
G1 X88.625 Y111.948 E12.54026
G1 X89.264 Y111.796 E12.57073
G1 X89.95 Y111.565 E12.60431
G1 X90.613 Y111.264 E12.63809
G1 X91.2 Y110.927 E12.66949
G1 X91.757 Y110.534 E12.70112
G1 X92.317 Y110.052 E12.7354
G1 X92.822 Y109.521 E12.7694
G1 X93.241 Y108.984 E12.801
G1 X93.605 Y108.417 E12.83226
G1 X93.933 Y107.782 E12.86542
G1 X94.185 Y107.154 E12.89681
G1 X94.374 Y106.518 E12.92759
G1 X94.508 Y105.856 E12.95892
G1 X94.572 Y105.285 E12.98558
G1 X94.591 Y104.583 E13.01816
G1 X94.547 Y103.921 E13.04894
G1 X94.439 Y103.248 E13.08056
G1 X94.265 Y102.573 E13.1129
G1 X94.024 Y101.909 E13.14567
G1 X93.723 Y101.276 E13.17819
G1 X93.358 Y100.668 E13.21109
G1 X92.919 Y100.078 E13.24521
G1 X92.443 Y99.553 E13.27809
G1 X91.94 Y99.094 E13.30968
G1 X91.381 Y98.674 E13.34212
G1 X90.658 Y98.247 E13.38107
G1 X90.124 Y97.991 E13.40854
G1 X89.567 Y97.778 E13.43621
G1 X88.953 Y97.604 E13.46582
G1 X88.953 Y89.173 E13.85696
G1 X90.561 Y89.173 E13.93156
G1 X90.561 Y95.128 E14.20783
G1 X90.65 Y95.461 E14.22382
G1 X90.857 Y95.684 E14.23794
G1 X90.989 Y95.752 E14.24483
G1 X91.095 Y95.772 E14.24983
G1 X91.23 Y95.351 F30000
;TYPE:External perimeter
G1 F1800
G1 X101.554 Y95.351 E14.72879
G1 X101.554 Y114.131 E15.60004
G1 X87.124 Y114.125 E16.26949
G1 X86.377 Y114.086 E16.30419
G1 X85.529 Y113.965 E16.34393
G1 X84.711 Y113.772 E16.38292
G1 X83.919 Y113.509 E16.42164
G1 X83.093 Y113.148 E16.46346
G1 X82.321 Y112.719 E16.50443
G1 X81.718 Y112.313 E16.53815
G1 X81.275 Y111.976 E16.56397
G1 X80.667 Y111.427 E16.60197
G1 X80.112 Y110.83 E16.63979
G1 X79.614 Y110.192 E16.67734
G1 X79.156 Y109.482 E16.71654
G1 X78.747 Y108.693 E16.75777
G1 X78.417 Y107.887 E16.79818
G1 X78.169 Y107.075 E16.83757
G1 X78.026 Y106.41 E16.86913
G1 X77.941 Y105.899 E16.89316
G1 X77.877 Y105.13 E16.92896
G1 X77.878 Y104.337 E16.96575
G1 X77.947 Y103.533 E17.00319
G1 X78.087 Y102.729 E17.04105
G1 X78.295 Y101.945 E17.07868
G1 X78.572 Y101.176 E17.1166
G1 X78.933 Y100.403 E17.15618
G1 X79.401 Y99.61 E17.1989
G1 X79.927 Y98.885 E17.24045
G1 X80.517 Y98.215 E17.28187
G1 X81.103 Y97.661 E17.31928
G1 X81.493 Y97.331 E17.34298
G1 X82.121 Y96.883 E17.37877
G1 X82.745 Y96.508 E17.41254
G1 X83.455 Y96.129 E17.44988
G1 X83.507 Y95.986 E17.45694
G1 X83.507 Y88.726 E17.79375
G1 X86.007 Y88.721 E17.90973
G1 X86.007 Y97.972 E18.33891
G1 X85.56 Y98.064 E18.36008
G1 X84.985 Y98.236 E18.38792
G1 X84.414 Y98.465 E18.41646
G1 X83.878 Y98.739 E18.44439
G1 X83.448 Y99.008 E18.46792
G1 X83.005 Y99.33 E18.49333
G1 X82.554 Y99.715 E18.52084
G1 X82.152 Y100.123 E18.54741
G1 X81.778 Y100.568 E18.57438
G1 X81.436 Y101.054 E18.60195
G1 X81.098 Y101.653 E18.63386
G1 X80.833 Y102.253 E18.66429
G1 X80.633 Y102.844 E18.69324
G1 X80.487 Y103.463 E18.72274
G1 X80.399 Y104.079 E18.75161
G1 X80.367 Y104.716 E18.7812
G1 X80.388 Y105.272 E18.80701
G1 X80.471 Y105.929 E18.83773
G1 X80.661 Y106.711 E18.87506
G1 X80.823 Y107.197 E18.89883
G1 X81.05 Y107.731 E18.92575
G1 X81.364 Y108.311 E18.95635
G1 X81.732 Y108.857 E18.9869
G1 X82.063 Y109.261 E19.01113
G1 X82.47 Y109.686 E19.03843
G1 X82.906 Y110.072 E19.06545
G1 X83.379 Y110.428 E19.09291
G1 X83.879 Y110.739 E19.12023
G1 X84.396 Y111.003 E19.14716
G1 X84.945 Y111.229 E19.1747
G1 X85.505 Y111.403 E19.20191
G1 X86.079 Y111.53 E19.22918
G1 X86.711 Y111.609 E19.25873
G1 X87.247 Y111.631 E19.28362
G1 X87.907 Y111.6 E19.31427
G1 X88.523 Y111.514 E19.34312
G1 X89.123 Y111.373 E19.37171
G1 X89.767 Y111.158 E19.40321
G1 X90.393 Y110.876 E19.43506
G1 X90.944 Y110.561 E19.4645
G1 X91.468 Y110.194 E19.49418
G1 X91.995 Y109.744 E19.52633
G1 X92.471 Y109.244 E19.55836
G1 X92.866 Y108.742 E19.58799
G1 X93.209 Y108.21 E19.61736
G1 X93.52 Y107.614 E19.64855
G1 X93.758 Y107.024 E19.67806
G1 X93.937 Y106.428 E19.70693
G1 X94.065 Y105.804 E19.73648
G1 X94.126 Y105.271 E19.76137
G1 X94.146 Y104.611 E19.792
G1 X94.106 Y103.99 E19.82087
G1 X94.007 Y103.357 E19.85059
G1 X93.845 Y102.724 E19.8809
G1 X93.621 Y102.099 E19.9117
G1 X93.339 Y101.504 E19.94225
G1 X92.999 Y100.932 E19.97312
G1 X92.587 Y100.376 E20.00522
G1 X92.141 Y99.882 E20.0361
G1 X91.67 Y99.45 E20.06575
G1 X91.146 Y99.053 E20.09625
G1 X90.461 Y98.647 E20.13319
G1 X89.963 Y98.407 E20.15884
G1 X89.444 Y98.207 E20.18464
G1 X88.507 Y97.97 E20.22948
G1 X88.507 Y88.726 E20.65833
G1 X91.007 Y88.726 E20.77431
G1 X91.007 Y95.128 E21.07132
G1 X91.01 Y95.166 E21.07309
G1 X91.106 Y95.313 E21.08124
G1 X91.173 Y95.333 E21.08448
G1 X91.345 Y95.734 F30000
G1 X89.56 Y95.807
;TYPE:Solid infill
;WIDTH:0.503527
G1 F1800
G1 X89.94 Y95.807 E21.10225
G1 X90.348 Y96.257 E21.13065
G1 X89.734 Y96.257 E21.15936
G1 X89.734 Y96.706 E21.18035
G1 X100.326 Y96.706 E21.67562
G1 X100.326 Y97.156 E21.69666
G1 X90.112 Y97.156 E22.17426
G1 X90.449 Y97.279 E22.19103
G1 X91.125 Y97.606 E22.22614
G1 X100.326 Y97.606 E22.65637
G1 X100.326 Y98.056 E22.67741
G1 X91.855 Y98.056 E23.07351
G1 X92.45 Y98.506 E23.10839
G1 X100.326 Y98.506 E23.47667
G1 X100.326 Y98.956 E23.49771
G1 X92.947 Y98.956 E23.84275
G1 X93.363 Y99.406 E23.87141
G1 X100.326 Y99.406 E24.19699
G1 X100.326 Y99.856 E24.21803
G1 X93.726 Y99.856 E24.52664
G1 X94.049 Y100.305 E24.5525
G1 X100.326 Y100.305 E24.84601
G1 X100.326 Y100.755 E24.86705
G1 X94.321 Y100.755 E25.14784
G1 X94.55 Y101.205 E25.17145
G1 X100.326 Y101.205 E25.44153
G1 X100.326 Y101.655 E25.46257
G1 X94.761 Y101.655 E25.72279
G1 X94.927 Y102.105 E25.74522
G1 X100.326 Y102.105 E25.99767
G1 X100.326 Y102.555 E26.01871
G1 X95.065 Y102.555 E26.26471
G1 X95.183 Y103.005 E26.28646
G1 X100.326 Y103.005 E26.52694
G1 X100.326 Y103.455 E26.54798
G1 X95.262 Y103.455 E26.78477
G1 X95.327 Y103.905 E26.80603
G1 X100.326 Y103.905 E27.03978
G1 X100.326 Y104.354 E27.06077
G1 X95.358 Y104.354 E27.29307
G1 X95.363 Y104.804 E27.31411
