; generated by PrusaSlicer 2.6.1+linux-x64-GTK3 on 2023-10-29 at 12:39:01 UTC

; 

; external perimeters extrusion width = 0.45mm
; perimeters extrusion width = 0.45mm
; infill extrusion width = 0.45mm
; solid infill extrusion width = 0.45mm
; top infill extrusion width = 0.40mm
; first layer extrusion width = 0.50mm

;TYPE:Custom
; M190 R30 ; Because of probe temperature drift,
; M109 R30 ; Let the beds and hotend cool down before homing the axis

G28 ; home all axes
G1 Z100.0 F3000 ; Raise head above brush
M190 S65 ; set bed temperature and wait for it to be reached
M109 S230 ; set hot end temp and wait for it

; Brush any crap off the nozzle
G1 X232.0 Y0.0 F3000 ; Goto Start of movement
G1 Z19.0 F3000 ; Lower into brush
G1 X221.0 Y2.0 F3000 ; Goto Start of movement
G1 X229.0 Y4.0 F3000 ; 
G1 X221.0 Y6.0 F3000 ; 
G1 X229.0 Y8.0 F3000 ; 
G1 X221.0 Y10.0 F3000 ;
G1 X229.0 Y12.0 F3000 ;
G1 X221.0 Y14.0 F3000 ;
G1 X229.0 Y16.0 F3000 ;
G1 X221.0 Y18.0 F3000 ;
G1 X229.0 Y20.0 F3000 ;
G1 X221.0 Y22.0 F3000 ;
G1 X229.0 Y24.0 F3000 ;
G1 X221.0 Y26.0 F3000 ;
G1 X229.0 Y28.0 F3000 ;
G1 X221.0 Y30.0 F3000 ;
G1 X229.0 Y28.0 F3000 ;
G1 X221.0 Y26.0 F3000 ;
G1 X229.0 Y24.0 F3000 ;
G1 X221.0 Y22.0 F3000 ;
G1 X229.0 Y20.0 F3000 ;
G1 X221.0 Y18.0 F3000 ;
G1 X229.0 Y16.0 F3000 ;
G1 X221.0 Y14.0 F3000 ;
G1 X229.0 Y12.0 F3000 ;
G1 X221.0 Y10.0 F3000 ;
G1 X229.0 Y8.0 F3000 ; 
G1 X221.0 Y6.0 F3000 ; 
G1 X229.0 Y4.0 F3000 ; 
G1 X221.0 Y2.0 F3000 ; 
G1 X229.0 Y0.0 F3000 ; 
G1 X225.0 Y0.0 F3000 ; 
G1 X225.0 Y30.0 F5000 ; 
G1 X225.0 Y0.0 F5000 ; 
G1 X225.0 Y30.0 F5000 ; 
G1 X225.0 Y0.0 F5000 ; 
G1 X225.0 Y30.0 F5000 ; 

; Do a purge line to prime the extruder
G92 E0 ;Reset Extruder
G1 X227.0 Y80.0 F5000 ; Goto Start of purge
G1 Z0.28 F5000 ;Move Head to start height
G1 X227.0 Y230.0 Z0.28 F1500.0 E15; Draw first line
G1 X226.7 Y230.0 Z0.28 F5000.0 ;Move to side a little
G1 X226.7 Y80.0 Z0.28 F1500.0 E30; Draw the second line
G1 Z0.4 F5000; Move Z Axis Up
G1 Y120 F1500; Wipe to the back
G1 X117.5 Y117.5 Z27.0 F5000 ; Raise head above brush
G92 E0 ;Reset Extruder
G21 ; set units to millimeters
G90 ; use absolute coordinates
M82 ; use absolute distances for extrusion
G92 E0
; Filament gcode
SET_PRESSURE_ADVANCE ADVANCE=0.063
M107
;LAYER_CHANGE
;Z:0.25
;HEIGHT:0.25
G1 Z.25 F30000
G1 E-.1 F2400
G92 E0
G1 X112.762 Y110.693 F30000
G1 E.1 F2400
;TYPE:Skirt/Brim
;WIDTH:0.5
G1 F1800
G1 X113.631 Y110.141 E.14776
G1 X114.9 Y109.789 E.20886
G1 X120.374 Y109.799 E.46281
G1 X121.209 Y110.043 E.50317
G1 X121.992 Y110.472 E.54459
G1 X122.754 Y111.18 E.59285
G1 X125.525 Y115.847 E.84465
G1 X125.866 Y117.11 E.90534
G1 X125.834 Y118.139 E.9531
G1 X125.541 Y119.118 E1.00051
G1 X122.983 Y123.61 E1.24033
G1 X122.29 Y124.361 E1.28774
G1 X121.421 Y124.913 E1.3355
G1 X120.163 Y125.264 E1.39609
G1 X114.98 Y125.294 E1.63655
G1 X113.717 Y124.958 E1.69718
G1 X112.842 Y124.416 E1.74493
G1 X112.141 Y123.673 E1.79232
G1 X109.526 Y119.205 E2.03249
G1 X109.186 Y117.944 E2.09308
G1 X109.218 Y116.915 E2.14084
G1 X109.511 Y115.936 E2.18825
G1 X112.069 Y111.444 E2.42807
G1 X112.721 Y110.737 E2.47269
G1 X113.047 Y111.041 F30000
G1 F1800
G1 X113.839 Y110.537 E2.51624
G1 X114.929 Y110.236 E2.5687
G1 X120.339 Y110.245 E2.81968
G1 X121.056 Y110.463 E2.85445
G1 X121.75 Y110.848 E2.89127
G1 X122.425 Y111.482 E2.93423
G1 X125.125 Y116.048 E3.18032
G1 X125.419 Y117.133 E3.23247
G1 X125.397 Y118.043 E3.2747
G1 X125.14 Y118.92 E3.3171
G1 X122.608 Y123.366 E3.55447
G1 X121.985 Y124.034 E3.59685
G1 X121.213 Y124.517 E3.6391
G1 X120.131 Y124.818 E3.6912
G1 X115.007 Y124.848 E3.92892
G1 X113.921 Y124.56 E3.98104
G1 X113.144 Y124.086 E4.02327
G1 X112.512 Y123.425 E4.0657
G1 X109.926 Y119.005 E4.30327
G1 X109.633 Y117.921 E4.35536
G1 X109.655 Y117.011 E4.39759
G1 X109.912 Y116.134 E4.43999
G1 X112.444 Y111.688 E4.67736
G1 X113.006 Y111.085 E4.7156
G1 X113.328 Y111.384 F30000
G1 F1800
G1 X114.048 Y110.933 E4.75501
G1 X114.958 Y110.682 E4.7988
G1 X120.303 Y110.691 E5.04677
G1 X120.897 Y110.88 E5.07569
G1 X121.506 Y111.223 E5.10812
G1 X122.094 Y111.783 E5.14579
G1 X124.725 Y116.249 E5.38626
G1 X124.972 Y117.155 E5.42983
G1 X124.952 Y118.003 E5.46918
G1 X124.74 Y118.721 E5.50391
G1 X122.233 Y123.122 E5.73889
G1 X121.723 Y123.671 E5.77365
G1 X121.004 Y124.121 E5.813
G1 X120.099 Y124.372 E5.85657
G1 X115.033 Y124.401 E6.0916
G1 X114.126 Y124.162 E6.13511
G1 X113.401 Y123.72 E6.1745
G1 X112.885 Y123.177 E6.20925
G1 X110.326 Y118.805 E6.44427
G1 X110.08 Y117.9 E6.48778
G1 X110.1 Y117.051 E6.52718
G1 X110.312 Y116.333 E6.56191
G1 X112.819 Y111.932 E6.79689
G1 X113.287 Y111.428 E6.8288
G1 X113.611 Y111.734 F30000
G1 F1800
G1 X114.254 Y111.33 E6.86403
G1 X114.988 Y111.129 E6.89934
G1 X120.264 Y111.138 E7.14411
G1 X120.731 Y111.295 E7.16697
G1 X121.259 Y111.596 E7.19517
G1 X121.761 Y112.082 E7.22759
G1 X124.326 Y116.449 E7.46255
G1 X124.525 Y117.18 E7.4977
G1 X124.514 Y117.91 E7.53157
G1 X124.338 Y118.525 E7.56125
G1 X121.859 Y122.878 E7.79365
G1 X121.42 Y123.342 E7.82328
G1 X120.798 Y123.724 E7.85714
G1 X120.067 Y123.925 E7.89231
G1 X115.06 Y123.955 E8.1246
G1 X114.327 Y123.762 E8.15976
G1 X113.7 Y123.388 E8.19363
G1 X113.256 Y122.928 E8.22329
G1 X110.726 Y118.605 E8.45567
G1 X110.527 Y117.874 E8.49082
G1 X110.538 Y117.144 E8.52469
G1 X110.714 Y116.53 E8.55432
G1 X113.193 Y112.176 E8.78676
G1 X113.57 Y111.778 E8.81219
G1 X113.89 Y112.086 F30000
G1 F1800
G1 X113.931 Y112.044 E8.81491
G1 X114.456 Y111.729 E8.84331
G1 X115.018 Y111.575 E8.87034
G1 X120.16 Y111.573 E9.10889
G1 X120.531 Y111.695 E9.12701
G1 X121.012 Y111.968 E9.15267
G1 X121.426 Y112.378 E9.1797
G1 X123.925 Y116.649 E9.40927
G1 X124.079 Y117.21 E9.43626
G1 X124.076 Y117.822 E9.46465
G1 X123.936 Y118.329 E9.48905
G1 X121.485 Y122.632 E9.71879
G1 X121.121 Y123.01 E9.74314
G1 X120.596 Y123.326 E9.77157
G1 X120.035 Y123.479 E9.79855
G1 X115.086 Y123.508 E10.02815
G1 X114.524 Y123.361 E10.0551
G1 X113.996 Y123.052 E10.08348
G1 X113.627 Y122.678 E10.10785
G1 X111.126 Y118.405 E10.33755
G1 X110.973 Y117.845 E10.36448
G1 X110.976 Y117.232 E10.39292
G1 X111.116 Y116.725 E10.41732
G1 X113.567 Y112.423 E10.64702
G1 X113.849 Y112.13 E10.66589
G1 X114.165 Y112.442 F30000
G1 F1800
G1 X114.226 Y112.38 E10.66993
G1 X114.655 Y112.129 E10.69299
G1 X115.049 Y112.021 E10.71194
G1 X120.06 Y112.009 E10.94441
G1 X120.332 Y112.095 E10.95764
G1 X120.766 Y112.342 E10.98081
G1 X121.056 Y112.629 E10.99974
G1 X123.525 Y116.849 E11.22656
G1 X123.633 Y117.243 E11.24551
G1 X123.636 Y117.74 E11.26857
G1 X123.533 Y118.135 E11.28751
G1 X121.113 Y122.384 E11.51436
G1 X120.826 Y122.674 E11.53329
G1 X120.397 Y122.925 E11.55635
G1 X120.003 Y123.033 E11.5753
G1 X115.113 Y123.062 E11.80216
G1 X114.719 Y122.958 E11.82106
G1 X114.286 Y122.712 E11.84416
G1 X113.996 Y122.426 E11.86306
G1 X111.526 Y118.205 E12.08995
G1 X111.419 Y117.811 E12.10889
G1 X111.416 Y117.314 E12.13195
G1 X111.519 Y116.92 E12.15084
G1 X113.939 Y112.67 E12.37773
G1 X114.123 Y112.485 E12.38983
G1 X114.435 Y112.793 F30000
G1 F1800
G1 X114.477 Y112.751 E12.39259
G1 X114.855 Y112.529 E12.41293
G1 X115.08 Y112.467 E12.42376
G1 X119.966 Y112.446 E12.65044
G1 X120.135 Y112.496 E12.65862
G1 X120.519 Y112.715 E12.67913
G1 X120.685 Y112.879 E12.68996
G1 X123.125 Y117.05 E12.91414
G1 X123.187 Y117.275 E12.92497
G1 X123.19 Y117.713 E12.94529
G1 X123.131 Y117.939 E12.95613
G1 X120.739 Y122.138 E13.18032
G1 X120.575 Y122.304 E13.19115
G1 X120.197 Y122.525 E13.21146
G1 X119.972 Y122.587 E13.22229
G1 X115.14 Y122.615 E13.44646
G1 X114.914 Y122.556 E13.4573
G1 X114.533 Y122.339 E13.47764
G1 X114.367 Y122.175 E13.48847
G1 X111.926 Y118.005 E13.71264
G1 X111.865 Y117.78 E13.72346
G1 X111.862 Y117.341 E13.74383
G1 X111.921 Y117.115 E13.75467
G1 X114.313 Y112.916 E13.97886
G1 X114.393 Y112.836 E13.98411
G1 X114.705 Y113.144 F30000
G1 F1800
G1 X115.056 Y112.929 E14.00321
G1 X115.112 Y112.913 E14.00591
G1 X119.886 Y112.885 E14.22739
G1 X119.942 Y112.9 E14.23008
G1 X120.273 Y113.089 E14.24776
G1 X120.315 Y113.13 E14.25048
G1 X122.725 Y117.25 E14.47192
G1 X122.741 Y117.306 E14.47462
G1 X122.743 Y117.687 E14.4923
G1 X122.728 Y117.744 E14.49503
G1 X120.366 Y121.891 E14.71644
G1 X120.325 Y121.933 E14.71916
G1 X119.996 Y122.125 E14.73683
G1 X119.94 Y122.141 E14.73953
G1 X115.166 Y122.169 E14.96101
G1 X115.11 Y122.154 E14.9637
G1 X114.779 Y121.965 E14.98138
G1 X114.737 Y121.924 E14.9841
G1 X112.326 Y117.804 E15.20556
G1 X112.311 Y117.748 E15.20825
G1 X112.309 Y117.367 E15.22593
G1 X112.324 Y117.311 E15.22862
G1 X114.669 Y113.192 E15.44851
G1 E15.34851 F2400
G92 E0
G1 X120.236 Y118.288 F30000
G1 E.1 F2400
;TYPE:Perimeter
;WIDTH:0.360755
G1 F1800
G1 X120.278 Y118.143 E.10482
G1 X120.345 Y117.623 E.12156
G1 X120.315 Y117.109 E.13799
G1 X120.227 Y116.735 E.15025
G1 X120.68 Y117.509 E.17888
G1 X120.266 Y118.236 E.20558
G1 E.10558 F2400
G92 E0
G1 X119.526 Y115.54 F30000
G1 E.1 F2400
;WIDTH:0.363917
G1 F1800
G1 X119.163 Y115.229 E.11541
G1 X118.666 Y114.946 E.13385
G1 X118.21 Y114.793 E.14936
G1 X119.086 Y114.788 E.17761
G1 X119.496 Y115.489 E.2038
G1 E.1038 F2400
G92 E0
G1 X116.817 Y114.801 F30000
G1 E.1 F2400
;WIDTH:0.363023
G1 F1800
G1 X116.392 Y114.944 E.11442
G1 X115.895 Y115.225 E.13278
G1 X115.501 Y115.565 E.14951
G1 X115.934 Y114.806 E.17761
G1 X116.757 Y114.801 E.20407
G1 E.10407 F2400
G92 E0
G1 X114.825 Y118.319 F30000
G1 E.1 F2400
;WIDTH:0.360756
G1 F1800
G1 X114.372 Y117.545 E.12863
G1 X114.816 Y116.766 E.15725
G1 X114.774 Y116.911 E.16207
G1 X114.707 Y117.431 E.17881
G1 X114.737 Y117.945 E.19524
G1 X114.811 Y118.261 E.2056
G1 E.1056 F2400
G92 E0
G1 X116.842 Y120.261 F30000
G1 E.1 F2400
;WIDTH:0.363917
G1 F1800
G1 X115.966 Y120.266 E.12825
G1 X115.528 Y119.518 E.1562
G1 X115.889 Y119.825 E.17148
G1 X116.386 Y120.108 E.18992
G1 X116.785 Y120.242 E.20349
G1 E.10349 F2400
G92 E0
G1 X119.55 Y119.491 F30000
G1 E.1 F2400
;WIDTH:0.363022
G1 F1800
G1 X119.118 Y120.248 E.12803
G1 X118.235 Y120.253 E.15642
G1 X118.66 Y120.11 E.17084
G1 X119.156 Y119.829 E.18917
G1 X119.504 Y119.53 E.20392
G1 E.10392 F2400
G92 E0
G1 X121.115 Y117.506 F30000
G1 E.1 F2400
;WIDTH:0.499999
G1 F1800
G1 X120.963 Y117.772 E.11421
G1 X120.739 Y118.166 E.13524
;WIDTH:0.543496
G1 X120.63 Y118.314 E.1446
;WIDTH:0.586993
G1 X120.52 Y118.462 E.15482
;WIDTH:0.63049
G1 X120.411 Y118.611 E.16589
G1 X120.124 Y119.135 E.20171
;WIDTH:0.646725
G1 X119.844 Y119.588 E.23454
G1 X119.83 Y119.663 E.23924
;WIDTH:0.597817
G1 X119.815 Y119.738 E.24357
;WIDTH:0.548908
G1 X119.801 Y119.813 E.2475
;WIDTH:0.499999
G1 X119.339 Y120.625 E.29084
G1 X118.697 Y120.628 E.32062
;WIDTH:0.547908
G1 X118.416 Y120.606 E.3351
;WIDTH:0.595816
G1 X118.136 Y120.584 E.35093
;WIDTH:0.609515
G1 X117.619 Y120.58 E.3808
;WIDTH:0.626098
G1 X117.109 Y120.575 E.41115
G1 X116.929 Y120.597 E.42194
;WIDTH:0.584065
G1 X116.749 Y120.619 E.43194
;WIDTH:0.542032
G1 X116.57 Y120.641 E.44109
;WIDTH:0.499999
G1 X115.75 Y120.646 E.47913
G1 X115.257 Y119.804 E.5244
;WIDTH:0.547419
G1 X115.242 Y119.73 E.52828
;WIDTH:0.594839
G1 X115.226 Y119.656 E.53254
;WIDTH:0.642259
G1 X115.21 Y119.582 E.53717
G1 X114.908 Y119.099 E.57202
;WIDTH:0.633996
G1 X114.636 Y118.61 E.60577
G1 X114.559 Y118.522 E.61282
;WIDTH:0.589331
G1 X114.482 Y118.435 E.61929
;WIDTH:0.544665
G1 X114.405 Y118.347 E.62526
;WIDTH:0.499999
G1 X113.937 Y117.548 E.66822
G1 X114.313 Y116.888 E.70346
;WIDTH:0.541302
G1 X114.432 Y116.721 E.71385
;WIDTH:0.582605
G1 X114.551 Y116.554 E.72512
;WIDTH:0.623907
G1 X114.67 Y116.386 E.73732
G1 X114.928 Y115.919 E.76894
;WIDTH:0.646728
G1 X115.208 Y115.466 E.80177
G1 X115.222 Y115.391 E.80647
;WIDTH:0.597819
G1 X115.237 Y115.316 E.8108
;WIDTH:0.548909
G1 X115.251 Y115.241 E.81473
;WIDTH:0.499999
G1 X115.713 Y114.429 E.85807
G1 X116.355 Y114.426 E.88785
;WIDTH:0.547909
G1 X116.635 Y114.448 E.90228
;WIDTH:0.595818
G1 X116.916 Y114.47 E.91816
;WIDTH:0.610015
G1 X117.411 Y114.475 E.94679
;WIDTH:0.625719
G1 X117.936 Y114.479 E.97801
G1 X118.118 Y114.457 E.98891
;WIDTH:0.583813
G1 X118.3 Y114.435 E.99901
;WIDTH:0.541906
G1 X118.482 Y114.413 E1.00831
;WIDTH:0.499999
G1 X119.302 Y114.408 E1.04635
G1 X119.795 Y115.25 E1.09162
;WIDTH:0.54742
G1 X119.81 Y115.324 E1.0955
;WIDTH:0.59484
G1 X119.826 Y115.398 E1.09976
;WIDTH:0.64226
G1 X119.842 Y115.472 E1.10439
G1 X120.039 Y115.78 E1.12676
;WIDTH:0.618738
G1 X120.321 Y116.267 E1.15981
G1 X120.43 Y116.413 E1.17051
;WIDTH:0.579159
G1 X120.538 Y116.56 E1.18047
;WIDTH:0.539579
G1 X120.647 Y116.707 E1.18971
;WIDTH:0.499999
G1 X121.085 Y117.454 E1.22988
G1 X121.63 Y117.503 F30000
;TYPE:External perimeter
G1 F1800
G1 X119.599 Y121.069 E1.42027
G1 X115.495 Y121.093 E1.61067
G1 X113.422 Y117.551 E1.80107
G1 X115.453 Y113.985 E1.99146
G1 X119.557 Y113.961 E2.18186
G1 X121.6 Y117.451 E2.36947
G1 X121.285 Y117.705 F30000
G1 E2.26947 F2400
G92 E0
G1 X119.822 Y118.508 F30000
G1 E.1 F2400
;TYPE:Perimeter
;WIDTH:0.63049
G1 F1800
G1 X119.654 Y118.836 E.12209
;WIDTH:0.646725
G1 X119.357 Y119.254 E.1537
G1 X119.305 Y119.271 E.15707
;WIDTH:0.597817
G1 X119.254 Y119.288 E.16011
;WIDTH:0.548908
G1 X119.202 Y119.305 E.16293
;WIDTH:0.499999
G1 X118.804 Y119.61 E.18619
;WIDTH:0.547908
G1 X118.426 Y119.787 E.20763
;WIDTH:0.595816
G1 X118.047 Y119.964 E.2312
;WIDTH:0.609515
G1 X117.592 Y120.025 E.25772
;WIDTH:0.626098
G1 X117.133 Y120.003 E.28506
G1 X116.942 Y119.926 E.29731
;WIDTH:0.584065
G1 X116.751 Y119.849 E.30866
;WIDTH:0.542032
G1 X116.56 Y119.772 E.31911
;WIDTH:0.499999
G1 X116.128 Y119.532 E.34204
G1 X115.845 Y119.301 E.35899
;WIDTH:0.547419
G1 X115.794 Y119.283 E.36177
;WIDTH:0.594839
G1 X115.743 Y119.266 E.36479
;WIDTH:0.642259
G1 X115.692 Y119.248 E.3681
G1 X115.394 Y118.831 E.39946
;WIDTH:0.633996
G1 X115.165 Y118.383 E.42981
G1 X115.138 Y118.118 E.44588
;WIDTH:0.589331
G1 X115.11 Y117.853 E.46072
;WIDTH:0.544665
G1 X115.082 Y117.588 E.47432
;WIDTH:0.499999
G1 X115.082 Y117.465 E.48003
;WIDTH:0.53466
G1 X115.115 Y117.2 E.49338
;WIDTH:0.56932
G1 X115.149 Y116.935 E.5077
;WIDTH:0.60398
G1 X115.182 Y116.67 E.52298
;WIDTH:0.609782
G1 X115.398 Y116.218 E.55194
;WIDTH:0.646728
G1 X115.695 Y115.8 E.58355
G1 X115.747 Y115.783 E.58692
;WIDTH:0.597819
G1 X115.798 Y115.766 E.58996
;WIDTH:0.548909
G1 X115.849 Y115.749 E.59273
;WIDTH:0.499999
G1 X116.247 Y115.444 E.61599
;WIDTH:0.547909
G1 X116.626 Y115.267 E.63748
;WIDTH:0.595818
G1 X117.005 Y115.09 E.66105
;WIDTH:0.610015
G1 X117.439 Y115.03 E.68639
;WIDTH:0.625719
G1 X117.913 Y115.05 E.7146
G1 X118.106 Y115.128 E.72698
;WIDTH:0.583813
G1 X118.299 Y115.205 E.73843
;WIDTH:0.541906
G1 X118.492 Y115.282 E.74898
;WIDTH:0.499999
G1 X118.924 Y115.522 E.77191
G1 X119.207 Y115.753 E.78886
;WIDTH:0.54742
G1 X119.258 Y115.771 E.79164
;WIDTH:0.59484
G1 X119.309 Y115.788 E.79466
;WIDTH:0.64226
G1 X119.359 Y115.806 E.79791
G1 X119.657 Y116.223 E.82927
;WIDTH:0.60939
G1 X119.871 Y116.675 E.85816
;WIDTH:0.601066
G1 X119.904 Y116.939 E.8733
;WIDTH:0.567377
G1 X119.937 Y117.202 E.88745
;WIDTH:0.533688
G1 X119.97 Y117.466 E.90072
;WIDTH:0.499999
G1 X119.916 Y118.038 E.92737
;WIDTH:0.543496
G1 X119.905 Y118.155 E.93335
;WIDTH:0.586993
G1 X119.894 Y118.271 E.93981
;WIDTH:0.63049
G1 X119.883 Y118.388 E.94686
G1 X119.849 Y118.454 E.95131
G1 X119.364 Y118.308 F30000
;TYPE:External perimeter
;WIDTH:0.499999
G1 F1800
G1 X119.185 Y118.643 E.96893
G1 X118.921 Y118.959 E.98803
G1 X118.578 Y119.224 E1.00814
G1 X118.241 Y119.394 E1.02565
G1 X117.869 Y119.497 E1.04356
G1 X117.505 Y119.526 E1.0605
G1 X117.139 Y119.488 E1.07757
G1 X116.766 Y119.376 E1.09564
G1 X116.41 Y119.186 E1.11436
G1 X116.094 Y118.922 E1.13346
G1 X115.84 Y118.601 E1.15245
G1 X115.659 Y118.242 E1.1711
G1 X115.556 Y117.87 E1.18901
G1 X115.527 Y117.507 E1.2059
G1 X115.565 Y117.14 E1.22302
G1 X115.677 Y116.767 E1.24109
G1 X115.867 Y116.411 E1.25981
G1 X116.131 Y116.096 E1.27888
G1 X116.474 Y115.83 E1.29902
G1 X116.811 Y115.66 E1.31653
G1 X117.182 Y115.558 E1.33438
G1 X117.526 Y115.529 E1.3504
G1 X117.913 Y115.566 E1.36844
G1 X118.286 Y115.678 E1.38651
G1 X118.642 Y115.868 E1.40523
G1 X118.957 Y116.132 E1.4243
G1 X119.212 Y116.454 E1.44336
G1 X119.393 Y116.812 E1.46197
G1 X119.496 Y117.184 E1.47988
