; generated by PrusaSlicer 2.6.1+linux-x64-GTK3 on 2023-10-29 at 00:44:02 UTC

; 

; external perimeters extrusion width = 0.45mm
; perimeters extrusion width = 0.45mm
; infill extrusion width = 0.45mm
; solid infill extrusion width = 0.45mm
; top infill extrusion width = 0.40mm
; first layer extrusion width = 0.50mm

;TYPE:Custom
; M190 R30 ; Because of probe temperature drift,
; M109 R30 ; Let the beds and hotend cool down before homing the axis

G28 ; home all axes
G1 Z100.0 F3000 ; Raise head above brush
M190 S65 ; set bed temperature and wait for it to be reached
M109 S230 ; set hot end temp and wait for it

; Brush any crap off the nozzle
G1 X232.0 Y0.0 F3000 ; Goto Start of movement
G1 Z19.0 F3000 ; Lower into brush
G1 X221.0 Y2.0 F3000 ; Goto Start of movement
G1 X229.0 Y4.0 F3000 ; 
G1 X221.0 Y6.0 F3000 ; 
G1 X229.0 Y8.0 F3000 ; 
G1 X221.0 Y10.0 F3000 ;
G1 X229.0 Y12.0 F3000 ;
G1 X221.0 Y14.0 F3000 ;
G1 X229.0 Y16.0 F3000 ;
G1 X221.0 Y18.0 F3000 ;
G1 X229.0 Y20.0 F3000 ;
G1 X221.0 Y22.0 F3000 ;
G1 X229.0 Y24.0 F3000 ;
G1 X221.0 Y26.0 F3000 ;
G1 X229.0 Y28.0 F3000 ;
G1 X221.0 Y30.0 F3000 ;
G1 X229.0 Y28.0 F3000 ;
G1 X221.0 Y26.0 F3000 ;
G1 X229.0 Y24.0 F3000 ;
G1 X221.0 Y22.0 F3000 ;
G1 X229.0 Y20.0 F3000 ;
G1 X221.0 Y18.0 F3000 ;
G1 X229.0 Y16.0 F3000 ;
G1 X221.0 Y14.0 F3000 ;
G1 X229.0 Y12.0 F3000 ;
G1 X221.0 Y10.0 F3000 ;
G1 X229.0 Y8.0 F3000 ; 
G1 X221.0 Y6.0 F3000 ; 
G1 X229.0 Y4.0 F3000 ; 
G1 X221.0 Y2.0 F3000 ; 
G1 X229.0 Y0.0 F3000 ; 
G1 X225.0 Y0.0 F3000 ; 
G1 X225.0 Y30.0 F5000 ; 
G1 X225.0 Y0.0 F5000 ; 
G1 X225.0 Y30.0 F5000 ; 
G1 X225.0 Y0.0 F5000 ; 
G1 X225.0 Y30.0 F5000 ; 

; Do a purge line to prime the extruder
G92 E0 ;Reset Extruder
G1 X227.0 Y80.0 F5000 ; Goto Start of purge
G1 Z0.28 F5000 ;Move Head to start height
G1 X227.0 Y230.0 Z0.28 F1500.0 E15; Draw first line
G1 X226.7 Y230.0 Z0.28 F5000.0 ;Move to side a little
G1 X226.7 Y80.0 Z0.28 F1500.0 E30; Draw the second line
G1 Z0.4 F5000; Move Z Axis Up
G1 Y120 F1500; Wipe to the back
G1 X117.5 Y117.5 Z27.0 F5000 ; Raise head above brush
G92 E0 ;Reset Extruder
G21 ; set units to millimeters
G90 ; use absolute coordinates
M82 ; use absolute distances for extrusion
G92 E0
; Filament gcode
SET_PRESSURE_ADVANCE ADVANCE=0.063
M107
;LAYER_CHANGE
;Z:0.25
;HEIGHT:0.25
G1 Z.25 F30000
G1 E-.1 F2400
G92 E0
G1 X116.523 Y70.289 F30000
G1 E.1 F2400
;TYPE:Perimeter
;WIDTH:0.499999
G1 F1800
G1 X116.476 Y70.048 E.11139
G1 X116.116 Y69.582 E.13871
;WIDTH:0.544709
G1 X115.892 Y69.485 E.15117
;WIDTH:0.589418
G1 X115.668 Y69.388 E.16476
;WIDTH:0.634127
G1 X115.444 Y69.29 E.17951
G1 X106.09 Y69.29 E.74387
;WIDTH:0.645289
G1 X105.884 Y69.303 E.75656
G1 X105.778 Y69.365 E.76411
;WIDTH:0.596859
G1 X105.671 Y69.427 E.77109
;WIDTH:0.548429
G1 X105.565 Y69.489 E.77741
;WIDTH:0.499999
G1 X105.197 Y69.804 E.79988
G1 X105.018 Y70.161 E.81841
G1 X104.974 Y70.473 E.83303
G1 X104.974 Y166.357 E5.28134
G1 X98.359 Y166.357 E5.58823
G1 X98.359 Y68.643 E10.12144
G1 X105.353 Y68.643 E10.44591
;WIDTH:0.548429
G1 X105.513 Y68.667 E10.45423
;WIDTH:0.596859
G1 X105.673 Y68.691 E10.46336
;WIDTH:0.645289
G1 X105.833 Y68.715 E10.47331
G1 X106.09 Y68.71 E10.48912
;WIDTH:0.634127
G1 X115.444 Y68.71 E11.05348
G1 X115.773 Y68.687 E11.07338
;WIDTH:0.589418
G1 X116.102 Y68.665 E11.09174
;WIDTH:0.544709
G1 X116.431 Y68.643 E11.10857
;WIDTH:0.499999
G1 X118.404 Y68.643 E11.2001
;WIDTH:0.544709
G1 X118.733 Y68.665 E11.21693
;WIDTH:0.589418
G1 X119.061 Y68.687 E11.23524
;WIDTH:0.634127
G1 X119.39 Y68.71 E11.25514
G1 X128.91 Y68.71 E11.82952
G1 X129.156 Y68.687 E11.84443
;WIDTH:0.589418
G1 X129.401 Y68.665 E11.85813
;WIDTH:0.544709
G1 X129.647 Y68.643 E11.87074
;WIDTH:0.499999
G1 X136.641 Y68.643 E12.19521
G1 X136.641 Y71.95 E12.34863
G1 X136.641 Y166.357 E16.72841
G1 X130.026 Y166.357 E17.0353
G1 X130.026 Y70.473 E21.48361
G1 X129.982 Y70.161 E21.49823
G1 X129.803 Y69.804 E21.51676
G1 X129.435 Y69.489 E21.53923
;WIDTH:0.544709
G1 X129.26 Y69.422 E21.54879
;WIDTH:0.589418
G1 X129.085 Y69.356 E21.55921
;WIDTH:0.634127
G1 X128.91 Y69.29 E21.57049
G1 X119.39 Y69.29 E22.14487
;WIDTH:0.645289
G1 X119.185 Y69.303 E22.1575
G1 X119.029 Y69.396 E22.16867
;WIDTH:0.596859
G1 X118.874 Y69.489 E22.17888
;WIDTH:0.548429
G1 X118.718 Y69.582 E22.18822
;WIDTH:0.499999
G1 X118.358 Y70.048 E22.21554
G1 X118.274 Y70.473 E22.23564
G1 X118.274 Y72.357 E22.32304
G1 X116.56 Y72.357 E22.40256
G1 X116.56 Y70.473 E22.48996
G1 X116.535 Y70.348 E22.49587
G1 X116.095 Y70.381 F30000
G1 F1800
G1 X116.063 Y70.218 E22.50358
G1 X115.847 Y69.939 E22.51995
G1 X115.444 Y69.804 E22.53967
G1 X106.09 Y69.804 E22.97363
G1 X105.775 Y69.882 E22.98869
G1 X105.554 Y70.071 E23.00218
G1 X105.447 Y70.286 E23.01332
G1 X105.42 Y70.473 E23.02209
G1 X105.42 Y166.804 E27.49113
G1 X97.913 Y166.804 E27.8394
G1 X97.913 Y68.196 E32.41408
G1 X137.087 Y68.196 E34.23146
G1 X137.087 Y166.804 E38.80614
G1 X129.58 Y166.804 E39.15441
G1 X129.58 Y70.473 E43.62345
G1 X129.553 Y70.286 E43.63222
G1 X129.446 Y70.071 E43.64336
G1 X129.225 Y69.882 E43.65685
G1 X128.91 Y69.804 E43.67191
G1 X119.275 Y69.814 E44.1189
G1 X118.987 Y69.939 E44.13347
G1 X118.771 Y70.218 E44.14984
G1 X118.721 Y70.473 E44.1619
G1 X118.721 Y72.804 E44.27004
G1 X116.113 Y72.804 E44.39103
G1 X116.107 Y70.44 E44.5007
G1 X115.667 Y70.473 F30000
;TYPE:External perimeter
G1 F1800
G1 X115.578 Y70.295 E44.50993
G1 X115.444 Y70.25 E44.51649
G1 X106.09 Y70.25 E44.95045
G1 X106.051 Y70.253 E44.95226
G1 X105.911 Y70.339 E44.95988
G1 X105.867 Y70.473 E44.96642
G1 X105.867 Y167.25 E49.45616
G1 X97.466 Y167.25 E49.8459
G1 X97.466 Y67.75 E54.46196
G1 X137.534 Y67.75 E56.32082
G1 X137.534 Y167.25 E60.93688
G1 X129.133 Y167.25 E61.32662
G1 X129.133 Y70.473 E65.81636
G1 X129.089 Y70.339 E65.8229
G1 X128.91 Y70.25 E65.83217
G1 X119.39 Y70.25 E66.27383
G1 X119.256 Y70.295 E66.28039
G1 X119.167 Y70.473 E66.28962
G1 X119.167 Y73.25 E66.41845
G1 X115.667 Y73.25 E66.58082
G1 X115.667 Y70.533 E66.70687
G1 X115.752 Y70.293 F30000
G1 X115.677 Y69.004
;TYPE:Solid infill
;WIDTH:0.552428
G1 F1800
G1 X118.525 Y69.004 E66.85452
G1 X118.859 Y69.07 E66.87217
G1 X118.506 Y69.323 E66.89469
G1 X118.367 Y69.502 E66.90644
G1 X116.467 Y69.502 E67.00494
G1 X116.783 Y69.911 E67.03173
G1 X116.81 Y70.001 E67.0366
G1 X118.024 Y70.001 E67.09954
G1 X117.969 Y70.181 E67.1093
G1 X117.94 Y70.5 E67.12591
G1 X116.895 Y70.5 E67.18008
G1 X116.895 Y70.999 E67.20595
G1 X117.94 Y70.999 E67.26012
G1 X117.94 Y71.498 E67.28599
G1 X116.895 Y71.498 E67.34016
G1 X116.895 Y71.996 E67.36598
G1 X118.141 Y71.996 E67.43058
G1 E67.33058 F2400
G92 E0
G1 X129.135 Y68.978 F30000
G1 E.1 F2400
;WIDTH:0.500858
G1 F1800
G1 X136.306 Y68.978 E.43332
G1 X136.306 Y69.425 E.4541
G1 X129.868 Y69.425 E.75335
G1 X130.071 Y69.6 E.76581
G1 X130.208 Y69.872 E.77997
G1 X136.306 Y69.872 E1.06342
G1 X136.306 Y70.32 E1.08424
G1 X130.34 Y70.32 E1.36155
G1 X130.361 Y70.465 E1.36836
G1 X130.361 Y70.767 E1.3824
G1 X136.306 Y70.767 E1.65873
G1 X136.306 Y71.214 E1.67951
G1 X130.361 Y71.214 E1.95584
G1 X130.361 Y71.661 E1.97662
G1 X136.306 Y71.661 E2.25295
G1 X136.306 Y72.108 E2.27373
G1 X130.361 Y72.108 E2.55006
G1 X130.361 Y72.556 E2.57088
G1 X136.306 Y72.556 E2.84721
G1 X136.306 Y73.003 E2.86799
G1 X130.361 Y73.003 E3.14432
G1 X130.361 Y73.45 E3.1651
G1 X136.306 Y73.45 E3.44143
G1 X136.306 Y73.897 E3.46221
G1 X130.361 Y73.897 E3.73854
G1 X130.361 Y74.344 E3.75932
G1 X136.306 Y74.344 E4.03565
G1 X136.306 Y74.792 E4.05647
G1 X130.361 Y74.792 E4.3328
G1 X130.361 Y75.239 E4.35358
G1 X136.306 Y75.239 E4.62991
G1 X136.306 Y75.686 E4.65069
G1 X130.361 Y75.686 E4.92702
G1 X130.361 Y76.133 E4.9478
G1 X136.306 Y76.133 E5.22413
G1 X136.306 Y76.58 E5.24491
G1 X130.361 Y76.58 E5.52124
G1 X130.361 Y77.028 E5.54206
G1 X136.306 Y77.028 E5.81839
G1 X136.306 Y77.475 E5.83917
G1 X130.361 Y77.475 E6.1155
G1 X130.361 Y77.922 E6.13628
G1 X136.306 Y77.922 E6.41261
G1 X136.306 Y78.369 E6.43339
G1 X130.361 Y78.369 E6.70972
G1 X130.361 Y78.817 E6.73054
G1 X136.306 Y78.817 E7.00687
G1 X136.306 Y79.264 E7.02765
G1 X130.361 Y79.264 E7.30398
G1 X130.361 Y79.711 E7.32476
G1 X136.306 Y79.711 E7.60109
G1 X136.306 Y80.158 E7.62187
G1 X130.361 Y80.158 E7.8982
G1 X130.361 Y80.605 E7.91898
G1 X136.306 Y80.605 E8.19531
G1 X136.306 Y81.053 E8.21613
G1 X130.361 Y81.053 E8.49246
G1 X130.361 Y81.5 E8.51324
G1 X136.306 Y81.5 E8.78957
G1 X136.306 Y81.947 E8.81035
G1 X130.361 Y81.947 E9.08668
G1 X130.361 Y82.394 E9.10746
G1 X136.306 Y82.394 E9.38379
G1 X136.306 Y82.841 E9.40457
G1 X130.361 Y82.841 E9.6809
G1 X130.361 Y83.289 E9.70172
G1 X136.306 Y83.289 E9.97805
G1 X136.306 Y83.736 E9.99883
G1 X130.361 Y83.736 E10.27516
G1 X130.361 Y84.183 E10.29594
G1 X136.306 Y84.183 E10.57227
G1 X136.306 Y84.63 E10.59305
G1 X130.361 Y84.63 E10.86938
G1 X130.361 Y85.077 E10.89016
G1 X136.306 Y85.077 E11.16649
G1 X136.306 Y85.525 E11.18731
G1 X130.361 Y85.525 E11.46364
G1 X130.361 Y85.972 E11.48442
G1 X136.306 Y85.972 E11.76075
G1 X136.306 Y86.419 E11.78153
G1 X130.361 Y86.419 E12.05786
G1 X130.361 Y86.866 E12.07864
G1 X136.306 Y86.866 E12.35497
G1 X136.306 Y87.313 E12.37575
G1 X130.361 Y87.313 E12.65208
G1 X130.361 Y87.761 E12.6729
G1 X136.306 Y87.761 E12.94923
G1 X136.306 Y88.208 E12.97001
G1 X130.361 Y88.208 E13.24634
G1 X130.361 Y88.655 E13.26712
G1 X136.306 Y88.655 E13.54345
G1 X136.306 Y89.102 E13.56423
G1 X130.361 Y89.102 E13.84056
G1 X130.361 Y89.549 E13.86134
G1 X136.306 Y89.549 E14.13767
G1 X136.306 Y89.997 E14.15849
G1 X130.361 Y89.997 E14.43482
G1 X130.361 Y90.444 E14.4556
G1 X136.306 Y90.444 E14.73193
G1 X136.306 Y90.891 E14.75271
G1 X130.361 Y90.891 E15.02904
G1 X130.361 Y91.338 E15.04982
G1 X136.306 Y91.338 E15.32615
G1 X136.306 Y91.786 E15.34697
G1 X130.361 Y91.786 E15.6233
G1 X130.361 Y92.233 E15.64408
G1 X136.306 Y92.233 E15.92041
G1 X136.306 Y92.68 E15.94119
G1 X130.361 Y92.68 E16.21752
G1 X130.361 Y93.127 E16.2383
G1 X136.306 Y93.127 E16.51463
G1 X136.306 Y93.574 E16.53541
G1 X130.361 Y93.574 E16.81174
G1 X130.361 Y94.022 E16.83256
G1 X136.306 Y94.022 E17.10889
G1 X136.306 Y94.469 E17.12967
G1 X130.361 Y94.469 E17.406
G1 X130.361 Y94.916 E17.42678
G1 X136.306 Y94.916 E17.70311
G1 X136.306 Y95.363 E17.72389
G1 X130.361 Y95.363 E18.00022
G1 X130.361 Y95.81 E18.021
G1 X136.306 Y95.81 E18.29733
G1 X136.306 Y96.258 E18.31815
G1 X130.361 Y96.258 E18.59448
G1 X130.361 Y96.705 E18.61526
G1 X136.306 Y96.705 E18.89159
G1 X136.306 Y97.152 E18.91237
G1 X130.361 Y97.152 E19.1887
G1 X130.361 Y97.599 E19.20948
G1 X136.306 Y97.599 E19.48581
G1 X136.306 Y98.046 E19.50659
G1 X130.361 Y98.046 E19.78292
G1 X130.361 Y98.494 E19.80374
G1 X136.306 Y98.494 E20.08007
G1 X136.306 Y98.941 E20.10085
G1 X130.361 Y98.941 E20.37718
G1 X130.361 Y99.388 E20.39796
G1 X136.306 Y99.388 E20.67429
G1 X136.306 Y99.835 E20.69507
G1 X130.361 Y99.835 E20.9714
G1 X130.361 Y100.282 E20.99218
G1 X136.306 Y100.282 E21.26851
G1 X136.306 Y100.73 E21.28933
G1 X130.361 Y100.73 E21.56566
G1 X130.361 Y101.177 E21.58644
G1 X136.306 Y101.177 E21.86277
G1 X136.306 Y101.624 E21.88355
G1 X130.361 Y101.624 E22.15988
G1 X130.361 Y102.071 E22.18066
G1 X136.306 Y102.071 E22.45699
G1 X136.306 Y102.519 E22.47781
G1 X130.361 Y102.519 E22.75414
G1 X130.361 Y102.966 E22.77492
G1 X136.306 Y102.966 E23.05125
G1 X136.306 Y103.413 E23.07203
G1 X130.361 Y103.413 E23.34836
G1 X130.361 Y103.86 E23.36914
G1 X136.306 Y103.86 E23.64547
G1 X136.306 Y104.307 E23.66625
G1 X130.361 Y104.307 E23.94258
G1 X130.361 Y104.755 E23.9634
G1 X136.306 Y104.755 E24.23973
G1 X136.306 Y105.202 E24.26051
G1 X130.361 Y105.202 E24.53684
G1 X130.361 Y105.649 E24.55762
G1 X136.306 Y105.649 E24.83395
G1 X136.306 Y106.096 E24.85473
G1 X130.361 Y106.096 E25.13106
G1 X130.361 Y106.543 E25.15184
G1 X136.306 Y106.543 E25.42817
G1 X136.306 Y106.991 E25.44899
G1 X130.361 Y106.991 E25.72532
G1 X130.361 Y107.438 E25.7461
G1 X136.306 Y107.438 E26.02243
G1 X136.306 Y107.885 E26.04321
G1 X130.361 Y107.885 E26.31954
G1 X130.361 Y108.332 E26.34032
G1 X136.306 Y108.332 E26.61665
G1 X136.306 Y108.779 E26.63743
G1 X130.361 Y108.779 E26.91376
G1 X130.361 Y109.227 E26.93458
G1 X136.306 Y109.227 E27.21091
G1 X136.306 Y109.674 E27.23169
G1 X130.361 Y109.674 E27.50802
G1 X130.361 Y110.121 E27.5288
G1 X136.306 Y110.121 E27.80513
G1 X136.306 Y110.568 E27.82591
G1 X130.361 Y110.568 E28.10224
G1 X130.361 Y111.015 E28.12302
G1 X136.306 Y111.015 E28.39935
G1 X136.306 Y111.463 E28.42017
G1 X130.361 Y111.463 E28.6965
G1 X130.361 Y111.91 E28.71728
G1 X136.306 Y111.91 E28.99361
G1 X136.306 Y112.357 E29.01439
G1 X130.361 Y112.357 E29.29072
G1 X130.361 Y112.804 E29.3115
G1 X136.306 Y112.804 E29.58783
G1 X136.306 Y113.252 E29.60865
G1 X130.361 Y113.252 E29.88498
G1 X130.361 Y113.699 E29.90576
G1 X136.306 Y113.699 E30.18209
G1 X136.306 Y114.146 E30.20287
G1 X130.361 Y114.146 E30.4792
G1 X130.361 Y114.593 E30.49998
G1 X136.306 Y114.593 E30.77631
G1 X136.306 Y115.04 E30.79709
G1 X130.361 Y115.04 E31.07342
G1 X130.361 Y115.488 E31.09424
G1 X136.306 Y115.488 E31.37057
G1 X136.306 Y115.935 E31.39135
G1 X130.361 Y115.935 E31.66768
G1 X130.361 Y116.382 E31.68846
G1 X136.306 Y116.382 E31.96479
G1 X136.306 Y116.829 E31.98557
G1 X130.361 Y116.829 E32.2619
G1 X130.361 Y117.276 E32.28268
G1 X136.306 Y117.276 E32.55901
G1 X136.306 Y117.724 E32.57983
G1 X130.361 Y117.724 E32.85616
G1 X130.361 Y118.171 E32.87694
G1 X136.306 Y118.171 E33.15327
G1 X136.306 Y118.618 E33.17405
G1 X130.361 Y118.618 E33.45038
G1 X130.361 Y119.065 E33.47116
G1 X136.306 Y119.065 E33.74749
G1 X136.306 Y119.512 E33.76827
G1 X130.361 Y119.512 E34.0446
G1 X130.361 Y119.96 E34.06542
G1 X136.306 Y119.96 E34.34175
G1 X136.306 Y120.407 E34.36253
G1 X130.361 Y120.407 E34.63886
G1 X130.361 Y120.854 E34.65964
G1 X136.306 Y120.854 E34.93597
G1 X136.306 Y121.301 E34.95675
G1 X130.361 Y121.301 E35.23308
G1 X130.361 Y121.748 E35.25386
G1 X136.306 Y121.748 E35.53019
G1 X136.306 Y122.196 E35.55101
G1 X130.361 Y122.196 E35.82734
G1 X130.361 Y122.643 E35.84812
G1 X136.306 Y122.643 E36.12445
G1 X136.306 Y123.09 E36.14523
G1 X130.361 Y123.09 E36.42156
G1 X130.361 Y123.537 E36.44234
G1 X136.306 Y123.537 E36.71867
G1 X136.306 Y123.985 E36.73949
G1 X130.361 Y123.985 E37.01582
G1 X130.361 Y124.432 E37.0366
G1 X136.306 Y124.432 E37.31293
G1 X136.306 Y124.879 E37.33371
G1 X130.361 Y124.879 E37.61004
G1 X130.361 Y125.326 E37.63082
G1 X136.306 Y125.326 E37.90715
G1 X136.306 Y125.773 E37.92793
G1 X130.361 Y125.773 E38.20426
G1 X130.361 Y126.221 E38.22508
G1 X136.306 Y126.221 E38.50141
G1 X136.306 Y126.668 E38.52219
G1 X130.361 Y126.668 E38.79852
G1 X130.361 Y127.115 E38.8193
G1 X136.306 Y127.115 E39.09563
G1 X136.306 Y127.562 E39.11641
G1 X130.361 Y127.562 E39.39274
G1 X130.361 Y128.009 E39.41352
G1 X136.306 Y128.009 E39.68985
G1 X136.306 Y128.457 E39.71067
G1 X130.361 Y128.457 E39.987
G1 X130.361 Y128.904 E40.00778
G1 X136.306 Y128.904 E40.28411
G1 X136.306 Y129.351 E40.30489
G1 X130.361 Y129.351 E40.58122
G1 X130.361 Y129.798 E40.602
G1 X136.306 Y129.798 E40.87833
G1 X136.306 Y130.245 E40.89911
G1 X130.361 Y130.245 E41.17544
G1 X130.361 Y130.693 E41.19626
G1 X136.306 Y130.693 E41.47259
G1 X136.306 Y131.14 E41.49337
G1 X130.361 Y131.14 E41.7697
G1 X130.361 Y131.587 E41.79048
G1 X136.306 Y131.587 E42.06681
G1 X136.306 Y132.034 E42.08759
G1 X130.361 Y132.034 E42.36392
G1 X130.361 Y132.481 E42.3847
G1 X136.306 Y132.481 E42.66103
G1 X136.306 Y132.929 E42.68185
G1 X130.361 Y132.929 E42.95818
G1 X130.361 Y133.376 E42.97896
G1 X136.306 Y133.376 E43.25529
G1 X136.306 Y133.823 E43.27607
G1 X130.361 Y133.823 E43.5524
G1 X130.361 Y134.27 E43.57318
G1 X136.306 Y134.27 E43.84951
G1 X136.306 Y134.718 E43.87033
G1 X130.361 Y134.718 E44.14666
G1 X130.361 Y135.165 E44.16744
G1 X136.306 Y135.165 E44.44377
G1 X136.306 Y135.612 E44.46455
G1 X130.361 Y135.612 E44.74088
G1 X130.361 Y136.059 E44.76166
G1 X136.306 Y136.059 E45.03799
G1 X136.306 Y136.506 E45.05877
G1 X130.361 Y136.506 E45.3351
G1 X130.361 Y136.954 E45.35592
G1 X136.306 Y136.954 E45.63225
G1 X136.306 Y137.401 E45.65303
G1 X130.361 Y137.401 E45.92936
G1 X130.361 Y137.848 E45.95014
G1 X136.306 Y137.848 E46.22647
G1 X136.306 Y138.295 E46.24725
